(Project microatx)
(Created by Estlcam version 11 build 11.231)
(Machining time about 00:18:26 hours)

(Required tools:)
(Endmill .8)
G21
G90
G94
M03 S12000
G00 Z5.0000


(No. 1: Part 36)
G00 X2.7534 Y9.6447
G00 Z0.5000
G01 Z0.0000 F2400 S12000
G01 Z-0.5000
G02 X2.5569 Y10.2233 I0.0688 J0.3460 F1800
G02 X3.1562 Y10.1041 I0.2652 J-0.2326
G02 X2.7534 Y9.6447 I-0.3341 J-0.1134
G01 Z-1.0000 F2400
G02 X2.5569 Y10.2233 I0.0688 J0.3460 F1800
G02 X3.1562 Y10.1041 I0.2652 J-0.2326
G02 X2.7534 Y9.6447 I-0.3341 J-0.1134
G01 Z-1.5000 F2400
G02 X2.5569 Y10.2233 I0.0688 J0.3460 F1800
G02 X3.1562 Y10.1041 I0.2652 J-0.2326
G02 X2.7534 Y9.6447 I-0.3341 J-0.1134
G01 Z-2.0000 F2400
G02 X2.5569 Y10.2233 I0.0688 J0.3460 F1800
G02 X3.1562 Y10.1041 I0.2652 J-0.2326
G02 X2.7534 Y9.6447 I-0.3341 J-0.1134
G01 Z-2.5000 F2400
G02 X2.5569 Y10.2233 I0.0688 J0.3460 F1800
G02 X3.1562 Y10.1041 I0.2652 J-0.2326
G02 X2.7534 Y9.6447 I-0.3341 J-0.1134
G01 Z-3.0000 F2400
G02 X2.5569 Y10.2233 I0.0688 J0.3460 F1800
G02 X3.1562 Y10.1041 I0.2652 J-0.2326
G02 X2.7534 Y9.6447 I-0.3341 J-0.1134
G01 Z-3.5000 F2400
G02 X2.5569 Y10.2233 I0.0688 J0.3460 F1800
G02 X3.1562 Y10.1041 I0.2652 J-0.2326
G02 X2.7534 Y9.6447 I-0.3341 J-0.1134
G01 Z-4.0000 F2400
G02 X2.5569 Y10.2233 I0.0688 J0.3460 F1800
G02 X3.1562 Y10.1041 I0.2652 J-0.2326
G02 X2.7534 Y9.6447 I-0.3341 J-0.1134
G01 Z-4.5000 F2400
G02 X2.5569 Y10.2233 I0.0688 J0.3460 F1800
G02 X3.1562 Y10.1041 I0.2652 J-0.2326
G02 X2.7534 Y9.6447 I-0.3341 J-0.1134
G01 Z-5.0000 F2400
G02 X2.5569 Y10.2233 I0.0688 J0.3460 F1800
G02 X3.1562 Y10.1041 I0.2652 J-0.2326
G02 X2.7534 Y9.6447 I-0.3341 J-0.1134
G01 Z-5.5000 F2400
G02 X2.5569 Y10.2233 I0.0688 J0.3460 F1800
G02 X3.1562 Y10.1041 I0.2652 J-0.2326
G02 X2.7534 Y9.6447 I-0.3341 J-0.1134
G01 Z-6.0000 F2400
G02 X2.5569 Y10.2233 I0.0688 J0.3460 F1800
G02 X3.1562 Y10.1041 I0.2652 J-0.2326
G02 X2.7534 Y9.6447 I-0.3341 J-0.1134
G01 Z-6.2000 F2400
G02 X2.5569 Y10.2233 I0.0688 J0.3460 F1800
G02 X3.1562 Y10.1041 I0.2652 J-0.2326
G02 X2.7534 Y9.6447 I-0.3341 J-0.1134
G00 Z5.0000


(No. 2: Part 33)
G00 X2.7706 Y16.8103 Z5.0000
G00 Z0.5000
G01 Z0.0000 F2400
G01 Z-0.5000
G02 X2.5460 Y17.3784 I0.0517 J0.3489 F1800
G02 X3.1503 Y17.2888 I0.2763 J-0.2192
G02 X2.7706 Y16.8103 I-0.3280 J-0.1296
G01 Z-1.0000 F2400
G02 X2.5460 Y17.3784 I0.0517 J0.3489 F1800
G02 X3.1503 Y17.2888 I0.2763 J-0.2192
G02 X2.7706 Y16.8103 I-0.3280 J-0.1296
G01 Z-1.5000 F2400
G02 X2.5460 Y17.3784 I0.0517 J0.3489 F1800
G02 X3.1503 Y17.2888 I0.2763 J-0.2192
G02 X2.7706 Y16.8103 I-0.3280 J-0.1296
G01 Z-2.0000 F2400
G02 X2.5460 Y17.3784 I0.0517 J0.3489 F1800
G02 X3.1503 Y17.2888 I0.2763 J-0.2192
G02 X2.7706 Y16.8103 I-0.3280 J-0.1296
G01 Z-2.5000 F2400
G02 X2.5460 Y17.3784 I0.0517 J0.3489 F1800
G02 X3.1503 Y17.2888 I0.2763 J-0.2192
G02 X2.7706 Y16.8103 I-0.3280 J-0.1296
G01 Z-3.0000 F2400
G02 X2.5460 Y17.3784 I0.0517 J0.3489 F1800
G02 X3.1503 Y17.2888 I0.2763 J-0.2192
G02 X2.7706 Y16.8103 I-0.3280 J-0.1296
G01 Z-3.5000 F2400
G02 X2.5460 Y17.3784 I0.0517 J0.3489 F1800
G02 X3.1503 Y17.2888 I0.2763 J-0.2192
G02 X2.7706 Y16.8103 I-0.3280 J-0.1296
G01 Z-4.0000 F2400
G02 X2.5460 Y17.3784 I0.0517 J0.3489 F1800
G02 X3.1503 Y17.2888 I0.2763 J-0.2192
G02 X2.7706 Y16.8103 I-0.3280 J-0.1296
G01 Z-4.5000 F2400
G02 X2.5460 Y17.3784 I0.0517 J0.3489 F1800
G02 X3.1503 Y17.2888 I0.2763 J-0.2192
G02 X2.7706 Y16.8103 I-0.3280 J-0.1296
G01 Z-5.0000 F2400
G02 X2.5460 Y17.3784 I0.0517 J0.3489 F1800
G02 X3.1503 Y17.2888 I0.2763 J-0.2192
G02 X2.7706 Y16.8103 I-0.3280 J-0.1296
G01 Z-5.5000 F2400
G02 X2.5460 Y17.3784 I0.0517 J0.3489 F1800
G02 X3.1503 Y17.2888 I0.2763 J-0.2192
G02 X2.7706 Y16.8103 I-0.3280 J-0.1296
G01 Z-6.0000 F2400
G02 X2.5460 Y17.3784 I0.0517 J0.3489 F1800
G02 X3.1503 Y17.2888 I0.2763 J-0.2192
G02 X2.7706 Y16.8103 I-0.3280 J-0.1296
G01 Z-6.2000 F2400
G02 X2.5460 Y17.3784 I0.0517 J0.3489 F1800
G02 X3.1503 Y17.2888 I0.2763 J-0.2192
G02 X2.7706 Y16.8103 I-0.3280 J-0.1296
G00 Z5.0000


(No. 3: Part 30)
G00 X2.8050 Y23.9753 Z5.0000
G00 Z0.5000
G01 Z0.0000 F2400
G01 Z-0.5000
G02 X2.5256 Y24.5187 I0.0172 J0.3523 F1800
G02 X3.1359 Y24.4890 I0.2965 J-0.1910
G02 X2.8050 Y23.9753 I-0.3137 J-0.1613
G01 Z-1.0000 F2400
G02 X2.5256 Y24.5187 I0.0172 J0.3523 F1800
G02 X3.1359 Y24.4890 I0.2965 J-0.1910
G02 X2.8050 Y23.9753 I-0.3137 J-0.1613
G01 Z-1.5000 F2400
G02 X2.5256 Y24.5187 I0.0172 J0.3523 F1800
G02 X3.1359 Y24.4890 I0.2965 J-0.1910
G02 X2.8050 Y23.9753 I-0.3137 J-0.1613
G01 Z-2.0000 F2400
G02 X2.5256 Y24.5187 I0.0172 J0.3523 F1800
G02 X3.1359 Y24.4890 I0.2965 J-0.1910
G02 X2.8050 Y23.9753 I-0.3137 J-0.1613
G01 Z-2.5000 F2400
G02 X2.5256 Y24.5187 I0.0172 J0.3523 F1800
G02 X3.1359 Y24.4890 I0.2965 J-0.1910
G02 X2.8050 Y23.9753 I-0.3137 J-0.1613
G01 Z-3.0000 F2400
G02 X2.5256 Y24.5187 I0.0172 J0.3523 F1800
G02 X3.1359 Y24.4890 I0.2965 J-0.1910
G02 X2.8050 Y23.9753 I-0.3137 J-0.1613
G01 Z-3.5000 F2400
G02 X2.5256 Y24.5187 I0.0172 J0.3523 F1800
G02 X3.1359 Y24.4890 I0.2965 J-0.1910
G02 X2.8050 Y23.9753 I-0.3137 J-0.1613
G01 Z-4.0000 F2400
G02 X2.5256 Y24.5187 I0.0172 J0.3523 F1800
G02 X3.1359 Y24.4890 I0.2965 J-0.1910
G02 X2.8050 Y23.9753 I-0.3137 J-0.1613
G01 Z-4.5000 F2400
G02 X2.5256 Y24.5187 I0.0172 J0.3523 F1800
G02 X3.1359 Y24.4890 I0.2965 J-0.1910
G02 X2.8050 Y23.9753 I-0.3137 J-0.1613
G01 Z-5.0000 F2400
G02 X2.5256 Y24.5187 I0.0172 J0.3523 F1800
G02 X3.1359 Y24.4890 I0.2965 J-0.1910
G02 X2.8050 Y23.9753 I-0.3137 J-0.1613
G01 Z-5.5000 F2400
G02 X2.5256 Y24.5187 I0.0172 J0.3523 F1800
G02 X3.1359 Y24.4890 I0.2965 J-0.1910
G02 X2.8050 Y23.9753 I-0.3137 J-0.1613
G01 Z-6.0000 F2400
G02 X2.5256 Y24.5187 I0.0172 J0.3523 F1800
G02 X3.1359 Y24.4890 I0.2965 J-0.1910
G02 X2.8050 Y23.9753 I-0.3137 J-0.1613
G01 Z-6.2000 F2400
G02 X2.5256 Y24.5187 I0.0172 J0.3523 F1800
G02 X3.1359 Y24.4890 I0.2965 J-0.1910
G02 X2.8050 Y23.9753 I-0.3137 J-0.1613
G00 Z5.0000


(No. 4: Part 29)
G00 X2.8050 Y31.1438 Z5.0000
G00 Z0.5000
G01 Z0.0000 F2400
G01 Z-0.5000
G02 X2.5256 Y31.6871 I0.0172 J0.3523 F1800
G02 X3.1359 Y31.6574 I0.2965 J-0.1910
G02 X2.8050 Y31.1438 I-0.3137 J-0.1613
G01 Z-1.0000 F2400
G02 X2.5256 Y31.6871 I0.0172 J0.3523 F1800
G02 X3.1359 Y31.6574 I0.2965 J-0.1910
G02 X2.8050 Y31.1438 I-0.3137 J-0.1613
G01 Z-1.5000 F2400
G02 X2.5256 Y31.6871 I0.0172 J0.3523 F1800
G02 X3.1359 Y31.6574 I0.2965 J-0.1910
G02 X2.8050 Y31.1438 I-0.3137 J-0.1613
G01 Z-2.0000 F2400
G02 X2.5256 Y31.6871 I0.0172 J0.3523 F1800
G02 X3.1359 Y31.6574 I0.2965 J-0.1910
G02 X2.8050 Y31.1438 I-0.3137 J-0.1613
G01 Z-2.5000 F2400
G02 X2.5256 Y31.6871 I0.0172 J0.3523 F1800
G02 X3.1359 Y31.6574 I0.2965 J-0.1910
G02 X2.8050 Y31.1438 I-0.3137 J-0.1613
G01 Z-3.0000 F2400
G02 X2.5256 Y31.6871 I0.0172 J0.3523 F1800
G02 X3.1359 Y31.6574 I0.2965 J-0.1910
G02 X2.8050 Y31.1438 I-0.3137 J-0.1613
G01 Z-3.5000 F2400
G02 X2.5256 Y31.6871 I0.0172 J0.3523 F1800
G02 X3.1359 Y31.6574 I0.2965 J-0.1910
G02 X2.8050 Y31.1438 I-0.3137 J-0.1613
G01 Z-4.0000 F2400
G02 X2.5256 Y31.6871 I0.0172 J0.3523 F1800
G02 X3.1359 Y31.6574 I0.2965 J-0.1910
G02 X2.8050 Y31.1438 I-0.3137 J-0.1613
G01 Z-4.5000 F2400
G02 X2.5256 Y31.6871 I0.0172 J0.3523 F1800
G02 X3.1359 Y31.6574 I0.2965 J-0.1910
G02 X2.8050 Y31.1438 I-0.3137 J-0.1613
G01 Z-5.0000 F2400
G02 X2.5256 Y31.6871 I0.0172 J0.3523 F1800
G02 X3.1359 Y31.6574 I0.2965 J-0.1910
G02 X2.8050 Y31.1438 I-0.3137 J-0.1613
G01 Z-5.5000 F2400
G02 X2.5256 Y31.6871 I0.0172 J0.3523 F1800
G02 X3.1359 Y31.6574 I0.2965 J-0.1910
G02 X2.8050 Y31.1438 I-0.3137 J-0.1613
G01 Z-6.0000 F2400
G02 X2.5256 Y31.6871 I0.0172 J0.3523 F1800
G02 X3.1359 Y31.6574 I0.2965 J-0.1910
G02 X2.8050 Y31.1438 I-0.3137 J-0.1613
G01 Z-6.2000 F2400
G02 X2.5256 Y31.6871 I0.0172 J0.3523 F1800
G02 X3.1359 Y31.6574 I0.2965 J-0.1910
G02 X2.8050 Y31.1438 I-0.3137 J-0.1613
G00 Z5.0000


(No. 5: Part 22)
G00 X2.8222 Y38.3117 Z5.0000
G00 Z0.5000
G01 Z0.0000 F2400
G01 Z-0.5000
G02 X2.5168 Y38.8407 I0.0000 J0.3527 F1800
G02 X3.1277 I0.3054 J-0.1763
G02 X2.8222 Y38.3117 I-0.3054 J-0.1763
G01 Z-1.0000 F2400
G02 X2.5168 Y38.8407 I0.0000 J0.3527 F1800
G02 X3.1277 I0.3054 J-0.1763
G02 X2.8222 Y38.3117 I-0.3054 J-0.1763
G01 Z-1.5000 F2400
G02 X2.5168 Y38.8407 I0.0000 J0.3527 F1800
G02 X3.1277 I0.3054 J-0.1763
G02 X2.8222 Y38.3117 I-0.3054 J-0.1763
G01 Z-2.0000 F2400
G02 X2.5168 Y38.8407 I0.0000 J0.3527 F1800
G02 X3.1277 I0.3054 J-0.1763
G02 X2.8222 Y38.3117 I-0.3054 J-0.1763
G01 Z-2.5000 F2400
G02 X2.5168 Y38.8407 I0.0000 J0.3527 F1800
G02 X3.1277 I0.3054 J-0.1763
G02 X2.8222 Y38.3117 I-0.3054 J-0.1763
G01 Z-3.0000 F2400
G02 X2.5168 Y38.8407 I0.0000 J0.3527 F1800
G02 X3.1277 I0.3054 J-0.1763
G02 X2.8222 Y38.3117 I-0.3054 J-0.1763
G01 Z-3.5000 F2400
G02 X2.5168 Y38.8407 I0.0000 J0.3527 F1800
G02 X3.1277 I0.3054 J-0.1763
G02 X2.8222 Y38.3117 I-0.3054 J-0.1763
G01 Z-4.0000 F2400
G02 X2.5168 Y38.8407 I0.0000 J0.3527 F1800
G02 X3.1277 I0.3054 J-0.1763
G02 X2.8222 Y38.3117 I-0.3054 J-0.1763
G01 Z-4.5000 F2400
G02 X2.5168 Y38.8407 I0.0000 J0.3527 F1800
G02 X3.1277 I0.3054 J-0.1763
G02 X2.8222 Y38.3117 I-0.3054 J-0.1763
G01 Z-5.0000 F2400
G02 X2.5168 Y38.8407 I0.0000 J0.3527 F1800
G02 X3.1277 I0.3054 J-0.1763
G02 X2.8222 Y38.3117 I-0.3054 J-0.1763
G01 Z-5.5000 F2400
G02 X2.5168 Y38.8407 I0.0000 J0.3527 F1800
G02 X3.1277 I0.3054 J-0.1763
G02 X2.8222 Y38.3117 I-0.3054 J-0.1763
G01 Z-6.0000 F2400
G02 X2.5168 Y38.8407 I0.0000 J0.3527 F1800
G02 X3.1277 I0.3054 J-0.1763
G02 X2.8222 Y38.3117 I-0.3054 J-0.1763
G01 Z-6.2000 F2400
G02 X2.5168 Y38.8407 I0.0000 J0.3527 F1800
G02 X3.1277 I0.3054 J-0.1763
G02 X2.8222 Y38.3117 I-0.3054 J-0.1763
G00 Z5.0000


(No. 6: Part 21)
G00 X2.8222 Y45.4801 Z5.0000
G00 Z0.5000
G01 Z0.0000 F2400
G01 Z-0.5000
G02 X2.5168 Y46.0091 I0.0000 J0.3527 F1800
G02 X3.1277 I0.3054 J-0.1763
G02 X2.8222 Y45.4801 I-0.3054 J-0.1763
G01 Z-1.0000 F2400
G02 X2.5168 Y46.0091 I0.0000 J0.3527 F1800
G02 X3.1277 I0.3054 J-0.1763
G02 X2.8222 Y45.4801 I-0.3054 J-0.1763
G01 Z-1.5000 F2400
G02 X2.5168 Y46.0091 I0.0000 J0.3527 F1800
G02 X3.1277 I0.3054 J-0.1763
G02 X2.8222 Y45.4801 I-0.3054 J-0.1763
G01 Z-2.0000 F2400
G02 X2.5168 Y46.0091 I0.0000 J0.3527 F1800
G02 X3.1277 I0.3054 J-0.1763
G02 X2.8222 Y45.4801 I-0.3054 J-0.1763
G01 Z-2.5000 F2400
G02 X2.5168 Y46.0091 I0.0000 J0.3527 F1800
G02 X3.1277 I0.3054 J-0.1763
G02 X2.8222 Y45.4801 I-0.3054 J-0.1763
G01 Z-3.0000 F2400
G02 X2.5168 Y46.0091 I0.0000 J0.3527 F1800
G02 X3.1277 I0.3054 J-0.1763
G02 X2.8222 Y45.4801 I-0.3054 J-0.1763
G01 Z-3.5000 F2400
G02 X2.5168 Y46.0091 I0.0000 J0.3527 F1800
G02 X3.1277 I0.3054 J-0.1763
G02 X2.8222 Y45.4801 I-0.3054 J-0.1763
G01 Z-4.0000 F2400
G02 X2.5168 Y46.0091 I0.0000 J0.3527 F1800
G02 X3.1277 I0.3054 J-0.1763
G02 X2.8222 Y45.4801 I-0.3054 J-0.1763
G01 Z-4.5000 F2400
G02 X2.5168 Y46.0091 I0.0000 J0.3527 F1800
G02 X3.1277 I0.3054 J-0.1763
G02 X2.8222 Y45.4801 I-0.3054 J-0.1763
G01 Z-5.0000 F2400
G02 X2.5168 Y46.0091 I0.0000 J0.3527 F1800
G02 X3.1277 I0.3054 J-0.1763
G02 X2.8222 Y45.4801 I-0.3054 J-0.1763
G01 Z-5.5000 F2400
G02 X2.5168 Y46.0091 I0.0000 J0.3527 F1800
G02 X3.1277 I0.3054 J-0.1763
G02 X2.8222 Y45.4801 I-0.3054 J-0.1763
G01 Z-6.0000 F2400
G02 X2.5168 Y46.0091 I0.0000 J0.3527 F1800
G02 X3.1277 I0.3054 J-0.1763
G02 X2.8222 Y45.4801 I-0.3054 J-0.1763
G01 Z-6.2000 F2400
G02 X2.5168 Y46.0091 I0.0000 J0.3527 F1800
G02 X3.1277 I0.3054 J-0.1763
G02 X2.8222 Y45.4801 I-0.3054 J-0.1763
G00 Z5.0000


(No. 7: Part 18)
G00 X2.8222 Y52.6486 Z5.0000
G00 Z0.5000
G01 Z0.0000 F2400
G01 Z-0.5000
G02 X2.5168 Y53.1776 I0.0000 J0.3527 F1800
G02 X3.1277 I0.3054 J-0.1763
G02 X2.8222 Y52.6486 I-0.3054 J-0.1763
G01 Z-1.0000 F2400
G02 X2.5168 Y53.1776 I0.0000 J0.3527 F1800
G02 X3.1277 I0.3054 J-0.1763
G02 X2.8222 Y52.6486 I-0.3054 J-0.1763
G01 Z-1.5000 F2400
G02 X2.5168 Y53.1776 I0.0000 J0.3527 F1800
G02 X3.1277 I0.3054 J-0.1763
G02 X2.8222 Y52.6486 I-0.3054 J-0.1763
G01 Z-2.0000 F2400
G02 X2.5168 Y53.1776 I0.0000 J0.3527 F1800
G02 X3.1277 I0.3054 J-0.1763
G02 X2.8222 Y52.6486 I-0.3054 J-0.1763
G01 Z-2.5000 F2400
G02 X2.5168 Y53.1776 I0.0000 J0.3527 F1800
G02 X3.1277 I0.3054 J-0.1763
G02 X2.8222 Y52.6486 I-0.3054 J-0.1763
G01 Z-3.0000 F2400
G02 X2.5168 Y53.1776 I0.0000 J0.3527 F1800
G02 X3.1277 I0.3054 J-0.1763
G02 X2.8222 Y52.6486 I-0.3054 J-0.1763
G01 Z-3.5000 F2400
G02 X2.5168 Y53.1776 I0.0000 J0.3527 F1800
G02 X3.1277 I0.3054 J-0.1763
G02 X2.8222 Y52.6486 I-0.3054 J-0.1763
G01 Z-4.0000 F2400
G02 X2.5168 Y53.1776 I0.0000 J0.3527 F1800
G02 X3.1277 I0.3054 J-0.1763
G02 X2.8222 Y52.6486 I-0.3054 J-0.1763
G01 Z-4.5000 F2400
G02 X2.5168 Y53.1776 I0.0000 J0.3527 F1800
G02 X3.1277 I0.3054 J-0.1763
G02 X2.8222 Y52.6486 I-0.3054 J-0.1763
G01 Z-5.0000 F2400
G02 X2.5168 Y53.1776 I0.0000 J0.3527 F1800
G02 X3.1277 I0.3054 J-0.1763
G02 X2.8222 Y52.6486 I-0.3054 J-0.1763
G01 Z-5.5000 F2400
G02 X2.5168 Y53.1776 I0.0000 J0.3527 F1800
G02 X3.1277 I0.3054 J-0.1763
G02 X2.8222 Y52.6486 I-0.3054 J-0.1763
G01 Z-6.0000 F2400
G02 X2.5168 Y53.1776 I0.0000 J0.3527 F1800
G02 X3.1277 I0.3054 J-0.1763
G02 X2.8222 Y52.6486 I-0.3054 J-0.1763
G01 Z-6.2000 F2400
G02 X2.5168 Y53.1776 I0.0000 J0.3527 F1800
G02 X3.1277 I0.3054 J-0.1763
G02 X2.8222 Y52.6486 I-0.3054 J-0.1763
G00 Z5.0000


(No. 8: Part 17)
G00 X2.8222 Y59.8170 Z5.0000
G00 Z0.5000
G01 Z0.0000 F2400
G01 Z-0.5000
G02 X2.5167 Y60.3461 I0.0000 J0.3527 F1800
G02 X3.1277 I0.3055 J-0.1763
G02 X2.8222 Y59.8170 I-0.3055 J-0.1764
G01 Z-1.0000 F2400
G02 X2.5167 Y60.3461 I0.0000 J0.3527 F1800
G02 X3.1277 I0.3055 J-0.1763
G02 X2.8222 Y59.8170 I-0.3055 J-0.1764
G01 Z-1.5000 F2400
G02 X2.5167 Y60.3461 I0.0000 J0.3527 F1800
G02 X3.1277 I0.3055 J-0.1763
G02 X2.8222 Y59.8170 I-0.3055 J-0.1764
G01 Z-2.0000 F2400
G02 X2.5167 Y60.3461 I0.0000 J0.3527 F1800
G02 X3.1277 I0.3055 J-0.1763
G02 X2.8222 Y59.8170 I-0.3055 J-0.1764
G01 Z-2.5000 F2400
G02 X2.5167 Y60.3461 I0.0000 J0.3527 F1800
G02 X3.1277 I0.3055 J-0.1763
G02 X2.8222 Y59.8170 I-0.3055 J-0.1764
G01 Z-3.0000 F2400
G02 X2.5167 Y60.3461 I0.0000 J0.3527 F1800
G02 X3.1277 I0.3055 J-0.1763
G02 X2.8222 Y59.8170 I-0.3055 J-0.1764
G01 Z-3.5000 F2400
G02 X2.5167 Y60.3461 I0.0000 J0.3527 F1800
G02 X3.1277 I0.3055 J-0.1763
G02 X2.8222 Y59.8170 I-0.3055 J-0.1764
G01 Z-4.0000 F2400
G02 X2.5167 Y60.3461 I0.0000 J0.3527 F1800
G02 X3.1277 I0.3055 J-0.1763
G02 X2.8222 Y59.8170 I-0.3055 J-0.1764
G01 Z-4.5000 F2400
G02 X2.5167 Y60.3461 I0.0000 J0.3527 F1800
G02 X3.1277 I0.3055 J-0.1763
G02 X2.8222 Y59.8170 I-0.3055 J-0.1764
G01 Z-5.0000 F2400
G02 X2.5167 Y60.3461 I0.0000 J0.3527 F1800
G02 X3.1277 I0.3055 J-0.1763
G02 X2.8222 Y59.8170 I-0.3055 J-0.1764
G01 Z-5.5000 F2400
G02 X2.5167 Y60.3461 I0.0000 J0.3527 F1800
G02 X3.1277 I0.3055 J-0.1763
G02 X2.8222 Y59.8170 I-0.3055 J-0.1764
G01 Z-6.0000 F2400
G02 X2.5167 Y60.3461 I0.0000 J0.3527 F1800
G02 X3.1277 I0.3055 J-0.1763
G02 X2.8222 Y59.8170 I-0.3055 J-0.1764
G01 Z-6.2000 F2400
G02 X2.5167 Y60.3461 I0.0000 J0.3527 F1800
G02 X3.1277 I0.3055 J-0.1763
G02 X2.8222 Y59.8170 I-0.3055 J-0.1764
G00 Z5.0000


(No. 9: Part 14)
G00 X2.8222 Y66.9854 Z5.0000
G00 Z0.5000
G01 Z0.0000 F2400
G01 Z-0.5000
G02 X2.5167 Y67.5145 I0.0000 J0.3527 F1800
G02 X3.1277 I0.3055 J-0.1763
G02 X2.8222 Y66.9854 I-0.3055 J-0.1764
G01 Z-1.0000 F2400
G02 X2.5167 Y67.5145 I0.0000 J0.3527 F1800
G02 X3.1277 I0.3055 J-0.1763
G02 X2.8222 Y66.9854 I-0.3055 J-0.1764
G01 Z-1.5000 F2400
G02 X2.5167 Y67.5145 I0.0000 J0.3527 F1800
G02 X3.1277 I0.3055 J-0.1763
G02 X2.8222 Y66.9854 I-0.3055 J-0.1764
G01 Z-2.0000 F2400
G02 X2.5167 Y67.5145 I0.0000 J0.3527 F1800
G02 X3.1277 I0.3055 J-0.1763
G02 X2.8222 Y66.9854 I-0.3055 J-0.1764
G01 Z-2.5000 F2400
G02 X2.5167 Y67.5145 I0.0000 J0.3527 F1800
G02 X3.1277 I0.3055 J-0.1763
G02 X2.8222 Y66.9854 I-0.3055 J-0.1764
G01 Z-3.0000 F2400
G02 X2.5167 Y67.5145 I0.0000 J0.3527 F1800
G02 X3.1277 I0.3055 J-0.1763
G02 X2.8222 Y66.9854 I-0.3055 J-0.1764
G01 Z-3.5000 F2400
G02 X2.5167 Y67.5145 I0.0000 J0.3527 F1800
G02 X3.1277 I0.3055 J-0.1763
G02 X2.8222 Y66.9854 I-0.3055 J-0.1764
G01 Z-4.0000 F2400
G02 X2.5167 Y67.5145 I0.0000 J0.3527 F1800
G02 X3.1277 I0.3055 J-0.1763
G02 X2.8222 Y66.9854 I-0.3055 J-0.1764
G01 Z-4.5000 F2400
G02 X2.5167 Y67.5145 I0.0000 J0.3527 F1800
G02 X3.1277 I0.3055 J-0.1763
G02 X2.8222 Y66.9854 I-0.3055 J-0.1764
G01 Z-5.0000 F2400
G02 X2.5167 Y67.5145 I0.0000 J0.3527 F1800
G02 X3.1277 I0.3055 J-0.1763
G02 X2.8222 Y66.9854 I-0.3055 J-0.1764
G01 Z-5.5000 F2400
G02 X2.5167 Y67.5145 I0.0000 J0.3527 F1800
G02 X3.1277 I0.3055 J-0.1763
G02 X2.8222 Y66.9854 I-0.3055 J-0.1764
G01 Z-6.0000 F2400
G02 X2.5167 Y67.5145 I0.0000 J0.3527 F1800
G02 X3.1277 I0.3055 J-0.1763
G02 X2.8222 Y66.9854 I-0.3055 J-0.1764
G01 Z-6.2000 F2400
G02 X2.5167 Y67.5145 I0.0000 J0.3527 F1800
G02 X3.1277 I0.3055 J-0.1763
G02 X2.8222 Y66.9854 I-0.3055 J-0.1764
G00 Z5.0000


(No. 10: Part 13)
G00 X2.8222 Y74.1539 Z5.0000
G00 Z0.5000
G01 Z0.0000 F2400
G01 Z-0.5000
G02 X2.5167 Y74.6829 I0.0000 J0.3527 F1800
G02 X3.1277 Y74.6830 I0.3055 J-0.1763
G02 X2.8222 Y74.1539 I-0.3055 J-0.1764
G01 Z-1.0000 F2400
G02 X2.5167 Y74.6829 I0.0000 J0.3527 F1800
G02 X3.1277 Y74.6830 I0.3055 J-0.1763
G02 X2.8222 Y74.1539 I-0.3055 J-0.1764
G01 Z-1.5000 F2400
G02 X2.5167 Y74.6829 I0.0000 J0.3527 F1800
G02 X3.1277 Y74.6830 I0.3055 J-0.1763
G02 X2.8222 Y74.1539 I-0.3055 J-0.1764
G01 Z-2.0000 F2400
G02 X2.5167 Y74.6829 I0.0000 J0.3527 F1800
G02 X3.1277 Y74.6830 I0.3055 J-0.1763
G02 X2.8222 Y74.1539 I-0.3055 J-0.1764
G01 Z-2.5000 F2400
G02 X2.5167 Y74.6829 I0.0000 J0.3527 F1800
G02 X3.1277 Y74.6830 I0.3055 J-0.1763
G02 X2.8222 Y74.1539 I-0.3055 J-0.1764
G01 Z-3.0000 F2400
G02 X2.5167 Y74.6829 I0.0000 J0.3527 F1800
G02 X3.1277 Y74.6830 I0.3055 J-0.1763
G02 X2.8222 Y74.1539 I-0.3055 J-0.1764
G01 Z-3.5000 F2400
G02 X2.5167 Y74.6829 I0.0000 J0.3527 F1800
G02 X3.1277 Y74.6830 I0.3055 J-0.1763
G02 X2.8222 Y74.1539 I-0.3055 J-0.1764
G01 Z-4.0000 F2400
G02 X2.5167 Y74.6829 I0.0000 J0.3527 F1800
G02 X3.1277 Y74.6830 I0.3055 J-0.1763
G02 X2.8222 Y74.1539 I-0.3055 J-0.1764
G01 Z-4.5000 F2400
G02 X2.5167 Y74.6829 I0.0000 J0.3527 F1800
G02 X3.1277 Y74.6830 I0.3055 J-0.1763
G02 X2.8222 Y74.1539 I-0.3055 J-0.1764
G01 Z-5.0000 F2400
G02 X2.5167 Y74.6829 I0.0000 J0.3527 F1800
G02 X3.1277 Y74.6830 I0.3055 J-0.1763
G02 X2.8222 Y74.1539 I-0.3055 J-0.1764
G01 Z-5.5000 F2400
G02 X2.5167 Y74.6829 I0.0000 J0.3527 F1800
G02 X3.1277 Y74.6830 I0.3055 J-0.1763
G02 X2.8222 Y74.1539 I-0.3055 J-0.1764
G01 Z-6.0000 F2400
G02 X2.5167 Y74.6829 I0.0000 J0.3527 F1800
G02 X3.1277 Y74.6830 I0.3055 J-0.1763
G02 X2.8222 Y74.1539 I-0.3055 J-0.1764
G01 Z-6.2000 F2400
G02 X2.5167 Y74.6829 I0.0000 J0.3527 F1800
G02 X3.1277 Y74.6830 I0.3055 J-0.1763
G02 X2.8222 Y74.1539 I-0.3055 J-0.1764
G00 Z5.0000


(No. 11: Helical drill 7)
G00 X11.9712 Y71.9666 Z5.0000
G00 Z0.5000
G02 X11.3712 Y71.6202 Z0.3405 I-0.4000 J0.0000 F2400
G02 Y72.3130 Z0.1810 I0.2000 J0.3464
G02 X11.9712 Y71.9666 Z0.0214 I0.2000 J-0.3464
G02 X11.3712 Y71.6202 I-0.4000 J0.0000
G02 Y72.3130 I0.2000 J0.3464
G02 X11.9712 Y71.9666 I0.2000 J-0.3464
G02 X11.9754 Y71.7992 I-0.3984 J-0.0938 F1800
G02 X11.8870 Y71.6508 I-0.4162 J0.1473
G02 X11.7421 Y71.5540 I-0.3158 J0.3158
G02 X11.5712 Y71.5200 I-0.1709 J0.4126
G02 X11.4003 Y71.5540 I0.0000 J0.4466
G02 X11.2554 Y71.6508 I0.1709 J0.4126
G02 X11.1585 Y71.7957 I0.3158 J0.3158
G02 X11.1245 Y71.9666 I0.4126 J0.1709
G02 X11.1585 Y72.1376 I0.4466 J0.0000
G02 X11.2554 Y72.2825 I0.4126 J-0.1709
G02 X11.4003 Y72.3793 I0.3158 J-0.3158
G02 X11.5712 Y72.4133 I0.1709 J-0.4126
G02 X11.7421 Y72.3793 I0.0000 J-0.4466
G02 X11.8870 Y72.2825 I-0.1709 J-0.4126
G02 X11.9838 Y72.1376 I-0.3158 J-0.3158
G02 X12.0178 Y71.9666 I-0.4126 J-0.1709
G02 X11.3479 Y71.5798 I-0.4466 J0.0000
G02 Y72.3534 I0.2233 J0.3868
G02 X12.0178 Y71.9666 I0.2233 J-0.3868
G02 X11.1712 I-0.4233 J0.0000
G02 X11.9712 I0.4000 J0.0000
G02 X11.3712 Y71.6202 Z-0.1381 I-0.4000 J0.0000 F2400
G02 Y72.3130 Z-0.2976 I0.2000 J0.3464
G02 X11.9712 Y71.9666 Z-0.4571 I0.2000 J-0.3464
G02 X11.3712 Y71.6202 I-0.4000 J0.0000
G02 Y72.3130 I0.2000 J0.3464
G02 X11.9712 Y71.9666 I0.2000 J-0.3464
G02 X11.9754 Y71.7992 I-0.3984 J-0.0938 F1800
G02 X11.8870 Y71.6508 I-0.4162 J0.1473
G02 X11.7421 Y71.5540 I-0.3158 J0.3158
G02 X11.5712 Y71.5200 I-0.1709 J0.4126
G02 X11.4003 Y71.5540 I0.0000 J0.4466
G02 X11.2554 Y71.6508 I0.1709 J0.4126
G02 X11.1585 Y71.7957 I0.3158 J0.3158
G02 X11.1245 Y71.9666 I0.4126 J0.1709
G02 X11.1585 Y72.1376 I0.4466 J0.0000
G02 X11.2554 Y72.2825 I0.4126 J-0.1709
G02 X11.4003 Y72.3793 I0.3158 J-0.3158
G02 X11.5712 Y72.4133 I0.1709 J-0.4126
G02 X11.7421 Y72.3793 I0.0000 J-0.4466
G02 X11.8870 Y72.2825 I-0.1709 J-0.4126
G02 X11.9838 Y72.1376 I-0.3158 J-0.3158
G02 X12.0178 Y71.9666 I-0.4126 J-0.1709
G02 X11.3479 Y71.5798 I-0.4466 J0.0000
G02 Y72.3534 I0.2233 J0.3868
G02 X12.0178 Y71.9666 I0.2233 J-0.3868
G02 X11.1712 I-0.4233 J0.0000
G02 X11.9712 I0.4000 J0.0000
G02 X11.3712 Y71.6202 Z-0.6167 I-0.4000 J0.0000 F2400
G02 Y72.3130 Z-0.7762 I0.2000 J0.3464
G02 X11.9712 Y71.9666 Z-0.9357 I0.2000 J-0.3464
G02 X11.3712 Y71.6202 I-0.4000 J0.0000
G02 Y72.3130 I0.2000 J0.3464
G02 X11.9712 Y71.9666 I0.2000 J-0.3464
G02 X11.9754 Y71.7992 I-0.3984 J-0.0938 F1800
G02 X11.8870 Y71.6508 I-0.4162 J0.1473
G02 X11.7421 Y71.5540 I-0.3158 J0.3158
G02 X11.5712 Y71.5200 I-0.1709 J0.4126
G02 X11.4003 Y71.5540 I0.0000 J0.4466
G02 X11.2554 Y71.6508 I0.1709 J0.4126
G02 X11.1585 Y71.7957 I0.3158 J0.3158
G02 X11.1245 Y71.9666 I0.4126 J0.1709
G02 X11.1585 Y72.1376 I0.4466 J0.0000
G02 X11.2554 Y72.2825 I0.4126 J-0.1709
G02 X11.4003 Y72.3793 I0.3158 J-0.3158
G02 X11.5712 Y72.4133 I0.1709 J-0.4126
G02 X11.7421 Y72.3793 I0.0000 J-0.4466
G02 X11.8870 Y72.2825 I-0.1709 J-0.4126
G02 X11.9838 Y72.1376 I-0.3158 J-0.3158
G02 X12.0178 Y71.9666 I-0.4126 J-0.1709
G02 X11.3479 Y71.5798 I-0.4466 J0.0000
G02 Y72.3534 I0.2233 J0.3868
G02 X12.0178 Y71.9666 I0.2233 J-0.3868
G02 X11.1712 I-0.4233 J0.0000
G02 X11.9712 I0.4000 J0.0000
G02 X11.3712 Y71.6202 Z-1.0952 I-0.4000 J0.0000 F2400
G02 Y72.3130 Z-1.2548 I0.2000 J0.3464
G02 X11.9712 Y71.9666 Z-1.4143 I0.2000 J-0.3464
G02 X11.3712 Y71.6202 I-0.4000 J0.0000
G02 Y72.3130 I0.2000 J0.3464
G02 X11.9712 Y71.9666 I0.2000 J-0.3464
G02 X11.9754 Y71.7992 I-0.3984 J-0.0938 F1800
G02 X11.8870 Y71.6508 I-0.4162 J0.1473
G02 X11.7421 Y71.5540 I-0.3158 J0.3158
G02 X11.5712 Y71.5200 I-0.1709 J0.4126
G02 X11.4003 Y71.5540 I0.0000 J0.4466
G02 X11.2554 Y71.6508 I0.1709 J0.4126
G02 X11.1585 Y71.7957 I0.3158 J0.3158
G02 X11.1245 Y71.9666 I0.4126 J0.1709
G02 X11.1585 Y72.1376 I0.4466 J0.0000
G02 X11.2554 Y72.2825 I0.4126 J-0.1709
G02 X11.4003 Y72.3793 I0.3158 J-0.3158
G02 X11.5712 Y72.4133 I0.1709 J-0.4126
G02 X11.7421 Y72.3793 I0.0000 J-0.4466
G02 X11.8870 Y72.2825 I-0.1709 J-0.4126
G02 X11.9838 Y72.1376 I-0.3158 J-0.3158
G02 X12.0178 Y71.9666 I-0.4126 J-0.1709
G02 X11.3479 Y71.5798 I-0.4466 J0.0000
G02 Y72.3534 I0.2233 J0.3868
G02 X12.0178 Y71.9666 I0.2233 J-0.3868
G02 X11.1712 I-0.4233 J0.0000
G02 X11.9712 I0.4000 J0.0000
G02 X11.3712 Y71.6202 Z-1.5738 I-0.4000 J0.0000 F2400
G02 Y72.3130 Z-1.7333 I0.2000 J0.3464
G02 X11.9712 Y71.9666 Z-1.8929 I0.2000 J-0.3464
G02 X11.3712 Y71.6202 I-0.4000 J0.0000
G02 Y72.3130 I0.2000 J0.3464
G02 X11.9712 Y71.9666 I0.2000 J-0.3464
G02 X11.9754 Y71.7992 I-0.3984 J-0.0938 F1800
G02 X11.8870 Y71.6508 I-0.4162 J0.1473
G02 X11.7421 Y71.5540 I-0.3158 J0.3158
G02 X11.5712 Y71.5200 I-0.1709 J0.4126
G02 X11.4003 Y71.5540 I0.0000 J0.4466
G02 X11.2554 Y71.6508 I0.1709 J0.4126
G02 X11.1585 Y71.7957 I0.3158 J0.3158
G02 X11.1245 Y71.9666 I0.4126 J0.1709
G02 X11.1585 Y72.1376 I0.4466 J0.0000
G02 X11.2554 Y72.2825 I0.4126 J-0.1709
G02 X11.4003 Y72.3793 I0.3158 J-0.3158
G02 X11.5712 Y72.4133 I0.1709 J-0.4126
G02 X11.7421 Y72.3793 I0.0000 J-0.4466
G02 X11.8870 Y72.2825 I-0.1709 J-0.4126
G02 X11.9838 Y72.1376 I-0.3158 J-0.3158
G02 X12.0178 Y71.9666 I-0.4126 J-0.1709
G02 X11.3479 Y71.5798 I-0.4466 J0.0000
G02 Y72.3534 I0.2233 J0.3868
G02 X12.0178 Y71.9666 I0.2233 J-0.3868
G02 X11.1712 I-0.4233 J0.0000
G02 X11.9712 I0.4000 J0.0000
G02 X11.3712 Y71.6202 Z-2.0524 I-0.4000 J0.0000 F2400
G02 Y72.3130 Z-2.2119 I0.2000 J0.3464
G02 X11.9712 Y71.9666 Z-2.3714 I0.2000 J-0.3464
G02 X11.3712 Y71.6202 I-0.4000 J0.0000
G02 Y72.3130 I0.2000 J0.3464
G02 X11.9712 Y71.9666 I0.2000 J-0.3464
G02 X11.9754 Y71.7992 I-0.3984 J-0.0938 F1800
G02 X11.8870 Y71.6508 I-0.4162 J0.1473
G02 X11.7421 Y71.5540 I-0.3158 J0.3158
G02 X11.5712 Y71.5200 I-0.1709 J0.4126
G02 X11.4003 Y71.5540 I0.0000 J0.4466
G02 X11.2554 Y71.6508 I0.1709 J0.4126
G02 X11.1585 Y71.7957 I0.3158 J0.3158
G02 X11.1245 Y71.9666 I0.4126 J0.1709
G02 X11.1585 Y72.1376 I0.4466 J0.0000
G02 X11.2554 Y72.2825 I0.4126 J-0.1709
G02 X11.4003 Y72.3793 I0.3158 J-0.3158
G02 X11.5712 Y72.4133 I0.1709 J-0.4126
G02 X11.7421 Y72.3793 I0.0000 J-0.4466
G02 X11.8870 Y72.2825 I-0.1709 J-0.4126
G02 X11.9838 Y72.1376 I-0.3158 J-0.3158
G02 X12.0178 Y71.9666 I-0.4126 J-0.1709
G02 X11.3479 Y71.5798 I-0.4466 J0.0000
G02 Y72.3534 I0.2233 J0.3868
G02 X12.0178 Y71.9666 I0.2233 J-0.3868
G02 X11.1712 I-0.4233 J0.0000
G02 X11.9712 I0.4000 J0.0000
G02 X11.3712 Y71.6202 Z-2.5310 I-0.4000 J0.0000 F2400
G02 Y72.3130 Z-2.6905 I0.2000 J0.3464
G02 X11.9712 Y71.9666 Z-2.8500 I0.2000 J-0.3464
G02 X11.3712 Y71.6202 I-0.4000 J0.0000
G02 Y72.3130 I0.2000 J0.3464
G02 X11.9712 Y71.9666 I0.2000 J-0.3464
G02 X11.9754 Y71.7992 I-0.3984 J-0.0938 F1800
G02 X11.8870 Y71.6508 I-0.4162 J0.1473
G02 X11.7421 Y71.5540 I-0.3158 J0.3158
G02 X11.5712 Y71.5200 I-0.1709 J0.4126
G02 X11.4003 Y71.5540 I0.0000 J0.4466
G02 X11.2554 Y71.6508 I0.1709 J0.4126
G02 X11.1585 Y71.7957 I0.3158 J0.3158
G02 X11.1245 Y71.9666 I0.4126 J0.1709
G02 X11.1585 Y72.1376 I0.4466 J0.0000
G02 X11.2554 Y72.2825 I0.4126 J-0.1709
G02 X11.4003 Y72.3793 I0.3158 J-0.3158
G02 X11.5712 Y72.4133 I0.1709 J-0.4126
G02 X11.7421 Y72.3793 I0.0000 J-0.4466
G02 X11.8870 Y72.2825 I-0.1709 J-0.4126
G02 X11.9838 Y72.1376 I-0.3158 J-0.3158
G02 X12.0178 Y71.9666 I-0.4126 J-0.1709
G02 X11.3479 Y71.5798 I-0.4466 J0.0000
G02 Y72.3534 I0.2233 J0.3868
G02 X12.0178 Y71.9666 I0.2233 J-0.3868
G02 X11.1712 I-0.4233 J0.0000
G02 X11.9712 I0.4000 J0.0000
G02 X11.3712 Y71.6202 Z-3.0095 I-0.4000 J0.0000 F2400
G02 Y72.3130 Z-3.1690 I0.2000 J0.3464
G02 X11.9712 Y71.9666 Z-3.3286 I0.2000 J-0.3464
G02 X11.3712 Y71.6202 I-0.4000 J0.0000
G02 Y72.3130 I0.2000 J0.3464
G02 X11.9712 Y71.9666 I0.2000 J-0.3464
G02 X11.9754 Y71.7992 I-0.3984 J-0.0938 F1800
G02 X11.8870 Y71.6508 I-0.4162 J0.1473
G02 X11.7421 Y71.5540 I-0.3158 J0.3158
G02 X11.5712 Y71.5200 I-0.1709 J0.4126
G02 X11.4003 Y71.5540 I0.0000 J0.4466
G02 X11.2554 Y71.6508 I0.1709 J0.4126
G02 X11.1585 Y71.7957 I0.3158 J0.3158
G02 X11.1245 Y71.9666 I0.4126 J0.1709
G02 X11.1585 Y72.1376 I0.4466 J0.0000
G02 X11.2554 Y72.2825 I0.4126 J-0.1709
G02 X11.4003 Y72.3793 I0.3158 J-0.3158
G02 X11.5712 Y72.4133 I0.1709 J-0.4126
G02 X11.7421 Y72.3793 I0.0000 J-0.4466
G02 X11.8870 Y72.2825 I-0.1709 J-0.4126
G02 X11.9838 Y72.1376 I-0.3158 J-0.3158
G02 X12.0178 Y71.9666 I-0.4126 J-0.1709
G02 X11.3479 Y71.5798 I-0.4466 J0.0000
G02 Y72.3534 I0.2233 J0.3868
G02 X12.0178 Y71.9666 I0.2233 J-0.3868
G02 X11.1712 I-0.4233 J0.0000
G02 X11.9712 I0.4000 J0.0000
G02 X11.3712 Y71.6202 Z-3.4881 I-0.4000 J0.0000 F2400
G02 Y72.3130 Z-3.6476 I0.2000 J0.3464
G02 X11.9712 Y71.9666 Z-3.8071 I0.2000 J-0.3464
G02 X11.3712 Y71.6202 I-0.4000 J0.0000
G02 Y72.3130 I0.2000 J0.3464
G02 X11.9712 Y71.9666 I0.2000 J-0.3464
G02 X11.9754 Y71.7992 I-0.3984 J-0.0938 F1800
G02 X11.8870 Y71.6508 I-0.4162 J0.1473
G02 X11.7421 Y71.5540 I-0.3158 J0.3158
G02 X11.5712 Y71.5200 I-0.1709 J0.4126
G02 X11.4003 Y71.5540 I0.0000 J0.4466
G02 X11.2554 Y71.6508 I0.1709 J0.4126
G02 X11.1585 Y71.7957 I0.3158 J0.3158
G02 X11.1245 Y71.9666 I0.4126 J0.1709
G02 X11.1585 Y72.1376 I0.4466 J0.0000
G02 X11.2554 Y72.2825 I0.4126 J-0.1709
G02 X11.4003 Y72.3793 I0.3158 J-0.3158
G02 X11.5712 Y72.4133 I0.1709 J-0.4126
G02 X11.7421 Y72.3793 I0.0000 J-0.4466
G02 X11.8870 Y72.2825 I-0.1709 J-0.4126
G02 X11.9838 Y72.1376 I-0.3158 J-0.3158
G02 X12.0178 Y71.9666 I-0.4126 J-0.1709
G02 X11.3479 Y71.5798 I-0.4466 J0.0000
G02 Y72.3534 I0.2233 J0.3868
G02 X12.0178 Y71.9666 I0.2233 J-0.3868
G02 X11.1712 I-0.4233 J0.0000
G02 X11.9712 I0.4000 J0.0000
G02 X11.3712 Y71.6202 Z-3.9667 I-0.4000 J0.0000 F2400
G02 Y72.3130 Z-4.1262 I0.2000 J0.3464
G02 X11.9712 Y71.9666 Z-4.2857 I0.2000 J-0.3464
G02 X11.3712 Y71.6202 I-0.4000 J0.0000
G02 Y72.3130 I0.2000 J0.3464
G02 X11.9712 Y71.9666 I0.2000 J-0.3464
G02 X11.9754 Y71.7992 I-0.3984 J-0.0938 F1800
G02 X11.8870 Y71.6508 I-0.4162 J0.1473
G02 X11.7421 Y71.5540 I-0.3158 J0.3158
G02 X11.5712 Y71.5200 I-0.1709 J0.4126
G02 X11.4003 Y71.5540 I0.0000 J0.4466
G02 X11.2554 Y71.6508 I0.1709 J0.4126
G02 X11.1585 Y71.7957 I0.3158 J0.3158
G02 X11.1245 Y71.9666 I0.4126 J0.1709
G02 X11.1585 Y72.1376 I0.4466 J0.0000
G02 X11.2554 Y72.2825 I0.4126 J-0.1709
G02 X11.4003 Y72.3793 I0.3158 J-0.3158
G02 X11.5712 Y72.4133 I0.1709 J-0.4126
G02 X11.7421 Y72.3793 I0.0000 J-0.4466
G02 X11.8870 Y72.2825 I-0.1709 J-0.4126
G02 X11.9838 Y72.1376 I-0.3158 J-0.3158
G02 X12.0178 Y71.9666 I-0.4126 J-0.1709
G02 X11.3479 Y71.5798 I-0.4466 J0.0000
G02 Y72.3534 I0.2233 J0.3868
G02 X12.0178 Y71.9666 I0.2233 J-0.3868
G02 X11.1712 I-0.4233 J0.0000
G02 X11.9712 I0.4000 J0.0000
G02 X11.3712 Y71.6202 Z-4.4452 I-0.4000 J0.0000 F2400
G02 Y72.3130 Z-4.6048 I0.2000 J0.3464
G02 X11.9712 Y71.9666 Z-4.7643 I0.2000 J-0.3464
G02 X11.3712 Y71.6202 I-0.4000 J0.0000
G02 Y72.3130 I0.2000 J0.3464
G02 X11.9712 Y71.9666 I0.2000 J-0.3464
G02 X11.9754 Y71.7992 I-0.3984 J-0.0938 F1800
G02 X11.8870 Y71.6508 I-0.4162 J0.1473
G02 X11.7421 Y71.5540 I-0.3158 J0.3158
G02 X11.5712 Y71.5200 I-0.1709 J0.4126
G02 X11.4003 Y71.5540 I0.0000 J0.4466
G02 X11.2554 Y71.6508 I0.1709 J0.4126
G02 X11.1585 Y71.7957 I0.3158 J0.3158
G02 X11.1245 Y71.9666 I0.4126 J0.1709
G02 X11.1585 Y72.1376 I0.4466 J0.0000
G02 X11.2554 Y72.2825 I0.4126 J-0.1709
G02 X11.4003 Y72.3793 I0.3158 J-0.3158
G02 X11.5712 Y72.4133 I0.1709 J-0.4126
G02 X11.7421 Y72.3793 I0.0000 J-0.4466
G02 X11.8870 Y72.2825 I-0.1709 J-0.4126
G02 X11.9838 Y72.1376 I-0.3158 J-0.3158
G02 X12.0178 Y71.9666 I-0.4126 J-0.1709
G02 X11.3479 Y71.5798 I-0.4466 J0.0000
G02 Y72.3534 I0.2233 J0.3868
G02 X12.0178 Y71.9666 I0.2233 J-0.3868
G02 X11.1712 I-0.4233 J0.0000
G02 X11.9712 I0.4000 J0.0000
G02 X11.3712 Y71.6202 Z-4.9238 I-0.4000 J0.0000 F2400
G02 Y72.3130 Z-5.0833 I0.2000 J0.3464
G02 X11.9712 Y71.9666 Z-5.2429 I0.2000 J-0.3464
G02 X11.3712 Y71.6202 I-0.4000 J0.0000
G02 Y72.3130 I0.2000 J0.3464
G02 X11.9712 Y71.9666 I0.2000 J-0.3464
G02 X11.9754 Y71.7992 I-0.3984 J-0.0938 F1800
G02 X11.8870 Y71.6508 I-0.4162 J0.1473
G02 X11.7421 Y71.5540 I-0.3158 J0.3158
G02 X11.5712 Y71.5200 I-0.1709 J0.4126
G02 X11.4003 Y71.5540 I0.0000 J0.4466
G02 X11.2554 Y71.6508 I0.1709 J0.4126
G02 X11.1585 Y71.7957 I0.3158 J0.3158
G02 X11.1245 Y71.9666 I0.4126 J0.1709
G02 X11.1585 Y72.1376 I0.4466 J0.0000
G02 X11.2554 Y72.2825 I0.4126 J-0.1709
G02 X11.4003 Y72.3793 I0.3158 J-0.3158
G02 X11.5712 Y72.4133 I0.1709 J-0.4126
G02 X11.7421 Y72.3793 I0.0000 J-0.4466
G02 X11.8870 Y72.2825 I-0.1709 J-0.4126
G02 X11.9838 Y72.1376 I-0.3158 J-0.3158
G02 X12.0178 Y71.9666 I-0.4126 J-0.1709
G02 X11.3479 Y71.5798 I-0.4466 J0.0000
G02 Y72.3534 I0.2233 J0.3868
G02 X12.0178 Y71.9666 I0.2233 J-0.3868
G02 X11.1712 I-0.4233 J0.0000
G02 X11.9712 I0.4000 J0.0000
G02 X11.3712 Y71.6202 Z-5.4024 I-0.4000 J0.0000 F2400
G02 Y72.3130 Z-5.5619 I0.2000 J0.3464
G02 X11.9712 Y71.9666 Z-5.7214 I0.2000 J-0.3464
G02 X11.3712 Y71.6202 I-0.4000 J0.0000
G02 Y72.3130 I0.2000 J0.3464
G02 X11.9712 Y71.9666 I0.2000 J-0.3464
G02 X11.9754 Y71.7992 I-0.3984 J-0.0938 F1800
G02 X11.8870 Y71.6508 I-0.4162 J0.1473
G02 X11.7421 Y71.5540 I-0.3158 J0.3158
G02 X11.5712 Y71.5200 I-0.1709 J0.4126
G02 X11.4003 Y71.5540 I0.0000 J0.4466
G02 X11.2554 Y71.6508 I0.1709 J0.4126
G02 X11.1585 Y71.7957 I0.3158 J0.3158
G02 X11.1245 Y71.9666 I0.4126 J0.1709
G02 X11.1585 Y72.1376 I0.4466 J0.0000
G02 X11.2554 Y72.2825 I0.4126 J-0.1709
G02 X11.4003 Y72.3793 I0.3158 J-0.3158
G02 X11.5712 Y72.4133 I0.1709 J-0.4126
G02 X11.7421 Y72.3793 I0.0000 J-0.4466
G02 X11.8870 Y72.2825 I-0.1709 J-0.4126
G02 X11.9838 Y72.1376 I-0.3158 J-0.3158
G02 X12.0178 Y71.9666 I-0.4126 J-0.1709
G02 X11.3479 Y71.5798 I-0.4466 J0.0000
G02 Y72.3534 I0.2233 J0.3868
G02 X12.0178 Y71.9666 I0.2233 J-0.3868
G02 X11.1712 I-0.4233 J0.0000
G02 X11.9712 I0.4000 J0.0000
G02 X11.3712 Y71.6202 Z-5.8810 I-0.4000 J0.0000 F2400
G02 Y72.3130 Z-6.0405 I0.2000 J0.3464
G02 X11.9712 Y71.9666 Z-6.2000 I0.2000 J-0.3464
G02 X11.3712 Y71.6202 I-0.4000 J0.0000
G02 Y72.3130 I0.2000 J0.3464
G02 X11.9712 Y71.9666 I0.2000 J-0.3464
G02 X11.9754 Y71.7992 I-0.3984 J-0.0938 F1800
G02 X11.8870 Y71.6508 I-0.4162 J0.1473
G02 X11.7421 Y71.5540 I-0.3158 J0.3158
G02 X11.5712 Y71.5200 I-0.1709 J0.4126
G02 X11.4003 Y71.5540 I0.0000 J0.4466
G02 X11.2554 Y71.6508 I0.1709 J0.4126
G02 X11.1585 Y71.7957 I0.3158 J0.3158
G02 X11.1245 Y71.9666 I0.4126 J0.1709
G02 X11.1585 Y72.1376 I0.4466 J0.0000
G02 X11.2554 Y72.2825 I0.4126 J-0.1709
G02 X11.4003 Y72.3793 I0.3158 J-0.3158
G02 X11.5712 Y72.4133 I0.1709 J-0.4126
G02 X11.7421 Y72.3793 I0.0000 J-0.4466
G02 X11.8870 Y72.2825 I-0.1709 J-0.4126
G02 X11.9838 Y72.1376 I-0.3158 J-0.3158
G02 X12.0178 Y71.9666 I-0.4126 J-0.1709
G02 X11.3479 Y71.5798 I-0.4466 J0.0000
G02 Y72.3534 I0.2233 J0.3868
G02 X12.0178 Y71.9666 I0.2233 J-0.3868
G02 X11.6178 Y71.5666 Z-5.7000 I-0.4000 J0.0000 F2400
G00 Z5.0000


(No. 12: Helical drill 15)
G00 X11.9712 Y68.5800 Z5.0000
G00 Z0.5000
G02 X11.3712 Y68.2336 Z0.3405 I-0.4000 J0.0000 F2400
G02 Y68.9264 Z0.1810 I0.2000 J0.3464
G02 X11.9712 Y68.5800 Z0.0214 I0.2000 J-0.3464
G02 X11.3712 Y68.2336 I-0.4000 J0.0000
G02 Y68.9264 I0.2000 J0.3464
G02 X11.9712 Y68.5800 I0.2000 J-0.3464
G02 X11.9754 Y68.4126 I-0.3984 J-0.0938 F1800
G02 X11.8870 Y68.2642 I-0.4162 J0.1473
G02 X11.7421 Y68.1673 I-0.3158 J0.3158
G02 X11.5712 Y68.1333 I-0.1709 J0.4127
G02 X11.4002 Y68.1673 I0.0000 J0.4467
G02 X11.2553 Y68.2642 I0.1709 J0.4127
G02 X11.1585 Y68.4091 I0.3158 J0.3158
G02 X11.1245 Y68.5800 I0.4127 J0.1709
G02 X11.1585 Y68.7509 I0.4467 J0.0000
G02 X11.2553 Y68.8958 I0.4127 J-0.1709
G02 X11.4002 Y68.9927 I0.3158 J-0.3158
G02 X11.5712 Y69.0267 I0.1709 J-0.4127
G02 X11.7421 Y68.9927 I0.0000 J-0.4467
G02 X11.8870 Y68.8958 I-0.1709 J-0.4127
G02 X11.9838 Y68.7509 I-0.3158 J-0.3158
G02 X12.0178 Y68.5800 I-0.4127 J-0.1709
G02 X11.3478 Y68.1932 I-0.4467 J0.0000
G02 Y68.9668 I0.2233 J0.3868
G02 X12.0178 Y68.5800 I0.2233 J-0.3868
G02 X11.1712 I-0.4233 J0.0000
G02 X11.9712 I0.4000 J0.0000
G02 X11.3712 Y68.2336 Z-0.1381 I-0.4000 J0.0000 F2400
G02 Y68.9264 Z-0.2976 I0.2000 J0.3464
G02 X11.9712 Y68.5800 Z-0.4571 I0.2000 J-0.3464
G02 X11.3712 Y68.2336 I-0.4000 J0.0000
G02 Y68.9264 I0.2000 J0.3464
G02 X11.9712 Y68.5800 I0.2000 J-0.3464
G02 X11.9754 Y68.4126 I-0.3984 J-0.0938 F1800
G02 X11.8870 Y68.2642 I-0.4162 J0.1473
G02 X11.7421 Y68.1673 I-0.3158 J0.3158
G02 X11.5712 Y68.1333 I-0.1709 J0.4127
G02 X11.4002 Y68.1673 I0.0000 J0.4467
G02 X11.2553 Y68.2642 I0.1709 J0.4127
G02 X11.1585 Y68.4091 I0.3158 J0.3158
G02 X11.1245 Y68.5800 I0.4127 J0.1709
G02 X11.1585 Y68.7509 I0.4467 J0.0000
G02 X11.2553 Y68.8958 I0.4127 J-0.1709
G02 X11.4002 Y68.9927 I0.3158 J-0.3158
G02 X11.5712 Y69.0267 I0.1709 J-0.4127
G02 X11.7421 Y68.9927 I0.0000 J-0.4467
G02 X11.8870 Y68.8958 I-0.1709 J-0.4127
G02 X11.9838 Y68.7509 I-0.3158 J-0.3158
G02 X12.0178 Y68.5800 I-0.4127 J-0.1709
G02 X11.3478 Y68.1932 I-0.4467 J0.0000
G02 Y68.9668 I0.2233 J0.3868
G02 X12.0178 Y68.5800 I0.2233 J-0.3868
G02 X11.1712 I-0.4233 J0.0000
G02 X11.9712 I0.4000 J0.0000
G02 X11.3712 Y68.2336 Z-0.6167 I-0.4000 J0.0000 F2400
G02 Y68.9264 Z-0.7762 I0.2000 J0.3464
G02 X11.9712 Y68.5800 Z-0.9357 I0.2000 J-0.3464
G02 X11.3712 Y68.2336 I-0.4000 J0.0000
G02 Y68.9264 I0.2000 J0.3464
G02 X11.9712 Y68.5800 I0.2000 J-0.3464
G02 X11.9754 Y68.4126 I-0.3984 J-0.0938 F1800
G02 X11.8870 Y68.2642 I-0.4162 J0.1473
G02 X11.7421 Y68.1673 I-0.3158 J0.3158
G02 X11.5712 Y68.1333 I-0.1709 J0.4127
G02 X11.4002 Y68.1673 I0.0000 J0.4467
G02 X11.2553 Y68.2642 I0.1709 J0.4127
G02 X11.1585 Y68.4091 I0.3158 J0.3158
G02 X11.1245 Y68.5800 I0.4127 J0.1709
G02 X11.1585 Y68.7509 I0.4467 J0.0000
G02 X11.2553 Y68.8958 I0.4127 J-0.1709
G02 X11.4002 Y68.9927 I0.3158 J-0.3158
G02 X11.5712 Y69.0267 I0.1709 J-0.4127
G02 X11.7421 Y68.9927 I0.0000 J-0.4467
G02 X11.8870 Y68.8958 I-0.1709 J-0.4127
G02 X11.9838 Y68.7509 I-0.3158 J-0.3158
G02 X12.0178 Y68.5800 I-0.4127 J-0.1709
G02 X11.3478 Y68.1932 I-0.4467 J0.0000
G02 Y68.9668 I0.2233 J0.3868
G02 X12.0178 Y68.5800 I0.2233 J-0.3868
G02 X11.1712 I-0.4233 J0.0000
G02 X11.9712 I0.4000 J0.0000
G02 X11.3712 Y68.2336 Z-1.0952 I-0.4000 J0.0000 F2400
G02 Y68.9264 Z-1.2548 I0.2000 J0.3464
G02 X11.9712 Y68.5800 Z-1.4143 I0.2000 J-0.3464
G02 X11.3712 Y68.2336 I-0.4000 J0.0000
G02 Y68.9264 I0.2000 J0.3464
G02 X11.9712 Y68.5800 I0.2000 J-0.3464
G02 X11.9754 Y68.4126 I-0.3984 J-0.0938 F1800
G02 X11.8870 Y68.2642 I-0.4162 J0.1473
G02 X11.7421 Y68.1673 I-0.3158 J0.3158
G02 X11.5712 Y68.1333 I-0.1709 J0.4127
G02 X11.4002 Y68.1673 I0.0000 J0.4467
G02 X11.2553 Y68.2642 I0.1709 J0.4127
G02 X11.1585 Y68.4091 I0.3158 J0.3158
G02 X11.1245 Y68.5800 I0.4127 J0.1709
G02 X11.1585 Y68.7509 I0.4467 J0.0000
G02 X11.2553 Y68.8958 I0.4127 J-0.1709
G02 X11.4002 Y68.9927 I0.3158 J-0.3158
G02 X11.5712 Y69.0267 I0.1709 J-0.4127
G02 X11.7421 Y68.9927 I0.0000 J-0.4467
G02 X11.8870 Y68.8958 I-0.1709 J-0.4127
G02 X11.9838 Y68.7509 I-0.3158 J-0.3158
G02 X12.0178 Y68.5800 I-0.4127 J-0.1709
G02 X11.3478 Y68.1932 I-0.4467 J0.0000
G02 Y68.9668 I0.2233 J0.3868
G02 X12.0178 Y68.5800 I0.2233 J-0.3868
G02 X11.1712 I-0.4233 J0.0000
G02 X11.9712 I0.4000 J0.0000
G02 X11.3712 Y68.2336 Z-1.5738 I-0.4000 J0.0000 F2400
G02 Y68.9264 Z-1.7333 I0.2000 J0.3464
G02 X11.9712 Y68.5800 Z-1.8929 I0.2000 J-0.3464
G02 X11.3712 Y68.2336 I-0.4000 J0.0000
G02 Y68.9264 I0.2000 J0.3464
G02 X11.9712 Y68.5800 I0.2000 J-0.3464
G02 X11.9754 Y68.4126 I-0.3984 J-0.0938 F1800
G02 X11.8870 Y68.2642 I-0.4162 J0.1473
G02 X11.7421 Y68.1673 I-0.3158 J0.3158
G02 X11.5712 Y68.1333 I-0.1709 J0.4127
G02 X11.4002 Y68.1673 I0.0000 J0.4467
G02 X11.2553 Y68.2642 I0.1709 J0.4127
G02 X11.1585 Y68.4091 I0.3158 J0.3158
G02 X11.1245 Y68.5800 I0.4127 J0.1709
G02 X11.1585 Y68.7509 I0.4467 J0.0000
G02 X11.2553 Y68.8958 I0.4127 J-0.1709
G02 X11.4002 Y68.9927 I0.3158 J-0.3158
G02 X11.5712 Y69.0267 I0.1709 J-0.4127
G02 X11.7421 Y68.9927 I0.0000 J-0.4467
G02 X11.8870 Y68.8958 I-0.1709 J-0.4127
G02 X11.9838 Y68.7509 I-0.3158 J-0.3158
G02 X12.0178 Y68.5800 I-0.4127 J-0.1709
G02 X11.3478 Y68.1932 I-0.4467 J0.0000
G02 Y68.9668 I0.2233 J0.3868
G02 X12.0178 Y68.5800 I0.2233 J-0.3868
G02 X11.1712 I-0.4233 J0.0000
G02 X11.9712 I0.4000 J0.0000
G02 X11.3712 Y68.2336 Z-2.0524 I-0.4000 J0.0000 F2400
G02 Y68.9264 Z-2.2119 I0.2000 J0.3464
G02 X11.9712 Y68.5800 Z-2.3714 I0.2000 J-0.3464
G02 X11.3712 Y68.2336 I-0.4000 J0.0000
G02 Y68.9264 I0.2000 J0.3464
G02 X11.9712 Y68.5800 I0.2000 J-0.3464
G02 X11.9754 Y68.4126 I-0.3984 J-0.0938 F1800
G02 X11.8870 Y68.2642 I-0.4162 J0.1473
G02 X11.7421 Y68.1673 I-0.3158 J0.3158
G02 X11.5712 Y68.1333 I-0.1709 J0.4127
G02 X11.4002 Y68.1673 I0.0000 J0.4467
G02 X11.2553 Y68.2642 I0.1709 J0.4127
G02 X11.1585 Y68.4091 I0.3158 J0.3158
G02 X11.1245 Y68.5800 I0.4127 J0.1709
G02 X11.1585 Y68.7509 I0.4467 J0.0000
G02 X11.2553 Y68.8958 I0.4127 J-0.1709
G02 X11.4002 Y68.9927 I0.3158 J-0.3158
G02 X11.5712 Y69.0267 I0.1709 J-0.4127
G02 X11.7421 Y68.9927 I0.0000 J-0.4467
G02 X11.8870 Y68.8958 I-0.1709 J-0.4127
G02 X11.9838 Y68.7509 I-0.3158 J-0.3158
G02 X12.0178 Y68.5800 I-0.4127 J-0.1709
G02 X11.3478 Y68.1932 I-0.4467 J0.0000
G02 Y68.9668 I0.2233 J0.3868
G02 X12.0178 Y68.5800 I0.2233 J-0.3868
G02 X11.1712 I-0.4233 J0.0000
G02 X11.9712 I0.4000 J0.0000
G02 X11.3712 Y68.2336 Z-2.5310 I-0.4000 J0.0000 F2400
G02 Y68.9264 Z-2.6905 I0.2000 J0.3464
G02 X11.9712 Y68.5800 Z-2.8500 I0.2000 J-0.3464
G02 X11.3712 Y68.2336 I-0.4000 J0.0000
G02 Y68.9264 I0.2000 J0.3464
G02 X11.9712 Y68.5800 I0.2000 J-0.3464
G02 X11.9754 Y68.4126 I-0.3984 J-0.0938 F1800
G02 X11.8870 Y68.2642 I-0.4162 J0.1473
G02 X11.7421 Y68.1673 I-0.3158 J0.3158
G02 X11.5712 Y68.1333 I-0.1709 J0.4127
G02 X11.4002 Y68.1673 I0.0000 J0.4467
G02 X11.2553 Y68.2642 I0.1709 J0.4127
G02 X11.1585 Y68.4091 I0.3158 J0.3158
G02 X11.1245 Y68.5800 I0.4127 J0.1709
G02 X11.1585 Y68.7509 I0.4467 J0.0000
G02 X11.2553 Y68.8958 I0.4127 J-0.1709
G02 X11.4002 Y68.9927 I0.3158 J-0.3158
G02 X11.5712 Y69.0267 I0.1709 J-0.4127
G02 X11.7421 Y68.9927 I0.0000 J-0.4467
G02 X11.8870 Y68.8958 I-0.1709 J-0.4127
G02 X11.9838 Y68.7509 I-0.3158 J-0.3158
G02 X12.0178 Y68.5800 I-0.4127 J-0.1709
G02 X11.3478 Y68.1932 I-0.4467 J0.0000
G02 Y68.9668 I0.2233 J0.3868
G02 X12.0178 Y68.5800 I0.2233 J-0.3868
G02 X11.1712 I-0.4233 J0.0000
G02 X11.9712 I0.4000 J0.0000
G02 X11.3712 Y68.2336 Z-3.0095 I-0.4000 J0.0000 F2400
G02 Y68.9264 Z-3.1690 I0.2000 J0.3464
G02 X11.9712 Y68.5800 Z-3.3286 I0.2000 J-0.3464
G02 X11.3712 Y68.2336 I-0.4000 J0.0000
G02 Y68.9264 I0.2000 J0.3464
G02 X11.9712 Y68.5800 I0.2000 J-0.3464
G02 X11.9754 Y68.4126 I-0.3984 J-0.0938 F1800
G02 X11.8870 Y68.2642 I-0.4162 J0.1473
G02 X11.7421 Y68.1673 I-0.3158 J0.3158
G02 X11.5712 Y68.1333 I-0.1709 J0.4127
G02 X11.4002 Y68.1673 I0.0000 J0.4467
G02 X11.2553 Y68.2642 I0.1709 J0.4127
G02 X11.1585 Y68.4091 I0.3158 J0.3158
G02 X11.1245 Y68.5800 I0.4127 J0.1709
G02 X11.1585 Y68.7509 I0.4467 J0.0000
G02 X11.2553 Y68.8958 I0.4127 J-0.1709
G02 X11.4002 Y68.9927 I0.3158 J-0.3158
G02 X11.5712 Y69.0267 I0.1709 J-0.4127
G02 X11.7421 Y68.9927 I0.0000 J-0.4467
G02 X11.8870 Y68.8958 I-0.1709 J-0.4127
G02 X11.9838 Y68.7509 I-0.3158 J-0.3158
G02 X12.0178 Y68.5800 I-0.4127 J-0.1709
G02 X11.3478 Y68.1932 I-0.4467 J0.0000
G02 Y68.9668 I0.2233 J0.3868
G02 X12.0178 Y68.5800 I0.2233 J-0.3868
G02 X11.1712 I-0.4233 J0.0000
G02 X11.9712 I0.4000 J0.0000
G02 X11.3712 Y68.2336 Z-3.4881 I-0.4000 J0.0000 F2400
G02 Y68.9264 Z-3.6476 I0.2000 J0.3464
G02 X11.9712 Y68.5800 Z-3.8071 I0.2000 J-0.3464
G02 X11.3712 Y68.2336 I-0.4000 J0.0000
G02 Y68.9264 I0.2000 J0.3464
G02 X11.9712 Y68.5800 I0.2000 J-0.3464
G02 X11.9754 Y68.4126 I-0.3984 J-0.0938 F1800
G02 X11.8870 Y68.2642 I-0.4162 J0.1473
G02 X11.7421 Y68.1673 I-0.3158 J0.3158
G02 X11.5712 Y68.1333 I-0.1709 J0.4127
G02 X11.4002 Y68.1673 I0.0000 J0.4467
G02 X11.2553 Y68.2642 I0.1709 J0.4127
G02 X11.1585 Y68.4091 I0.3158 J0.3158
G02 X11.1245 Y68.5800 I0.4127 J0.1709
G02 X11.1585 Y68.7509 I0.4467 J0.0000
G02 X11.2553 Y68.8958 I0.4127 J-0.1709
G02 X11.4002 Y68.9927 I0.3158 J-0.3158
G02 X11.5712 Y69.0267 I0.1709 J-0.4127
G02 X11.7421 Y68.9927 I0.0000 J-0.4467
G02 X11.8870 Y68.8958 I-0.1709 J-0.4127
G02 X11.9838 Y68.7509 I-0.3158 J-0.3158
G02 X12.0178 Y68.5800 I-0.4127 J-0.1709
G02 X11.3478 Y68.1932 I-0.4467 J0.0000
G02 Y68.9668 I0.2233 J0.3868
G02 X12.0178 Y68.5800 I0.2233 J-0.3868
G02 X11.1712 I-0.4233 J0.0000
G02 X11.9712 I0.4000 J0.0000
G02 X11.3712 Y68.2336 Z-3.9667 I-0.4000 J0.0000 F2400
G02 Y68.9264 Z-4.1262 I0.2000 J0.3464
G02 X11.9712 Y68.5800 Z-4.2857 I0.2000 J-0.3464
G02 X11.3712 Y68.2336 I-0.4000 J0.0000
G02 Y68.9264 I0.2000 J0.3464
G02 X11.9712 Y68.5800 I0.2000 J-0.3464
G02 X11.9754 Y68.4126 I-0.3984 J-0.0938 F1800
G02 X11.8870 Y68.2642 I-0.4162 J0.1473
G02 X11.7421 Y68.1673 I-0.3158 J0.3158
G02 X11.5712 Y68.1333 I-0.1709 J0.4127
G02 X11.4002 Y68.1673 I0.0000 J0.4467
G02 X11.2553 Y68.2642 I0.1709 J0.4127
G02 X11.1585 Y68.4091 I0.3158 J0.3158
G02 X11.1245 Y68.5800 I0.4127 J0.1709
G02 X11.1585 Y68.7509 I0.4467 J0.0000
G02 X11.2553 Y68.8958 I0.4127 J-0.1709
G02 X11.4002 Y68.9927 I0.3158 J-0.3158
G02 X11.5712 Y69.0267 I0.1709 J-0.4127
G02 X11.7421 Y68.9927 I0.0000 J-0.4467
G02 X11.8870 Y68.8958 I-0.1709 J-0.4127
G02 X11.9838 Y68.7509 I-0.3158 J-0.3158
G02 X12.0178 Y68.5800 I-0.4127 J-0.1709
G02 X11.3478 Y68.1932 I-0.4467 J0.0000
G02 Y68.9668 I0.2233 J0.3868
G02 X12.0178 Y68.5800 I0.2233 J-0.3868
G02 X11.1712 I-0.4233 J0.0000
G02 X11.9712 I0.4000 J0.0000
G02 X11.3712 Y68.2336 Z-4.4452 I-0.4000 J0.0000 F2400
G02 Y68.9264 Z-4.6048 I0.2000 J0.3464
G02 X11.9712 Y68.5800 Z-4.7643 I0.2000 J-0.3464
G02 X11.3712 Y68.2336 I-0.4000 J0.0000
G02 Y68.9264 I0.2000 J0.3464
G02 X11.9712 Y68.5800 I0.2000 J-0.3464
G02 X11.9754 Y68.4126 I-0.3984 J-0.0938 F1800
G02 X11.8870 Y68.2642 I-0.4162 J0.1473
G02 X11.7421 Y68.1673 I-0.3158 J0.3158
G02 X11.5712 Y68.1333 I-0.1709 J0.4127
G02 X11.4002 Y68.1673 I0.0000 J0.4467
G02 X11.2553 Y68.2642 I0.1709 J0.4127
G02 X11.1585 Y68.4091 I0.3158 J0.3158
G02 X11.1245 Y68.5800 I0.4127 J0.1709
G02 X11.1585 Y68.7509 I0.4467 J0.0000
G02 X11.2553 Y68.8958 I0.4127 J-0.1709
G02 X11.4002 Y68.9927 I0.3158 J-0.3158
G02 X11.5712 Y69.0267 I0.1709 J-0.4127
G02 X11.7421 Y68.9927 I0.0000 J-0.4467
G02 X11.8870 Y68.8958 I-0.1709 J-0.4127
G02 X11.9838 Y68.7509 I-0.3158 J-0.3158
G02 X12.0178 Y68.5800 I-0.4127 J-0.1709
G02 X11.3478 Y68.1932 I-0.4467 J0.0000
G02 Y68.9668 I0.2233 J0.3868
G02 X12.0178 Y68.5800 I0.2233 J-0.3868
G02 X11.1712 I-0.4233 J0.0000
G02 X11.9712 I0.4000 J0.0000
G02 X11.3712 Y68.2336 Z-4.9238 I-0.4000 J0.0000 F2400
G02 Y68.9264 Z-5.0833 I0.2000 J0.3464
G02 X11.9712 Y68.5800 Z-5.2429 I0.2000 J-0.3464
G02 X11.3712 Y68.2336 I-0.4000 J0.0000
G02 Y68.9264 I0.2000 J0.3464
G02 X11.9712 Y68.5800 I0.2000 J-0.3464
G02 X11.9754 Y68.4126 I-0.3984 J-0.0938 F1800
G02 X11.8870 Y68.2642 I-0.4162 J0.1473
G02 X11.7421 Y68.1673 I-0.3158 J0.3158
G02 X11.5712 Y68.1333 I-0.1709 J0.4127
G02 X11.4002 Y68.1673 I0.0000 J0.4467
G02 X11.2553 Y68.2642 I0.1709 J0.4127
G02 X11.1585 Y68.4091 I0.3158 J0.3158
G02 X11.1245 Y68.5800 I0.4127 J0.1709
G02 X11.1585 Y68.7509 I0.4467 J0.0000
G02 X11.2553 Y68.8958 I0.4127 J-0.1709
G02 X11.4002 Y68.9927 I0.3158 J-0.3158
G02 X11.5712 Y69.0267 I0.1709 J-0.4127
G02 X11.7421 Y68.9927 I0.0000 J-0.4467
G02 X11.8870 Y68.8958 I-0.1709 J-0.4127
G02 X11.9838 Y68.7509 I-0.3158 J-0.3158
G02 X12.0178 Y68.5800 I-0.4127 J-0.1709
G02 X11.3478 Y68.1932 I-0.4467 J0.0000
G02 Y68.9668 I0.2233 J0.3868
G02 X12.0178 Y68.5800 I0.2233 J-0.3868
G02 X11.1712 I-0.4233 J0.0000
G02 X11.9712 I0.4000 J0.0000
G02 X11.3712 Y68.2336 Z-5.4024 I-0.4000 J0.0000 F2400
G02 Y68.9264 Z-5.5619 I0.2000 J0.3464
G02 X11.9712 Y68.5800 Z-5.7214 I0.2000 J-0.3464
G02 X11.3712 Y68.2336 I-0.4000 J0.0000
G02 Y68.9264 I0.2000 J0.3464
G02 X11.9712 Y68.5800 I0.2000 J-0.3464
G02 X11.9754 Y68.4126 I-0.3984 J-0.0938 F1800
G02 X11.8870 Y68.2642 I-0.4162 J0.1473
G02 X11.7421 Y68.1673 I-0.3158 J0.3158
G02 X11.5712 Y68.1333 I-0.1709 J0.4127
G02 X11.4002 Y68.1673 I0.0000 J0.4467
G02 X11.2553 Y68.2642 I0.1709 J0.4127
G02 X11.1585 Y68.4091 I0.3158 J0.3158
G02 X11.1245 Y68.5800 I0.4127 J0.1709
G02 X11.1585 Y68.7509 I0.4467 J0.0000
G02 X11.2553 Y68.8958 I0.4127 J-0.1709
G02 X11.4002 Y68.9927 I0.3158 J-0.3158
G02 X11.5712 Y69.0267 I0.1709 J-0.4127
G02 X11.7421 Y68.9927 I0.0000 J-0.4467
G02 X11.8870 Y68.8958 I-0.1709 J-0.4127
G02 X11.9838 Y68.7509 I-0.3158 J-0.3158
G02 X12.0178 Y68.5800 I-0.4127 J-0.1709
G02 X11.3478 Y68.1932 I-0.4467 J0.0000
G02 Y68.9668 I0.2233 J0.3868
G02 X12.0178 Y68.5800 I0.2233 J-0.3868
G02 X11.1712 I-0.4233 J0.0000
G02 X11.9712 I0.4000 J0.0000
G02 X11.3712 Y68.2336 Z-5.8810 I-0.4000 J0.0000 F2400
G02 Y68.9264 Z-6.0405 I0.2000 J0.3464
G02 X11.9712 Y68.5800 Z-6.2000 I0.2000 J-0.3464
G02 X11.3712 Y68.2336 I-0.4000 J0.0000
G02 Y68.9264 I0.2000 J0.3464
G02 X11.9712 Y68.5800 I0.2000 J-0.3464
G02 X11.9754 Y68.4126 I-0.3984 J-0.0938 F1800
G02 X11.8870 Y68.2642 I-0.4162 J0.1473
G02 X11.7421 Y68.1673 I-0.3158 J0.3158
G02 X11.5712 Y68.1333 I-0.1709 J0.4127
G02 X11.4002 Y68.1673 I0.0000 J0.4467
G02 X11.2553 Y68.2642 I0.1709 J0.4127
G02 X11.1585 Y68.4091 I0.3158 J0.3158
G02 X11.1245 Y68.5800 I0.4127 J0.1709
G02 X11.1585 Y68.7509 I0.4467 J0.0000
G02 X11.2553 Y68.8958 I0.4127 J-0.1709
G02 X11.4002 Y68.9927 I0.3158 J-0.3158
G02 X11.5712 Y69.0267 I0.1709 J-0.4127
G02 X11.7421 Y68.9927 I0.0000 J-0.4467
G02 X11.8870 Y68.8958 I-0.1709 J-0.4127
G02 X11.9838 Y68.7509 I-0.3158 J-0.3158
G02 X12.0178 Y68.5800 I-0.4127 J-0.1709
G02 X11.3478 Y68.1932 I-0.4467 J0.0000
G02 Y68.9668 I0.2233 J0.3868
G02 X12.0178 Y68.5800 I0.2233 J-0.3868
G02 X11.6178 Y68.1800 Z-5.7000 I-0.4000 J0.0000 F2400
G00 Z5.0000


(No. 13: Helical drill 38)
G00 X11.9712 Y65.1933 Z5.0000
G00 Z0.5000
G02 X11.3712 Y64.8469 Z0.3405 I-0.4000 J0.0000 F2400
G02 Y65.5397 Z0.1810 I0.2000 J0.3464
G02 X11.9712 Y65.1933 Z0.0214 I0.2000 J-0.3464
G02 X11.3712 Y64.8469 I-0.4000 J0.0000
G02 Y65.5397 I0.2000 J0.3464
G02 X11.9712 Y65.1933 I0.2000 J-0.3464
G02 X11.9754 Y65.0259 I-0.3984 J-0.0938 F1800
G02 X11.8870 Y64.8775 I-0.4162 J0.1473
G02 X11.7421 Y64.7807 I-0.3158 J0.3158
G02 X11.5712 Y64.7467 I-0.1709 J0.4127
G02 X11.4002 Y64.7807 I0.0000 J0.4467
G02 X11.2553 Y64.8775 I0.1709 J0.4127
G02 X11.1585 Y65.0224 I0.3158 J0.3158
G02 X11.1245 Y65.1933 I0.4127 J0.1709
G02 X11.1585 Y65.3643 I0.4467 J0.0000
G02 X11.2553 Y65.5092 I0.4127 J-0.1709
G02 X11.4002 Y65.6060 I0.3158 J-0.3158
G02 X11.5712 Y65.6400 I0.1709 J-0.4127
G02 X11.7421 Y65.6060 I0.0000 J-0.4467
G02 X11.8870 Y65.5092 I-0.1709 J-0.4127
G02 X11.9838 Y65.3643 I-0.3158 J-0.3158
G02 X12.0178 Y65.1933 I-0.4127 J-0.1709
G02 X11.3478 Y64.8065 I-0.4467 J0.0000
G02 Y65.5802 I0.2233 J0.3868
G02 X12.0178 Y65.1933 I0.2233 J-0.3868
G02 X11.1712 I-0.4233 J0.0000
G02 X11.9712 I0.4000 J0.0000
G02 X11.3712 Y64.8469 Z-0.1381 I-0.4000 J0.0000 F2400
G02 Y65.5397 Z-0.2976 I0.2000 J0.3464
G02 X11.9712 Y65.1933 Z-0.4571 I0.2000 J-0.3464
G02 X11.3712 Y64.8469 I-0.4000 J0.0000
G02 Y65.5397 I0.2000 J0.3464
G02 X11.9712 Y65.1933 I0.2000 J-0.3464
G02 X11.9754 Y65.0259 I-0.3984 J-0.0938 F1800
G02 X11.8870 Y64.8775 I-0.4162 J0.1473
G02 X11.7421 Y64.7807 I-0.3158 J0.3158
G02 X11.5712 Y64.7467 I-0.1709 J0.4127
G02 X11.4002 Y64.7807 I0.0000 J0.4467
G02 X11.2553 Y64.8775 I0.1709 J0.4127
G02 X11.1585 Y65.0224 I0.3158 J0.3158
G02 X11.1245 Y65.1933 I0.4127 J0.1709
G02 X11.1585 Y65.3643 I0.4467 J0.0000
G02 X11.2553 Y65.5092 I0.4127 J-0.1709
G02 X11.4002 Y65.6060 I0.3158 J-0.3158
G02 X11.5712 Y65.6400 I0.1709 J-0.4127
G02 X11.7421 Y65.6060 I0.0000 J-0.4467
G02 X11.8870 Y65.5092 I-0.1709 J-0.4127
G02 X11.9838 Y65.3643 I-0.3158 J-0.3158
G02 X12.0178 Y65.1933 I-0.4127 J-0.1709
G02 X11.3478 Y64.8065 I-0.4467 J0.0000
G02 Y65.5802 I0.2233 J0.3868
G02 X12.0178 Y65.1933 I0.2233 J-0.3868
G02 X11.1712 I-0.4233 J0.0000
G02 X11.9712 I0.4000 J0.0000
G02 X11.3712 Y64.8469 Z-0.6167 I-0.4000 J0.0000 F2400
G02 Y65.5397 Z-0.7762 I0.2000 J0.3464
G02 X11.9712 Y65.1933 Z-0.9357 I0.2000 J-0.3464
G02 X11.3712 Y64.8469 I-0.4000 J0.0000
G02 Y65.5397 I0.2000 J0.3464
G02 X11.9712 Y65.1933 I0.2000 J-0.3464
G02 X11.9754 Y65.0259 I-0.3984 J-0.0938 F1800
G02 X11.8870 Y64.8775 I-0.4162 J0.1473
G02 X11.7421 Y64.7807 I-0.3158 J0.3158
G02 X11.5712 Y64.7467 I-0.1709 J0.4127
G02 X11.4002 Y64.7807 I0.0000 J0.4467
G02 X11.2553 Y64.8775 I0.1709 J0.4127
G02 X11.1585 Y65.0224 I0.3158 J0.3158
G02 X11.1245 Y65.1933 I0.4127 J0.1709
G02 X11.1585 Y65.3643 I0.4467 J0.0000
G02 X11.2553 Y65.5092 I0.4127 J-0.1709
G02 X11.4002 Y65.6060 I0.3158 J-0.3158
G02 X11.5712 Y65.6400 I0.1709 J-0.4127
G02 X11.7421 Y65.6060 I0.0000 J-0.4467
G02 X11.8870 Y65.5092 I-0.1709 J-0.4127
G02 X11.9838 Y65.3643 I-0.3158 J-0.3158
G02 X12.0178 Y65.1933 I-0.4127 J-0.1709
G02 X11.3478 Y64.8065 I-0.4467 J0.0000
G02 Y65.5802 I0.2233 J0.3868
G02 X12.0178 Y65.1933 I0.2233 J-0.3868
G02 X11.1712 I-0.4233 J0.0000
G02 X11.9712 I0.4000 J0.0000
G02 X11.3712 Y64.8469 Z-1.0952 I-0.4000 J0.0000 F2400
G02 Y65.5397 Z-1.2548 I0.2000 J0.3464
G02 X11.9712 Y65.1933 Z-1.4143 I0.2000 J-0.3464
G02 X11.3712 Y64.8469 I-0.4000 J0.0000
G02 Y65.5397 I0.2000 J0.3464
G02 X11.9712 Y65.1933 I0.2000 J-0.3464
G02 X11.9754 Y65.0259 I-0.3984 J-0.0938 F1800
G02 X11.8870 Y64.8775 I-0.4162 J0.1473
G02 X11.7421 Y64.7807 I-0.3158 J0.3158
G02 X11.5712 Y64.7467 I-0.1709 J0.4127
G02 X11.4002 Y64.7807 I0.0000 J0.4467
G02 X11.2553 Y64.8775 I0.1709 J0.4127
G02 X11.1585 Y65.0224 I0.3158 J0.3158
G02 X11.1245 Y65.1933 I0.4127 J0.1709
G02 X11.1585 Y65.3643 I0.4467 J0.0000
G02 X11.2553 Y65.5092 I0.4127 J-0.1709
G02 X11.4002 Y65.6060 I0.3158 J-0.3158
G02 X11.5712 Y65.6400 I0.1709 J-0.4127
G02 X11.7421 Y65.6060 I0.0000 J-0.4467
G02 X11.8870 Y65.5092 I-0.1709 J-0.4127
G02 X11.9838 Y65.3643 I-0.3158 J-0.3158
G02 X12.0178 Y65.1933 I-0.4127 J-0.1709
G02 X11.3478 Y64.8065 I-0.4467 J0.0000
G02 Y65.5802 I0.2233 J0.3868
G02 X12.0178 Y65.1933 I0.2233 J-0.3868
G02 X11.1712 I-0.4233 J0.0000
G02 X11.9712 I0.4000 J0.0000
G02 X11.3712 Y64.8469 Z-1.5738 I-0.4000 J0.0000 F2400
G02 Y65.5397 Z-1.7333 I0.2000 J0.3464
G02 X11.9712 Y65.1933 Z-1.8929 I0.2000 J-0.3464
G02 X11.3712 Y64.8469 I-0.4000 J0.0000
G02 Y65.5397 I0.2000 J0.3464
G02 X11.9712 Y65.1933 I0.2000 J-0.3464
G02 X11.9754 Y65.0259 I-0.3984 J-0.0938 F1800
G02 X11.8870 Y64.8775 I-0.4162 J0.1473
G02 X11.7421 Y64.7807 I-0.3158 J0.3158
G02 X11.5712 Y64.7467 I-0.1709 J0.4127
G02 X11.4002 Y64.7807 I0.0000 J0.4467
G02 X11.2553 Y64.8775 I0.1709 J0.4127
G02 X11.1585 Y65.0224 I0.3158 J0.3158
G02 X11.1245 Y65.1933 I0.4127 J0.1709
G02 X11.1585 Y65.3643 I0.4467 J0.0000
G02 X11.2553 Y65.5092 I0.4127 J-0.1709
G02 X11.4002 Y65.6060 I0.3158 J-0.3158
G02 X11.5712 Y65.6400 I0.1709 J-0.4127
G02 X11.7421 Y65.6060 I0.0000 J-0.4467
G02 X11.8870 Y65.5092 I-0.1709 J-0.4127
G02 X11.9838 Y65.3643 I-0.3158 J-0.3158
G02 X12.0178 Y65.1933 I-0.4127 J-0.1709
G02 X11.3478 Y64.8065 I-0.4467 J0.0000
G02 Y65.5802 I0.2233 J0.3868
G02 X12.0178 Y65.1933 I0.2233 J-0.3868
G02 X11.1712 I-0.4233 J0.0000
G02 X11.9712 I0.4000 J0.0000
G02 X11.3712 Y64.8469 Z-2.0524 I-0.4000 J0.0000 F2400
G02 Y65.5397 Z-2.2119 I0.2000 J0.3464
G02 X11.9712 Y65.1933 Z-2.3714 I0.2000 J-0.3464
G02 X11.3712 Y64.8469 I-0.4000 J0.0000
G02 Y65.5397 I0.2000 J0.3464
G02 X11.9712 Y65.1933 I0.2000 J-0.3464
G02 X11.9754 Y65.0259 I-0.3984 J-0.0938 F1800
G02 X11.8870 Y64.8775 I-0.4162 J0.1473
G02 X11.7421 Y64.7807 I-0.3158 J0.3158
G02 X11.5712 Y64.7467 I-0.1709 J0.4127
G02 X11.4002 Y64.7807 I0.0000 J0.4467
G02 X11.2553 Y64.8775 I0.1709 J0.4127
G02 X11.1585 Y65.0224 I0.3158 J0.3158
G02 X11.1245 Y65.1933 I0.4127 J0.1709
G02 X11.1585 Y65.3643 I0.4467 J0.0000
G02 X11.2553 Y65.5092 I0.4127 J-0.1709
G02 X11.4002 Y65.6060 I0.3158 J-0.3158
G02 X11.5712 Y65.6400 I0.1709 J-0.4127
G02 X11.7421 Y65.6060 I0.0000 J-0.4467
G02 X11.8870 Y65.5092 I-0.1709 J-0.4127
G02 X11.9838 Y65.3643 I-0.3158 J-0.3158
G02 X12.0178 Y65.1933 I-0.4127 J-0.1709
G02 X11.3478 Y64.8065 I-0.4467 J0.0000
G02 Y65.5802 I0.2233 J0.3868
G02 X12.0178 Y65.1933 I0.2233 J-0.3868
G02 X11.1712 I-0.4233 J0.0000
G02 X11.9712 I0.4000 J0.0000
G02 X11.3712 Y64.8469 Z-2.5310 I-0.4000 J0.0000 F2400
G02 Y65.5397 Z-2.6905 I0.2000 J0.3464
G02 X11.9712 Y65.1933 Z-2.8500 I0.2000 J-0.3464
G02 X11.3712 Y64.8469 I-0.4000 J0.0000
G02 Y65.5397 I0.2000 J0.3464
G02 X11.9712 Y65.1933 I0.2000 J-0.3464
G02 X11.9754 Y65.0259 I-0.3984 J-0.0938 F1800
G02 X11.8870 Y64.8775 I-0.4162 J0.1473
G02 X11.7421 Y64.7807 I-0.3158 J0.3158
G02 X11.5712 Y64.7467 I-0.1709 J0.4127
G02 X11.4002 Y64.7807 I0.0000 J0.4467
G02 X11.2553 Y64.8775 I0.1709 J0.4127
G02 X11.1585 Y65.0224 I0.3158 J0.3158
G02 X11.1245 Y65.1933 I0.4127 J0.1709
G02 X11.1585 Y65.3643 I0.4467 J0.0000
G02 X11.2553 Y65.5092 I0.4127 J-0.1709
G02 X11.4002 Y65.6060 I0.3158 J-0.3158
G02 X11.5712 Y65.6400 I0.1709 J-0.4127
G02 X11.7421 Y65.6060 I0.0000 J-0.4467
G02 X11.8870 Y65.5092 I-0.1709 J-0.4127
G02 X11.9838 Y65.3643 I-0.3158 J-0.3158
G02 X12.0178 Y65.1933 I-0.4127 J-0.1709
G02 X11.3478 Y64.8065 I-0.4467 J0.0000
G02 Y65.5802 I0.2233 J0.3868
G02 X12.0178 Y65.1933 I0.2233 J-0.3868
G02 X11.1712 I-0.4233 J0.0000
G02 X11.9712 I0.4000 J0.0000
G02 X11.3712 Y64.8469 Z-3.0095 I-0.4000 J0.0000 F2400
G02 Y65.5397 Z-3.1690 I0.2000 J0.3464
G02 X11.9712 Y65.1933 Z-3.3286 I0.2000 J-0.3464
G02 X11.3712 Y64.8469 I-0.4000 J0.0000
G02 Y65.5397 I0.2000 J0.3464
G02 X11.9712 Y65.1933 I0.2000 J-0.3464
G02 X11.9754 Y65.0259 I-0.3984 J-0.0938 F1800
G02 X11.8870 Y64.8775 I-0.4162 J0.1473
G02 X11.7421 Y64.7807 I-0.3158 J0.3158
G02 X11.5712 Y64.7467 I-0.1709 J0.4127
G02 X11.4002 Y64.7807 I0.0000 J0.4467
G02 X11.2553 Y64.8775 I0.1709 J0.4127
G02 X11.1585 Y65.0224 I0.3158 J0.3158
G02 X11.1245 Y65.1933 I0.4127 J0.1709
G02 X11.1585 Y65.3643 I0.4467 J0.0000
G02 X11.2553 Y65.5092 I0.4127 J-0.1709
G02 X11.4002 Y65.6060 I0.3158 J-0.3158
G02 X11.5712 Y65.6400 I0.1709 J-0.4127
G02 X11.7421 Y65.6060 I0.0000 J-0.4467
G02 X11.8870 Y65.5092 I-0.1709 J-0.4127
G02 X11.9838 Y65.3643 I-0.3158 J-0.3158
G02 X12.0178 Y65.1933 I-0.4127 J-0.1709
G02 X11.3478 Y64.8065 I-0.4467 J0.0000
G02 Y65.5802 I0.2233 J0.3868
G02 X12.0178 Y65.1933 I0.2233 J-0.3868
G02 X11.1712 I-0.4233 J0.0000
G02 X11.9712 I0.4000 J0.0000
G02 X11.3712 Y64.8469 Z-3.4881 I-0.4000 J0.0000 F2400
G02 Y65.5397 Z-3.6476 I0.2000 J0.3464
G02 X11.9712 Y65.1933 Z-3.8071 I0.2000 J-0.3464
G02 X11.3712 Y64.8469 I-0.4000 J0.0000
G02 Y65.5397 I0.2000 J0.3464
G02 X11.9712 Y65.1933 I0.2000 J-0.3464
G02 X11.9754 Y65.0259 I-0.3984 J-0.0938 F1800
G02 X11.8870 Y64.8775 I-0.4162 J0.1473
G02 X11.7421 Y64.7807 I-0.3158 J0.3158
G02 X11.5712 Y64.7467 I-0.1709 J0.4127
G02 X11.4002 Y64.7807 I0.0000 J0.4467
G02 X11.2553 Y64.8775 I0.1709 J0.4127
G02 X11.1585 Y65.0224 I0.3158 J0.3158
G02 X11.1245 Y65.1933 I0.4127 J0.1709
G02 X11.1585 Y65.3643 I0.4467 J0.0000
G02 X11.2553 Y65.5092 I0.4127 J-0.1709
G02 X11.4002 Y65.6060 I0.3158 J-0.3158
G02 X11.5712 Y65.6400 I0.1709 J-0.4127
G02 X11.7421 Y65.6060 I0.0000 J-0.4467
G02 X11.8870 Y65.5092 I-0.1709 J-0.4127
G02 X11.9838 Y65.3643 I-0.3158 J-0.3158
G02 X12.0178 Y65.1933 I-0.4127 J-0.1709
G02 X11.3478 Y64.8065 I-0.4467 J0.0000
G02 Y65.5802 I0.2233 J0.3868
G02 X12.0178 Y65.1933 I0.2233 J-0.3868
G02 X11.1712 I-0.4233 J0.0000
G02 X11.9712 I0.4000 J0.0000
G02 X11.3712 Y64.8469 Z-3.9667 I-0.4000 J0.0000 F2400
G02 Y65.5397 Z-4.1262 I0.2000 J0.3464
G02 X11.9712 Y65.1933 Z-4.2857 I0.2000 J-0.3464
G02 X11.3712 Y64.8469 I-0.4000 J0.0000
G02 Y65.5397 I0.2000 J0.3464
G02 X11.9712 Y65.1933 I0.2000 J-0.3464
G02 X11.9754 Y65.0259 I-0.3984 J-0.0938 F1800
G02 X11.8870 Y64.8775 I-0.4162 J0.1473
G02 X11.7421 Y64.7807 I-0.3158 J0.3158
G02 X11.5712 Y64.7467 I-0.1709 J0.4127
G02 X11.4002 Y64.7807 I0.0000 J0.4467
G02 X11.2553 Y64.8775 I0.1709 J0.4127
G02 X11.1585 Y65.0224 I0.3158 J0.3158
G02 X11.1245 Y65.1933 I0.4127 J0.1709
G02 X11.1585 Y65.3643 I0.4467 J0.0000
G02 X11.2553 Y65.5092 I0.4127 J-0.1709
G02 X11.4002 Y65.6060 I0.3158 J-0.3158
G02 X11.5712 Y65.6400 I0.1709 J-0.4127
G02 X11.7421 Y65.6060 I0.0000 J-0.4467
G02 X11.8870 Y65.5092 I-0.1709 J-0.4127
G02 X11.9838 Y65.3643 I-0.3158 J-0.3158
G02 X12.0178 Y65.1933 I-0.4127 J-0.1709
G02 X11.3478 Y64.8065 I-0.4467 J0.0000
G02 Y65.5802 I0.2233 J0.3868
G02 X12.0178 Y65.1933 I0.2233 J-0.3868
G02 X11.1712 I-0.4233 J0.0000
G02 X11.9712 I0.4000 J0.0000
G02 X11.3712 Y64.8469 Z-4.4452 I-0.4000 J0.0000 F2400
G02 Y65.5397 Z-4.6048 I0.2000 J0.3464
G02 X11.9712 Y65.1933 Z-4.7643 I0.2000 J-0.3464
G02 X11.3712 Y64.8469 I-0.4000 J0.0000
G02 Y65.5397 I0.2000 J0.3464
G02 X11.9712 Y65.1933 I0.2000 J-0.3464
G02 X11.9754 Y65.0259 I-0.3984 J-0.0938 F1800
G02 X11.8870 Y64.8775 I-0.4162 J0.1473
G02 X11.7421 Y64.7807 I-0.3158 J0.3158
G02 X11.5712 Y64.7467 I-0.1709 J0.4127
G02 X11.4002 Y64.7807 I0.0000 J0.4467
G02 X11.2553 Y64.8775 I0.1709 J0.4127
G02 X11.1585 Y65.0224 I0.3158 J0.3158
G02 X11.1245 Y65.1933 I0.4127 J0.1709
G02 X11.1585 Y65.3643 I0.4467 J0.0000
G02 X11.2553 Y65.5092 I0.4127 J-0.1709
G02 X11.4002 Y65.6060 I0.3158 J-0.3158
G02 X11.5712 Y65.6400 I0.1709 J-0.4127
G02 X11.7421 Y65.6060 I0.0000 J-0.4467
G02 X11.8870 Y65.5092 I-0.1709 J-0.4127
G02 X11.9838 Y65.3643 I-0.3158 J-0.3158
G02 X12.0178 Y65.1933 I-0.4127 J-0.1709
G02 X11.3478 Y64.8065 I-0.4467 J0.0000
G02 Y65.5802 I0.2233 J0.3868
G02 X12.0178 Y65.1933 I0.2233 J-0.3868
G02 X11.1712 I-0.4233 J0.0000
G02 X11.9712 I0.4000 J0.0000
G02 X11.3712 Y64.8469 Z-4.9238 I-0.4000 J0.0000 F2400
G02 Y65.5397 Z-5.0833 I0.2000 J0.3464
G02 X11.9712 Y65.1933 Z-5.2429 I0.2000 J-0.3464
G02 X11.3712 Y64.8469 I-0.4000 J0.0000
G02 Y65.5397 I0.2000 J0.3464
G02 X11.9712 Y65.1933 I0.2000 J-0.3464
G02 X11.9754 Y65.0259 I-0.3984 J-0.0938 F1800
G02 X11.8870 Y64.8775 I-0.4162 J0.1473
G02 X11.7421 Y64.7807 I-0.3158 J0.3158
G02 X11.5712 Y64.7467 I-0.1709 J0.4127
G02 X11.4002 Y64.7807 I0.0000 J0.4467
G02 X11.2553 Y64.8775 I0.1709 J0.4127
G02 X11.1585 Y65.0224 I0.3158 J0.3158
G02 X11.1245 Y65.1933 I0.4127 J0.1709
G02 X11.1585 Y65.3643 I0.4467 J0.0000
G02 X11.2553 Y65.5092 I0.4127 J-0.1709
G02 X11.4002 Y65.6060 I0.3158 J-0.3158
G02 X11.5712 Y65.6400 I0.1709 J-0.4127
G02 X11.7421 Y65.6060 I0.0000 J-0.4467
G02 X11.8870 Y65.5092 I-0.1709 J-0.4127
G02 X11.9838 Y65.3643 I-0.3158 J-0.3158
G02 X12.0178 Y65.1933 I-0.4127 J-0.1709
G02 X11.3478 Y64.8065 I-0.4467 J0.0000
G02 Y65.5802 I0.2233 J0.3868
G02 X12.0178 Y65.1933 I0.2233 J-0.3868
G02 X11.1712 I-0.4233 J0.0000
G02 X11.9712 I0.4000 J0.0000
G02 X11.3712 Y64.8469 Z-5.4024 I-0.4000 J0.0000 F2400
G02 Y65.5397 Z-5.5619 I0.2000 J0.3464
G02 X11.9712 Y65.1933 Z-5.7214 I0.2000 J-0.3464
G02 X11.3712 Y64.8469 I-0.4000 J0.0000
G02 Y65.5397 I0.2000 J0.3464
G02 X11.9712 Y65.1933 I0.2000 J-0.3464
G02 X11.9754 Y65.0259 I-0.3984 J-0.0938 F1800
G02 X11.8870 Y64.8775 I-0.4162 J0.1473
G02 X11.7421 Y64.7807 I-0.3158 J0.3158
G02 X11.5712 Y64.7467 I-0.1709 J0.4127
G02 X11.4002 Y64.7807 I0.0000 J0.4467
G02 X11.2553 Y64.8775 I0.1709 J0.4127
G02 X11.1585 Y65.0224 I0.3158 J0.3158
G02 X11.1245 Y65.1933 I0.4127 J0.1709
G02 X11.1585 Y65.3643 I0.4467 J0.0000
G02 X11.2553 Y65.5092 I0.4127 J-0.1709
G02 X11.4002 Y65.6060 I0.3158 J-0.3158
G02 X11.5712 Y65.6400 I0.1709 J-0.4127
G02 X11.7421 Y65.6060 I0.0000 J-0.4467
G02 X11.8870 Y65.5092 I-0.1709 J-0.4127
G02 X11.9838 Y65.3643 I-0.3158 J-0.3158
G02 X12.0178 Y65.1933 I-0.4127 J-0.1709
G02 X11.3478 Y64.8065 I-0.4467 J0.0000
G02 Y65.5802 I0.2233 J0.3868
G02 X12.0178 Y65.1933 I0.2233 J-0.3868
G02 X11.1712 I-0.4233 J0.0000
G02 X11.9712 I0.4000 J0.0000
G02 X11.3712 Y64.8469 Z-5.8810 I-0.4000 J0.0000 F2400
G02 Y65.5397 Z-6.0405 I0.2000 J0.3464
G02 X11.9712 Y65.1933 Z-6.2000 I0.2000 J-0.3464
G02 X11.3712 Y64.8469 I-0.4000 J0.0000
G02 Y65.5397 I0.2000 J0.3464
G02 X11.9712 Y65.1933 I0.2000 J-0.3464
G02 X11.9754 Y65.0259 I-0.3984 J-0.0938 F1800
G02 X11.8870 Y64.8775 I-0.4162 J0.1473
G02 X11.7421 Y64.7807 I-0.3158 J0.3158
G02 X11.5712 Y64.7467 I-0.1709 J0.4127
G02 X11.4002 Y64.7807 I0.0000 J0.4467
G02 X11.2553 Y64.8775 I0.1709 J0.4127
G02 X11.1585 Y65.0224 I0.3158 J0.3158
G02 X11.1245 Y65.1933 I0.4127 J0.1709
G02 X11.1585 Y65.3643 I0.4467 J0.0000
G02 X11.2553 Y65.5092 I0.4127 J-0.1709
G02 X11.4002 Y65.6060 I0.3158 J-0.3158
G02 X11.5712 Y65.6400 I0.1709 J-0.4127
G02 X11.7421 Y65.6060 I0.0000 J-0.4467
G02 X11.8870 Y65.5092 I-0.1709 J-0.4127
G02 X11.9838 Y65.3643 I-0.3158 J-0.3158
G02 X12.0178 Y65.1933 I-0.4127 J-0.1709
G02 X11.3478 Y64.8065 I-0.4467 J0.0000
G02 Y65.5802 I0.2233 J0.3868
G02 X12.0178 Y65.1933 I0.2233 J-0.3868
G02 X11.6178 Y64.7933 Z-5.7000 I-0.4000 J0.0000 F2400
G00 Z5.0000


(No. 14: Helical drill 45)
G00 X11.9712 Y61.8067 Z5.0000
G00 Z0.5000
G02 X11.3712 Y61.4603 Z0.3405 I-0.4000 J0.0000 F2400
G02 Y62.1531 Z0.1810 I0.2000 J0.3464
G02 X11.9712 Y61.8067 Z0.0214 I0.2000 J-0.3464
G02 X11.3712 Y61.4603 I-0.4000 J0.0000
G02 Y62.1531 I0.2000 J0.3464
G02 X11.9712 Y61.8067 I0.2000 J-0.3464
G02 X11.9754 Y61.6392 I-0.3984 J-0.0938 F1800
G02 X11.8870 Y61.4908 I-0.4162 J0.1473
G02 X11.7421 Y61.3940 I-0.3158 J0.3158
G02 X11.5712 Y61.3600 I-0.1709 J0.4127
G02 X11.4002 Y61.3940 I0.0000 J0.4467
G02 X11.2553 Y61.4908 I0.1709 J0.4127
G02 X11.1585 Y61.6357 I0.3158 J0.3158
G02 X11.1245 Y61.8067 I0.4127 J0.1709
G02 X11.1585 Y61.9776 I0.4467 J0.0000
G02 X11.2553 Y62.1225 I0.4127 J-0.1709
G02 X11.4002 Y62.2193 I0.3158 J-0.3158
G02 X11.5712 Y62.2533 I0.1709 J-0.4127
G02 X11.7421 Y62.2193 I0.0000 J-0.4467
G02 X11.8870 Y62.1225 I-0.1709 J-0.4127
G02 X11.9838 Y61.9776 I-0.3158 J-0.3158
G02 X12.0178 Y61.8067 I-0.4127 J-0.1709
G02 X11.3478 Y61.4198 I-0.4467 J0.0000
G02 Y62.1935 I0.2233 J0.3868
G02 X12.0178 Y61.8067 I0.2233 J-0.3868
G02 X11.1712 I-0.4233 J0.0000
G02 X11.9712 I0.4000 J0.0000
G02 X11.3712 Y61.4603 Z-0.1381 I-0.4000 J0.0000 F2400
G02 Y62.1531 Z-0.2976 I0.2000 J0.3464
G02 X11.9712 Y61.8067 Z-0.4571 I0.2000 J-0.3464
G02 X11.3712 Y61.4603 I-0.4000 J0.0000
G02 Y62.1531 I0.2000 J0.3464
G02 X11.9712 Y61.8067 I0.2000 J-0.3464
G02 X11.9754 Y61.6392 I-0.3984 J-0.0938 F1800
G02 X11.8870 Y61.4908 I-0.4162 J0.1473
G02 X11.7421 Y61.3940 I-0.3158 J0.3158
G02 X11.5712 Y61.3600 I-0.1709 J0.4127
G02 X11.4002 Y61.3940 I0.0000 J0.4467
G02 X11.2553 Y61.4908 I0.1709 J0.4127
G02 X11.1585 Y61.6357 I0.3158 J0.3158
G02 X11.1245 Y61.8067 I0.4127 J0.1709
G02 X11.1585 Y61.9776 I0.4467 J0.0000
G02 X11.2553 Y62.1225 I0.4127 J-0.1709
G02 X11.4002 Y62.2193 I0.3158 J-0.3158
G02 X11.5712 Y62.2533 I0.1709 J-0.4127
G02 X11.7421 Y62.2193 I0.0000 J-0.4467
G02 X11.8870 Y62.1225 I-0.1709 J-0.4127
G02 X11.9838 Y61.9776 I-0.3158 J-0.3158
G02 X12.0178 Y61.8067 I-0.4127 J-0.1709
G02 X11.3478 Y61.4198 I-0.4467 J0.0000
G02 Y62.1935 I0.2233 J0.3868
G02 X12.0178 Y61.8067 I0.2233 J-0.3868
G02 X11.1712 I-0.4233 J0.0000
G02 X11.9712 I0.4000 J0.0000
G02 X11.3712 Y61.4603 Z-0.6167 I-0.4000 J0.0000 F2400
G02 Y62.1531 Z-0.7762 I0.2000 J0.3464
G02 X11.9712 Y61.8067 Z-0.9357 I0.2000 J-0.3464
G02 X11.3712 Y61.4603 I-0.4000 J0.0000
G02 Y62.1531 I0.2000 J0.3464
G02 X11.9712 Y61.8067 I0.2000 J-0.3464
G02 X11.9754 Y61.6392 I-0.3984 J-0.0938 F1800
G02 X11.8870 Y61.4908 I-0.4162 J0.1473
G02 X11.7421 Y61.3940 I-0.3158 J0.3158
G02 X11.5712 Y61.3600 I-0.1709 J0.4127
G02 X11.4002 Y61.3940 I0.0000 J0.4467
G02 X11.2553 Y61.4908 I0.1709 J0.4127
G02 X11.1585 Y61.6357 I0.3158 J0.3158
G02 X11.1245 Y61.8067 I0.4127 J0.1709
G02 X11.1585 Y61.9776 I0.4467 J0.0000
G02 X11.2553 Y62.1225 I0.4127 J-0.1709
G02 X11.4002 Y62.2193 I0.3158 J-0.3158
G02 X11.5712 Y62.2533 I0.1709 J-0.4127
G02 X11.7421 Y62.2193 I0.0000 J-0.4467
G02 X11.8870 Y62.1225 I-0.1709 J-0.4127
G02 X11.9838 Y61.9776 I-0.3158 J-0.3158
G02 X12.0178 Y61.8067 I-0.4127 J-0.1709
G02 X11.3478 Y61.4198 I-0.4467 J0.0000
G02 Y62.1935 I0.2233 J0.3868
G02 X12.0178 Y61.8067 I0.2233 J-0.3868
G02 X11.1712 I-0.4233 J0.0000
G02 X11.9712 I0.4000 J0.0000
G02 X11.3712 Y61.4603 Z-1.0952 I-0.4000 J0.0000 F2400
G02 Y62.1531 Z-1.2548 I0.2000 J0.3464
G02 X11.9712 Y61.8067 Z-1.4143 I0.2000 J-0.3464
G02 X11.3712 Y61.4603 I-0.4000 J0.0000
G02 Y62.1531 I0.2000 J0.3464
G02 X11.9712 Y61.8067 I0.2000 J-0.3464
G02 X11.9754 Y61.6392 I-0.3984 J-0.0938 F1800
G02 X11.8870 Y61.4908 I-0.4162 J0.1473
G02 X11.7421 Y61.3940 I-0.3158 J0.3158
G02 X11.5712 Y61.3600 I-0.1709 J0.4127
G02 X11.4002 Y61.3940 I0.0000 J0.4467
G02 X11.2553 Y61.4908 I0.1709 J0.4127
G02 X11.1585 Y61.6357 I0.3158 J0.3158
G02 X11.1245 Y61.8067 I0.4127 J0.1709
G02 X11.1585 Y61.9776 I0.4467 J0.0000
G02 X11.2553 Y62.1225 I0.4127 J-0.1709
G02 X11.4002 Y62.2193 I0.3158 J-0.3158
G02 X11.5712 Y62.2533 I0.1709 J-0.4127
G02 X11.7421 Y62.2193 I0.0000 J-0.4467
G02 X11.8870 Y62.1225 I-0.1709 J-0.4127
G02 X11.9838 Y61.9776 I-0.3158 J-0.3158
G02 X12.0178 Y61.8067 I-0.4127 J-0.1709
G02 X11.3478 Y61.4198 I-0.4467 J0.0000
G02 Y62.1935 I0.2233 J0.3868
G02 X12.0178 Y61.8067 I0.2233 J-0.3868
G02 X11.1712 I-0.4233 J0.0000
G02 X11.9712 I0.4000 J0.0000
G02 X11.3712 Y61.4603 Z-1.5738 I-0.4000 J0.0000 F2400
G02 Y62.1531 Z-1.7333 I0.2000 J0.3464
G02 X11.9712 Y61.8067 Z-1.8929 I0.2000 J-0.3464
G02 X11.3712 Y61.4603 I-0.4000 J0.0000
G02 Y62.1531 I0.2000 J0.3464
G02 X11.9712 Y61.8067 I0.2000 J-0.3464
G02 X11.9754 Y61.6392 I-0.3984 J-0.0938 F1800
G02 X11.8870 Y61.4908 I-0.4162 J0.1473
G02 X11.7421 Y61.3940 I-0.3158 J0.3158
G02 X11.5712 Y61.3600 I-0.1709 J0.4127
G02 X11.4002 Y61.3940 I0.0000 J0.4467
G02 X11.2553 Y61.4908 I0.1709 J0.4127
G02 X11.1585 Y61.6357 I0.3158 J0.3158
G02 X11.1245 Y61.8067 I0.4127 J0.1709
G02 X11.1585 Y61.9776 I0.4467 J0.0000
G02 X11.2553 Y62.1225 I0.4127 J-0.1709
G02 X11.4002 Y62.2193 I0.3158 J-0.3158
G02 X11.5712 Y62.2533 I0.1709 J-0.4127
G02 X11.7421 Y62.2193 I0.0000 J-0.4467
G02 X11.8870 Y62.1225 I-0.1709 J-0.4127
G02 X11.9838 Y61.9776 I-0.3158 J-0.3158
G02 X12.0178 Y61.8067 I-0.4127 J-0.1709
G02 X11.3478 Y61.4198 I-0.4467 J0.0000
G02 Y62.1935 I0.2233 J0.3868
G02 X12.0178 Y61.8067 I0.2233 J-0.3868
G02 X11.1712 I-0.4233 J0.0000
G02 X11.9712 I0.4000 J0.0000
G02 X11.3712 Y61.4603 Z-2.0524 I-0.4000 J0.0000 F2400
G02 Y62.1531 Z-2.2119 I0.2000 J0.3464
G02 X11.9712 Y61.8067 Z-2.3714 I0.2000 J-0.3464
G02 X11.3712 Y61.4603 I-0.4000 J0.0000
G02 Y62.1531 I0.2000 J0.3464
G02 X11.9712 Y61.8067 I0.2000 J-0.3464
G02 X11.9754 Y61.6392 I-0.3984 J-0.0938 F1800
G02 X11.8870 Y61.4908 I-0.4162 J0.1473
G02 X11.7421 Y61.3940 I-0.3158 J0.3158
G02 X11.5712 Y61.3600 I-0.1709 J0.4127
G02 X11.4002 Y61.3940 I0.0000 J0.4467
G02 X11.2553 Y61.4908 I0.1709 J0.4127
G02 X11.1585 Y61.6357 I0.3158 J0.3158
G02 X11.1245 Y61.8067 I0.4127 J0.1709
G02 X11.1585 Y61.9776 I0.4467 J0.0000
G02 X11.2553 Y62.1225 I0.4127 J-0.1709
G02 X11.4002 Y62.2193 I0.3158 J-0.3158
G02 X11.5712 Y62.2533 I0.1709 J-0.4127
G02 X11.7421 Y62.2193 I0.0000 J-0.4467
G02 X11.8870 Y62.1225 I-0.1709 J-0.4127
G02 X11.9838 Y61.9776 I-0.3158 J-0.3158
G02 X12.0178 Y61.8067 I-0.4127 J-0.1709
G02 X11.3478 Y61.4198 I-0.4467 J0.0000
G02 Y62.1935 I0.2233 J0.3868
G02 X12.0178 Y61.8067 I0.2233 J-0.3868
G02 X11.1712 I-0.4233 J0.0000
G02 X11.9712 I0.4000 J0.0000
G02 X11.3712 Y61.4603 Z-2.5310 I-0.4000 J0.0000 F2400
G02 Y62.1531 Z-2.6905 I0.2000 J0.3464
G02 X11.9712 Y61.8067 Z-2.8500 I0.2000 J-0.3464
G02 X11.3712 Y61.4603 I-0.4000 J0.0000
G02 Y62.1531 I0.2000 J0.3464
G02 X11.9712 Y61.8067 I0.2000 J-0.3464
G02 X11.9754 Y61.6392 I-0.3984 J-0.0938 F1800
G02 X11.8870 Y61.4908 I-0.4162 J0.1473
G02 X11.7421 Y61.3940 I-0.3158 J0.3158
G02 X11.5712 Y61.3600 I-0.1709 J0.4127
G02 X11.4002 Y61.3940 I0.0000 J0.4467
G02 X11.2553 Y61.4908 I0.1709 J0.4127
G02 X11.1585 Y61.6357 I0.3158 J0.3158
G02 X11.1245 Y61.8067 I0.4127 J0.1709
G02 X11.1585 Y61.9776 I0.4467 J0.0000
G02 X11.2553 Y62.1225 I0.4127 J-0.1709
G02 X11.4002 Y62.2193 I0.3158 J-0.3158
G02 X11.5712 Y62.2533 I0.1709 J-0.4127
G02 X11.7421 Y62.2193 I0.0000 J-0.4467
G02 X11.8870 Y62.1225 I-0.1709 J-0.4127
G02 X11.9838 Y61.9776 I-0.3158 J-0.3158
G02 X12.0178 Y61.8067 I-0.4127 J-0.1709
G02 X11.3478 Y61.4198 I-0.4467 J0.0000
G02 Y62.1935 I0.2233 J0.3868
G02 X12.0178 Y61.8067 I0.2233 J-0.3868
G02 X11.1712 I-0.4233 J0.0000
G02 X11.9712 I0.4000 J0.0000
G02 X11.3712 Y61.4603 Z-3.0095 I-0.4000 J0.0000 F2400
G02 Y62.1531 Z-3.1690 I0.2000 J0.3464
G02 X11.9712 Y61.8067 Z-3.3286 I0.2000 J-0.3464
G02 X11.3712 Y61.4603 I-0.4000 J0.0000
G02 Y62.1531 I0.2000 J0.3464
G02 X11.9712 Y61.8067 I0.2000 J-0.3464
G02 X11.9754 Y61.6392 I-0.3984 J-0.0938 F1800
G02 X11.8870 Y61.4908 I-0.4162 J0.1473
G02 X11.7421 Y61.3940 I-0.3158 J0.3158
G02 X11.5712 Y61.3600 I-0.1709 J0.4127
G02 X11.4002 Y61.3940 I0.0000 J0.4467
G02 X11.2553 Y61.4908 I0.1709 J0.4127
G02 X11.1585 Y61.6357 I0.3158 J0.3158
G02 X11.1245 Y61.8067 I0.4127 J0.1709
G02 X11.1585 Y61.9776 I0.4467 J0.0000
G02 X11.2553 Y62.1225 I0.4127 J-0.1709
G02 X11.4002 Y62.2193 I0.3158 J-0.3158
G02 X11.5712 Y62.2533 I0.1709 J-0.4127
G02 X11.7421 Y62.2193 I0.0000 J-0.4467
G02 X11.8870 Y62.1225 I-0.1709 J-0.4127
G02 X11.9838 Y61.9776 I-0.3158 J-0.3158
G02 X12.0178 Y61.8067 I-0.4127 J-0.1709
G02 X11.3478 Y61.4198 I-0.4467 J0.0000
G02 Y62.1935 I0.2233 J0.3868
G02 X12.0178 Y61.8067 I0.2233 J-0.3868
G02 X11.1712 I-0.4233 J0.0000
G02 X11.9712 I0.4000 J0.0000
G02 X11.3712 Y61.4603 Z-3.4881 I-0.4000 J0.0000 F2400
G02 Y62.1531 Z-3.6476 I0.2000 J0.3464
G02 X11.9712 Y61.8067 Z-3.8071 I0.2000 J-0.3464
G02 X11.3712 Y61.4603 I-0.4000 J0.0000
G02 Y62.1531 I0.2000 J0.3464
G02 X11.9712 Y61.8067 I0.2000 J-0.3464
G02 X11.9754 Y61.6392 I-0.3984 J-0.0938 F1800
G02 X11.8870 Y61.4908 I-0.4162 J0.1473
G02 X11.7421 Y61.3940 I-0.3158 J0.3158
G02 X11.5712 Y61.3600 I-0.1709 J0.4127
G02 X11.4002 Y61.3940 I0.0000 J0.4467
G02 X11.2553 Y61.4908 I0.1709 J0.4127
G02 X11.1585 Y61.6357 I0.3158 J0.3158
G02 X11.1245 Y61.8067 I0.4127 J0.1709
G02 X11.1585 Y61.9776 I0.4467 J0.0000
G02 X11.2553 Y62.1225 I0.4127 J-0.1709
G02 X11.4002 Y62.2193 I0.3158 J-0.3158
G02 X11.5712 Y62.2533 I0.1709 J-0.4127
G02 X11.7421 Y62.2193 I0.0000 J-0.4467
G02 X11.8870 Y62.1225 I-0.1709 J-0.4127
G02 X11.9838 Y61.9776 I-0.3158 J-0.3158
G02 X12.0178 Y61.8067 I-0.4127 J-0.1709
G02 X11.3478 Y61.4198 I-0.4467 J0.0000
G02 Y62.1935 I0.2233 J0.3868
G02 X12.0178 Y61.8067 I0.2233 J-0.3868
G02 X11.1712 I-0.4233 J0.0000
G02 X11.9712 I0.4000 J0.0000
G02 X11.3712 Y61.4603 Z-3.9667 I-0.4000 J0.0000 F2400
G02 Y62.1531 Z-4.1262 I0.2000 J0.3464
G02 X11.9712 Y61.8067 Z-4.2857 I0.2000 J-0.3464
G02 X11.3712 Y61.4603 I-0.4000 J0.0000
G02 Y62.1531 I0.2000 J0.3464
G02 X11.9712 Y61.8067 I0.2000 J-0.3464
G02 X11.9754 Y61.6392 I-0.3984 J-0.0938 F1800
G02 X11.8870 Y61.4908 I-0.4162 J0.1473
G02 X11.7421 Y61.3940 I-0.3158 J0.3158
G02 X11.5712 Y61.3600 I-0.1709 J0.4127
G02 X11.4002 Y61.3940 I0.0000 J0.4467
G02 X11.2553 Y61.4908 I0.1709 J0.4127
G02 X11.1585 Y61.6357 I0.3158 J0.3158
G02 X11.1245 Y61.8067 I0.4127 J0.1709
G02 X11.1585 Y61.9776 I0.4467 J0.0000
G02 X11.2553 Y62.1225 I0.4127 J-0.1709
G02 X11.4002 Y62.2193 I0.3158 J-0.3158
G02 X11.5712 Y62.2533 I0.1709 J-0.4127
G02 X11.7421 Y62.2193 I0.0000 J-0.4467
G02 X11.8870 Y62.1225 I-0.1709 J-0.4127
G02 X11.9838 Y61.9776 I-0.3158 J-0.3158
G02 X12.0178 Y61.8067 I-0.4127 J-0.1709
G02 X11.3478 Y61.4198 I-0.4467 J0.0000
G02 Y62.1935 I0.2233 J0.3868
G02 X12.0178 Y61.8067 I0.2233 J-0.3868
G02 X11.1712 I-0.4233 J0.0000
G02 X11.9712 I0.4000 J0.0000
G02 X11.3712 Y61.4603 Z-4.4452 I-0.4000 J0.0000 F2400
G02 Y62.1531 Z-4.6048 I0.2000 J0.3464
G02 X11.9712 Y61.8067 Z-4.7643 I0.2000 J-0.3464
G02 X11.3712 Y61.4603 I-0.4000 J0.0000
G02 Y62.1531 I0.2000 J0.3464
G02 X11.9712 Y61.8067 I0.2000 J-0.3464
G02 X11.9754 Y61.6392 I-0.3984 J-0.0938 F1800
G02 X11.8870 Y61.4908 I-0.4162 J0.1473
G02 X11.7421 Y61.3940 I-0.3158 J0.3158
G02 X11.5712 Y61.3600 I-0.1709 J0.4127
G02 X11.4002 Y61.3940 I0.0000 J0.4467
G02 X11.2553 Y61.4908 I0.1709 J0.4127
G02 X11.1585 Y61.6357 I0.3158 J0.3158
G02 X11.1245 Y61.8067 I0.4127 J0.1709
G02 X11.1585 Y61.9776 I0.4467 J0.0000
G02 X11.2553 Y62.1225 I0.4127 J-0.1709
G02 X11.4002 Y62.2193 I0.3158 J-0.3158
G02 X11.5712 Y62.2533 I0.1709 J-0.4127
G02 X11.7421 Y62.2193 I0.0000 J-0.4467
G02 X11.8870 Y62.1225 I-0.1709 J-0.4127
G02 X11.9838 Y61.9776 I-0.3158 J-0.3158
G02 X12.0178 Y61.8067 I-0.4127 J-0.1709
G02 X11.3478 Y61.4198 I-0.4467 J0.0000
G02 Y62.1935 I0.2233 J0.3868
G02 X12.0178 Y61.8067 I0.2233 J-0.3868
G02 X11.1712 I-0.4233 J0.0000
G02 X11.9712 I0.4000 J0.0000
G02 X11.3712 Y61.4603 Z-4.9238 I-0.4000 J0.0000 F2400
G02 Y62.1531 Z-5.0833 I0.2000 J0.3464
G02 X11.9712 Y61.8067 Z-5.2429 I0.2000 J-0.3464
G02 X11.3712 Y61.4603 I-0.4000 J0.0000
G02 Y62.1531 I0.2000 J0.3464
G02 X11.9712 Y61.8067 I0.2000 J-0.3464
G02 X11.9754 Y61.6392 I-0.3984 J-0.0938 F1800
G02 X11.8870 Y61.4908 I-0.4162 J0.1473
G02 X11.7421 Y61.3940 I-0.3158 J0.3158
G02 X11.5712 Y61.3600 I-0.1709 J0.4127
G02 X11.4002 Y61.3940 I0.0000 J0.4467
G02 X11.2553 Y61.4908 I0.1709 J0.4127
G02 X11.1585 Y61.6357 I0.3158 J0.3158
G02 X11.1245 Y61.8067 I0.4127 J0.1709
G02 X11.1585 Y61.9776 I0.4467 J0.0000
G02 X11.2553 Y62.1225 I0.4127 J-0.1709
G02 X11.4002 Y62.2193 I0.3158 J-0.3158
G02 X11.5712 Y62.2533 I0.1709 J-0.4127
G02 X11.7421 Y62.2193 I0.0000 J-0.4467
G02 X11.8870 Y62.1225 I-0.1709 J-0.4127
G02 X11.9838 Y61.9776 I-0.3158 J-0.3158
G02 X12.0178 Y61.8067 I-0.4127 J-0.1709
G02 X11.3478 Y61.4198 I-0.4467 J0.0000
G02 Y62.1935 I0.2233 J0.3868
G02 X12.0178 Y61.8067 I0.2233 J-0.3868
G02 X11.1712 I-0.4233 J0.0000
G02 X11.9712 I0.4000 J0.0000
G02 X11.3712 Y61.4603 Z-5.4024 I-0.4000 J0.0000 F2400
G02 Y62.1531 Z-5.5619 I0.2000 J0.3464
G02 X11.9712 Y61.8067 Z-5.7214 I0.2000 J-0.3464
G02 X11.3712 Y61.4603 I-0.4000 J0.0000
G02 Y62.1531 I0.2000 J0.3464
G02 X11.9712 Y61.8067 I0.2000 J-0.3464
G02 X11.9754 Y61.6392 I-0.3984 J-0.0938 F1800
G02 X11.8870 Y61.4908 I-0.4162 J0.1473
G02 X11.7421 Y61.3940 I-0.3158 J0.3158
G02 X11.5712 Y61.3600 I-0.1709 J0.4127
G02 X11.4002 Y61.3940 I0.0000 J0.4467
G02 X11.2553 Y61.4908 I0.1709 J0.4127
G02 X11.1585 Y61.6357 I0.3158 J0.3158
G02 X11.1245 Y61.8067 I0.4127 J0.1709
G02 X11.1585 Y61.9776 I0.4467 J0.0000
G02 X11.2553 Y62.1225 I0.4127 J-0.1709
G02 X11.4002 Y62.2193 I0.3158 J-0.3158
G02 X11.5712 Y62.2533 I0.1709 J-0.4127
G02 X11.7421 Y62.2193 I0.0000 J-0.4467
G02 X11.8870 Y62.1225 I-0.1709 J-0.4127
G02 X11.9838 Y61.9776 I-0.3158 J-0.3158
G02 X12.0178 Y61.8067 I-0.4127 J-0.1709
G02 X11.3478 Y61.4198 I-0.4467 J0.0000
G02 Y62.1935 I0.2233 J0.3868
G02 X12.0178 Y61.8067 I0.2233 J-0.3868
G02 X11.1712 I-0.4233 J0.0000
G02 X11.9712 I0.4000 J0.0000
G02 X11.3712 Y61.4603 Z-5.8810 I-0.4000 J0.0000 F2400
G02 Y62.1531 Z-6.0405 I0.2000 J0.3464
G02 X11.9712 Y61.8067 Z-6.2000 I0.2000 J-0.3464
G02 X11.3712 Y61.4603 I-0.4000 J0.0000
G02 Y62.1531 I0.2000 J0.3464
G02 X11.9712 Y61.8067 I0.2000 J-0.3464
G02 X11.9754 Y61.6392 I-0.3984 J-0.0938 F1800
G02 X11.8870 Y61.4908 I-0.4162 J0.1473
G02 X11.7421 Y61.3940 I-0.3158 J0.3158
G02 X11.5712 Y61.3600 I-0.1709 J0.4127
G02 X11.4002 Y61.3940 I0.0000 J0.4467
G02 X11.2553 Y61.4908 I0.1709 J0.4127
G02 X11.1585 Y61.6357 I0.3158 J0.3158
G02 X11.1245 Y61.8067 I0.4127 J0.1709
G02 X11.1585 Y61.9776 I0.4467 J0.0000
G02 X11.2553 Y62.1225 I0.4127 J-0.1709
G02 X11.4002 Y62.2193 I0.3158 J-0.3158
G02 X11.5712 Y62.2533 I0.1709 J-0.4127
G02 X11.7421 Y62.2193 I0.0000 J-0.4467
G02 X11.8870 Y62.1225 I-0.1709 J-0.4127
G02 X11.9838 Y61.9776 I-0.3158 J-0.3158
G02 X12.0178 Y61.8067 I-0.4127 J-0.1709
G02 X11.3478 Y61.4198 I-0.4467 J0.0000
G02 Y62.1935 I0.2233 J0.3868
G02 X12.0178 Y61.8067 I0.2233 J-0.3868
G02 X11.6178 Y61.4067 Z-5.7000 I-0.4000 J0.0000 F2400
G00 Z5.0000


(No. 15: Helical drill 60)
G00 X11.9712 Y58.4200 Z5.0000
G00 Z0.5000
G02 X11.3712 Y58.0736 Z0.3405 I-0.4000 J0.0000 F2400
G02 Y58.7665 Z0.1810 I0.2000 J0.3464
G02 X11.9712 Y58.4200 Z0.0214 I0.2000 J-0.3464
G02 X11.3712 Y58.0736 I-0.4000 J0.0000
G02 Y58.7665 I0.2000 J0.3464
G02 X11.9712 Y58.4200 I0.2000 J-0.3464
G02 X11.9754 Y58.2526 I-0.3984 J-0.0938 F1800
G02 X11.8870 Y58.1042 I-0.4161 J0.1474
G02 X11.7421 Y58.0074 I-0.3158 J0.3158
G02 X11.5712 Y57.9734 I-0.1709 J0.4126
G02 X11.4003 Y58.0074 I0.0000 J0.4466
G02 X11.2554 Y58.1042 I0.1709 J0.4126
G02 X11.1586 Y58.2491 I0.3158 J0.3158
G02 X11.1246 Y58.4200 I0.4126 J0.1709
G02 X11.1586 Y58.5909 I0.4466 J0.0000
G02 X11.2554 Y58.7358 I0.4126 J-0.1709
G02 X11.4003 Y58.8326 I0.3158 J-0.3158
G02 X11.5712 Y58.8666 I0.1709 J-0.4126
G02 X11.7421 Y58.8326 I0.0000 J-0.4466
G02 X11.8870 Y58.7358 I-0.1709 J-0.4126
G02 X11.9838 Y58.5909 I-0.3158 J-0.3158
G02 X12.0178 Y58.4200 I-0.4126 J-0.1709
G02 X11.3479 Y58.0333 I-0.4466 J0.0000
G02 Y58.8068 I0.2233 J0.3868
G02 X12.0178 Y58.4200 I0.2233 J-0.3868
G02 X11.1712 I-0.4233 J0.0000
G02 X11.9712 I0.4000 J0.0000
G02 X11.3712 Y58.0736 Z-0.1381 I-0.4000 J0.0000 F2400
G02 Y58.7665 Z-0.2976 I0.2000 J0.3464
G02 X11.9712 Y58.4200 Z-0.4571 I0.2000 J-0.3464
G02 X11.3712 Y58.0736 I-0.4000 J0.0000
G02 Y58.7665 I0.2000 J0.3464
G02 X11.9712 Y58.4200 I0.2000 J-0.3464
G02 X11.9754 Y58.2526 I-0.3984 J-0.0938 F1800
G02 X11.8870 Y58.1042 I-0.4161 J0.1474
G02 X11.7421 Y58.0074 I-0.3158 J0.3158
G02 X11.5712 Y57.9734 I-0.1709 J0.4126
G02 X11.4003 Y58.0074 I0.0000 J0.4466
G02 X11.2554 Y58.1042 I0.1709 J0.4126
G02 X11.1586 Y58.2491 I0.3158 J0.3158
G02 X11.1246 Y58.4200 I0.4126 J0.1709
G02 X11.1586 Y58.5909 I0.4466 J0.0000
G02 X11.2554 Y58.7358 I0.4126 J-0.1709
G02 X11.4003 Y58.8326 I0.3158 J-0.3158
G02 X11.5712 Y58.8666 I0.1709 J-0.4126
G02 X11.7421 Y58.8326 I0.0000 J-0.4466
G02 X11.8870 Y58.7358 I-0.1709 J-0.4126
G02 X11.9838 Y58.5909 I-0.3158 J-0.3158
G02 X12.0178 Y58.4200 I-0.4126 J-0.1709
G02 X11.3479 Y58.0333 I-0.4466 J0.0000
G02 Y58.8068 I0.2233 J0.3868
G02 X12.0178 Y58.4200 I0.2233 J-0.3868
G02 X11.1712 I-0.4233 J0.0000
G02 X11.9712 I0.4000 J0.0000
G02 X11.3712 Y58.0736 Z-0.6167 I-0.4000 J0.0000 F2400
G02 Y58.7665 Z-0.7762 I0.2000 J0.3464
G02 X11.9712 Y58.4200 Z-0.9357 I0.2000 J-0.3464
G02 X11.3712 Y58.0736 I-0.4000 J0.0000
G02 Y58.7665 I0.2000 J0.3464
G02 X11.9712 Y58.4200 I0.2000 J-0.3464
G02 X11.9754 Y58.2526 I-0.3984 J-0.0938 F1800
G02 X11.8870 Y58.1042 I-0.4161 J0.1474
G02 X11.7421 Y58.0074 I-0.3158 J0.3158
G02 X11.5712 Y57.9734 I-0.1709 J0.4126
G02 X11.4003 Y58.0074 I0.0000 J0.4466
G02 X11.2554 Y58.1042 I0.1709 J0.4126
G02 X11.1586 Y58.2491 I0.3158 J0.3158
G02 X11.1246 Y58.4200 I0.4126 J0.1709
G02 X11.1586 Y58.5909 I0.4466 J0.0000
G02 X11.2554 Y58.7358 I0.4126 J-0.1709
G02 X11.4003 Y58.8326 I0.3158 J-0.3158
G02 X11.5712 Y58.8666 I0.1709 J-0.4126
G02 X11.7421 Y58.8326 I0.0000 J-0.4466
G02 X11.8870 Y58.7358 I-0.1709 J-0.4126
G02 X11.9838 Y58.5909 I-0.3158 J-0.3158
G02 X12.0178 Y58.4200 I-0.4126 J-0.1709
G02 X11.3479 Y58.0333 I-0.4466 J0.0000
G02 Y58.8068 I0.2233 J0.3868
G02 X12.0178 Y58.4200 I0.2233 J-0.3868
G02 X11.1712 I-0.4233 J0.0000
G02 X11.9712 I0.4000 J0.0000
G02 X11.3712 Y58.0736 Z-1.0952 I-0.4000 J0.0000 F2400
G02 Y58.7665 Z-1.2548 I0.2000 J0.3464
G02 X11.9712 Y58.4200 Z-1.4143 I0.2000 J-0.3464
G02 X11.3712 Y58.0736 I-0.4000 J0.0000
G02 Y58.7665 I0.2000 J0.3464
G02 X11.9712 Y58.4200 I0.2000 J-0.3464
G02 X11.9754 Y58.2526 I-0.3984 J-0.0938 F1800
G02 X11.8870 Y58.1042 I-0.4161 J0.1474
G02 X11.7421 Y58.0074 I-0.3158 J0.3158
G02 X11.5712 Y57.9734 I-0.1709 J0.4126
G02 X11.4003 Y58.0074 I0.0000 J0.4466
G02 X11.2554 Y58.1042 I0.1709 J0.4126
G02 X11.1586 Y58.2491 I0.3158 J0.3158
G02 X11.1246 Y58.4200 I0.4126 J0.1709
G02 X11.1586 Y58.5909 I0.4466 J0.0000
G02 X11.2554 Y58.7358 I0.4126 J-0.1709
G02 X11.4003 Y58.8326 I0.3158 J-0.3158
G02 X11.5712 Y58.8666 I0.1709 J-0.4126
G02 X11.7421 Y58.8326 I0.0000 J-0.4466
G02 X11.8870 Y58.7358 I-0.1709 J-0.4126
G02 X11.9838 Y58.5909 I-0.3158 J-0.3158
G02 X12.0178 Y58.4200 I-0.4126 J-0.1709
G02 X11.3479 Y58.0333 I-0.4466 J0.0000
G02 Y58.8068 I0.2233 J0.3868
G02 X12.0178 Y58.4200 I0.2233 J-0.3868
G02 X11.1712 I-0.4233 J0.0000
G02 X11.9712 I0.4000 J0.0000
G02 X11.3712 Y58.0736 Z-1.5738 I-0.4000 J0.0000 F2400
G02 Y58.7665 Z-1.7333 I0.2000 J0.3464
G02 X11.9712 Y58.4200 Z-1.8929 I0.2000 J-0.3464
G02 X11.3712 Y58.0736 I-0.4000 J0.0000
G02 Y58.7665 I0.2000 J0.3464
G02 X11.9712 Y58.4200 I0.2000 J-0.3464
G02 X11.9754 Y58.2526 I-0.3984 J-0.0938 F1800
G02 X11.8870 Y58.1042 I-0.4161 J0.1474
G02 X11.7421 Y58.0074 I-0.3158 J0.3158
G02 X11.5712 Y57.9734 I-0.1709 J0.4126
G02 X11.4003 Y58.0074 I0.0000 J0.4466
G02 X11.2554 Y58.1042 I0.1709 J0.4126
G02 X11.1586 Y58.2491 I0.3158 J0.3158
G02 X11.1246 Y58.4200 I0.4126 J0.1709
G02 X11.1586 Y58.5909 I0.4466 J0.0000
G02 X11.2554 Y58.7358 I0.4126 J-0.1709
G02 X11.4003 Y58.8326 I0.3158 J-0.3158
G02 X11.5712 Y58.8666 I0.1709 J-0.4126
G02 X11.7421 Y58.8326 I0.0000 J-0.4466
G02 X11.8870 Y58.7358 I-0.1709 J-0.4126
G02 X11.9838 Y58.5909 I-0.3158 J-0.3158
G02 X12.0178 Y58.4200 I-0.4126 J-0.1709
G02 X11.3479 Y58.0333 I-0.4466 J0.0000
G02 Y58.8068 I0.2233 J0.3868
G02 X12.0178 Y58.4200 I0.2233 J-0.3868
G02 X11.1712 I-0.4233 J0.0000
G02 X11.9712 I0.4000 J0.0000
G02 X11.3712 Y58.0736 Z-2.0524 I-0.4000 J0.0000 F2400
G02 Y58.7665 Z-2.2119 I0.2000 J0.3464
G02 X11.9712 Y58.4200 Z-2.3714 I0.2000 J-0.3464
G02 X11.3712 Y58.0736 I-0.4000 J0.0000
G02 Y58.7665 I0.2000 J0.3464
G02 X11.9712 Y58.4200 I0.2000 J-0.3464
G02 X11.9754 Y58.2526 I-0.3984 J-0.0938 F1800
G02 X11.8870 Y58.1042 I-0.4161 J0.1474
G02 X11.7421 Y58.0074 I-0.3158 J0.3158
G02 X11.5712 Y57.9734 I-0.1709 J0.4126
G02 X11.4003 Y58.0074 I0.0000 J0.4466
G02 X11.2554 Y58.1042 I0.1709 J0.4126
G02 X11.1586 Y58.2491 I0.3158 J0.3158
G02 X11.1246 Y58.4200 I0.4126 J0.1709
G02 X11.1586 Y58.5909 I0.4466 J0.0000
G02 X11.2554 Y58.7358 I0.4126 J-0.1709
G02 X11.4003 Y58.8326 I0.3158 J-0.3158
G02 X11.5712 Y58.8666 I0.1709 J-0.4126
G02 X11.7421 Y58.8326 I0.0000 J-0.4466
G02 X11.8870 Y58.7358 I-0.1709 J-0.4126
G02 X11.9838 Y58.5909 I-0.3158 J-0.3158
G02 X12.0178 Y58.4200 I-0.4126 J-0.1709
G02 X11.3479 Y58.0333 I-0.4466 J0.0000
G02 Y58.8068 I0.2233 J0.3868
G02 X12.0178 Y58.4200 I0.2233 J-0.3868
G02 X11.1712 I-0.4233 J0.0000
G02 X11.9712 I0.4000 J0.0000
G02 X11.3712 Y58.0736 Z-2.5310 I-0.4000 J0.0000 F2400
G02 Y58.7665 Z-2.6905 I0.2000 J0.3464
G02 X11.9712 Y58.4200 Z-2.8500 I0.2000 J-0.3464
G02 X11.3712 Y58.0736 I-0.4000 J0.0000
G02 Y58.7665 I0.2000 J0.3464
G02 X11.9712 Y58.4200 I0.2000 J-0.3464
G02 X11.9754 Y58.2526 I-0.3984 J-0.0938 F1800
G02 X11.8870 Y58.1042 I-0.4161 J0.1474
G02 X11.7421 Y58.0074 I-0.3158 J0.3158
G02 X11.5712 Y57.9734 I-0.1709 J0.4126
G02 X11.4003 Y58.0074 I0.0000 J0.4466
G02 X11.2554 Y58.1042 I0.1709 J0.4126
G02 X11.1586 Y58.2491 I0.3158 J0.3158
G02 X11.1246 Y58.4200 I0.4126 J0.1709
G02 X11.1586 Y58.5909 I0.4466 J0.0000
G02 X11.2554 Y58.7358 I0.4126 J-0.1709
G02 X11.4003 Y58.8326 I0.3158 J-0.3158
G02 X11.5712 Y58.8666 I0.1709 J-0.4126
G02 X11.7421 Y58.8326 I0.0000 J-0.4466
G02 X11.8870 Y58.7358 I-0.1709 J-0.4126
G02 X11.9838 Y58.5909 I-0.3158 J-0.3158
G02 X12.0178 Y58.4200 I-0.4126 J-0.1709
G02 X11.3479 Y58.0333 I-0.4466 J0.0000
G02 Y58.8068 I0.2233 J0.3868
G02 X12.0178 Y58.4200 I0.2233 J-0.3868
G02 X11.1712 I-0.4233 J0.0000
G02 X11.9712 I0.4000 J0.0000
G02 X11.3712 Y58.0736 Z-3.0095 I-0.4000 J0.0000 F2400
G02 Y58.7665 Z-3.1690 I0.2000 J0.3464
G02 X11.9712 Y58.4200 Z-3.3286 I0.2000 J-0.3464
G02 X11.3712 Y58.0736 I-0.4000 J0.0000
G02 Y58.7665 I0.2000 J0.3464
G02 X11.9712 Y58.4200 I0.2000 J-0.3464
G02 X11.9754 Y58.2526 I-0.3984 J-0.0938 F1800
G02 X11.8870 Y58.1042 I-0.4161 J0.1474
G02 X11.7421 Y58.0074 I-0.3158 J0.3158
G02 X11.5712 Y57.9734 I-0.1709 J0.4126
G02 X11.4003 Y58.0074 I0.0000 J0.4466
G02 X11.2554 Y58.1042 I0.1709 J0.4126
G02 X11.1586 Y58.2491 I0.3158 J0.3158
G02 X11.1246 Y58.4200 I0.4126 J0.1709
G02 X11.1586 Y58.5909 I0.4466 J0.0000
G02 X11.2554 Y58.7358 I0.4126 J-0.1709
G02 X11.4003 Y58.8326 I0.3158 J-0.3158
G02 X11.5712 Y58.8666 I0.1709 J-0.4126
G02 X11.7421 Y58.8326 I0.0000 J-0.4466
G02 X11.8870 Y58.7358 I-0.1709 J-0.4126
G02 X11.9838 Y58.5909 I-0.3158 J-0.3158
G02 X12.0178 Y58.4200 I-0.4126 J-0.1709
G02 X11.3479 Y58.0333 I-0.4466 J0.0000
G02 Y58.8068 I0.2233 J0.3868
G02 X12.0178 Y58.4200 I0.2233 J-0.3868
G02 X11.1712 I-0.4233 J0.0000
G02 X11.9712 I0.4000 J0.0000
G02 X11.3712 Y58.0736 Z-3.4881 I-0.4000 J0.0000 F2400
G02 Y58.7665 Z-3.6476 I0.2000 J0.3464
G02 X11.9712 Y58.4200 Z-3.8071 I0.2000 J-0.3464
G02 X11.3712 Y58.0736 I-0.4000 J0.0000
G02 Y58.7665 I0.2000 J0.3464
G02 X11.9712 Y58.4200 I0.2000 J-0.3464
G02 X11.9754 Y58.2526 I-0.3984 J-0.0938 F1800
G02 X11.8870 Y58.1042 I-0.4161 J0.1474
G02 X11.7421 Y58.0074 I-0.3158 J0.3158
G02 X11.5712 Y57.9734 I-0.1709 J0.4126
G02 X11.4003 Y58.0074 I0.0000 J0.4466
G02 X11.2554 Y58.1042 I0.1709 J0.4126
G02 X11.1586 Y58.2491 I0.3158 J0.3158
G02 X11.1246 Y58.4200 I0.4126 J0.1709
G02 X11.1586 Y58.5909 I0.4466 J0.0000
G02 X11.2554 Y58.7358 I0.4126 J-0.1709
G02 X11.4003 Y58.8326 I0.3158 J-0.3158
G02 X11.5712 Y58.8666 I0.1709 J-0.4126
G02 X11.7421 Y58.8326 I0.0000 J-0.4466
G02 X11.8870 Y58.7358 I-0.1709 J-0.4126
G02 X11.9838 Y58.5909 I-0.3158 J-0.3158
G02 X12.0178 Y58.4200 I-0.4126 J-0.1709
G02 X11.3479 Y58.0333 I-0.4466 J0.0000
G02 Y58.8068 I0.2233 J0.3868
G02 X12.0178 Y58.4200 I0.2233 J-0.3868
G02 X11.1712 I-0.4233 J0.0000
G02 X11.9712 I0.4000 J0.0000
G02 X11.3712 Y58.0736 Z-3.9667 I-0.4000 J0.0000 F2400
G02 Y58.7665 Z-4.1262 I0.2000 J0.3464
G02 X11.9712 Y58.4200 Z-4.2857 I0.2000 J-0.3464
G02 X11.3712 Y58.0736 I-0.4000 J0.0000
G02 Y58.7665 I0.2000 J0.3464
G02 X11.9712 Y58.4200 I0.2000 J-0.3464
G02 X11.9754 Y58.2526 I-0.3984 J-0.0938 F1800
G02 X11.8870 Y58.1042 I-0.4161 J0.1474
G02 X11.7421 Y58.0074 I-0.3158 J0.3158
G02 X11.5712 Y57.9734 I-0.1709 J0.4126
G02 X11.4003 Y58.0074 I0.0000 J0.4466
G02 X11.2554 Y58.1042 I0.1709 J0.4126
G02 X11.1586 Y58.2491 I0.3158 J0.3158
G02 X11.1246 Y58.4200 I0.4126 J0.1709
G02 X11.1586 Y58.5909 I0.4466 J0.0000
G02 X11.2554 Y58.7358 I0.4126 J-0.1709
G02 X11.4003 Y58.8326 I0.3158 J-0.3158
G02 X11.5712 Y58.8666 I0.1709 J-0.4126
G02 X11.7421 Y58.8326 I0.0000 J-0.4466
G02 X11.8870 Y58.7358 I-0.1709 J-0.4126
G02 X11.9838 Y58.5909 I-0.3158 J-0.3158
G02 X12.0178 Y58.4200 I-0.4126 J-0.1709
G02 X11.3479 Y58.0333 I-0.4466 J0.0000
G02 Y58.8068 I0.2233 J0.3868
G02 X12.0178 Y58.4200 I0.2233 J-0.3868
G02 X11.1712 I-0.4233 J0.0000
G02 X11.9712 I0.4000 J0.0000
G02 X11.3712 Y58.0736 Z-4.4452 I-0.4000 J0.0000 F2400
G02 Y58.7665 Z-4.6048 I0.2000 J0.3464
G02 X11.9712 Y58.4200 Z-4.7643 I0.2000 J-0.3464
G02 X11.3712 Y58.0736 I-0.4000 J0.0000
G02 Y58.7665 I0.2000 J0.3464
G02 X11.9712 Y58.4200 I0.2000 J-0.3464
G02 X11.9754 Y58.2526 I-0.3984 J-0.0938 F1800
G02 X11.8870 Y58.1042 I-0.4161 J0.1474
G02 X11.7421 Y58.0074 I-0.3158 J0.3158
G02 X11.5712 Y57.9734 I-0.1709 J0.4126
G02 X11.4003 Y58.0074 I0.0000 J0.4466
G02 X11.2554 Y58.1042 I0.1709 J0.4126
G02 X11.1586 Y58.2491 I0.3158 J0.3158
G02 X11.1246 Y58.4200 I0.4126 J0.1709
G02 X11.1586 Y58.5909 I0.4466 J0.0000
G02 X11.2554 Y58.7358 I0.4126 J-0.1709
G02 X11.4003 Y58.8326 I0.3158 J-0.3158
G02 X11.5712 Y58.8666 I0.1709 J-0.4126
G02 X11.7421 Y58.8326 I0.0000 J-0.4466
G02 X11.8870 Y58.7358 I-0.1709 J-0.4126
G02 X11.9838 Y58.5909 I-0.3158 J-0.3158
G02 X12.0178 Y58.4200 I-0.4126 J-0.1709
G02 X11.3479 Y58.0333 I-0.4466 J0.0000
G02 Y58.8068 I0.2233 J0.3868
G02 X12.0178 Y58.4200 I0.2233 J-0.3868
G02 X11.1712 I-0.4233 J0.0000
G02 X11.9712 I0.4000 J0.0000
G02 X11.3712 Y58.0736 Z-4.9238 I-0.4000 J0.0000 F2400
G02 Y58.7665 Z-5.0833 I0.2000 J0.3464
G02 X11.9712 Y58.4200 Z-5.2429 I0.2000 J-0.3464
G02 X11.3712 Y58.0736 I-0.4000 J0.0000
G02 Y58.7665 I0.2000 J0.3464
G02 X11.9712 Y58.4200 I0.2000 J-0.3464
G02 X11.9754 Y58.2526 I-0.3984 J-0.0938 F1800
G02 X11.8870 Y58.1042 I-0.4161 J0.1474
G02 X11.7421 Y58.0074 I-0.3158 J0.3158
G02 X11.5712 Y57.9734 I-0.1709 J0.4126
G02 X11.4003 Y58.0074 I0.0000 J0.4466
G02 X11.2554 Y58.1042 I0.1709 J0.4126
G02 X11.1586 Y58.2491 I0.3158 J0.3158
G02 X11.1246 Y58.4200 I0.4126 J0.1709
G02 X11.1586 Y58.5909 I0.4466 J0.0000
G02 X11.2554 Y58.7358 I0.4126 J-0.1709
G02 X11.4003 Y58.8326 I0.3158 J-0.3158
G02 X11.5712 Y58.8666 I0.1709 J-0.4126
G02 X11.7421 Y58.8326 I0.0000 J-0.4466
G02 X11.8870 Y58.7358 I-0.1709 J-0.4126
G02 X11.9838 Y58.5909 I-0.3158 J-0.3158
G02 X12.0178 Y58.4200 I-0.4126 J-0.1709
G02 X11.3479 Y58.0333 I-0.4466 J0.0000
G02 Y58.8068 I0.2233 J0.3868
G02 X12.0178 Y58.4200 I0.2233 J-0.3868
G02 X11.1712 I-0.4233 J0.0000
G02 X11.9712 I0.4000 J0.0000
G02 X11.3712 Y58.0736 Z-5.4024 I-0.4000 J0.0000 F2400
G02 Y58.7665 Z-5.5619 I0.2000 J0.3464
G02 X11.9712 Y58.4200 Z-5.7214 I0.2000 J-0.3464
G02 X11.3712 Y58.0736 I-0.4000 J0.0000
G02 Y58.7665 I0.2000 J0.3464
G02 X11.9712 Y58.4200 I0.2000 J-0.3464
G02 X11.9754 Y58.2526 I-0.3984 J-0.0938 F1800
G02 X11.8870 Y58.1042 I-0.4161 J0.1474
G02 X11.7421 Y58.0074 I-0.3158 J0.3158
G02 X11.5712 Y57.9734 I-0.1709 J0.4126
G02 X11.4003 Y58.0074 I0.0000 J0.4466
G02 X11.2554 Y58.1042 I0.1709 J0.4126
G02 X11.1586 Y58.2491 I0.3158 J0.3158
G02 X11.1246 Y58.4200 I0.4126 J0.1709
G02 X11.1586 Y58.5909 I0.4466 J0.0000
G02 X11.2554 Y58.7358 I0.4126 J-0.1709
G02 X11.4003 Y58.8326 I0.3158 J-0.3158
G02 X11.5712 Y58.8666 I0.1709 J-0.4126
G02 X11.7421 Y58.8326 I0.0000 J-0.4466
G02 X11.8870 Y58.7358 I-0.1709 J-0.4126
G02 X11.9838 Y58.5909 I-0.3158 J-0.3158
G02 X12.0178 Y58.4200 I-0.4126 J-0.1709
G02 X11.3479 Y58.0333 I-0.4466 J0.0000
G02 Y58.8068 I0.2233 J0.3868
G02 X12.0178 Y58.4200 I0.2233 J-0.3868
G02 X11.1712 I-0.4233 J0.0000
G02 X11.9712 I0.4000 J0.0000
G02 X11.3712 Y58.0736 Z-5.8810 I-0.4000 J0.0000 F2400
G02 Y58.7665 Z-6.0405 I0.2000 J0.3464
G02 X11.9712 Y58.4200 Z-6.2000 I0.2000 J-0.3464
G02 X11.3712 Y58.0736 I-0.4000 J0.0000
G02 Y58.7665 I0.2000 J0.3464
G02 X11.9712 Y58.4200 I0.2000 J-0.3464
G02 X11.9754 Y58.2526 I-0.3984 J-0.0938 F1800
G02 X11.8870 Y58.1042 I-0.4161 J0.1474
G02 X11.7421 Y58.0074 I-0.3158 J0.3158
G02 X11.5712 Y57.9734 I-0.1709 J0.4126
G02 X11.4003 Y58.0074 I0.0000 J0.4466
G02 X11.2554 Y58.1042 I0.1709 J0.4126
G02 X11.1586 Y58.2491 I0.3158 J0.3158
G02 X11.1246 Y58.4200 I0.4126 J0.1709
G02 X11.1586 Y58.5909 I0.4466 J0.0000
G02 X11.2554 Y58.7358 I0.4126 J-0.1709
G02 X11.4003 Y58.8326 I0.3158 J-0.3158
G02 X11.5712 Y58.8666 I0.1709 J-0.4126
G02 X11.7421 Y58.8326 I0.0000 J-0.4466
G02 X11.8870 Y58.7358 I-0.1709 J-0.4126
G02 X11.9838 Y58.5909 I-0.3158 J-0.3158
G02 X12.0178 Y58.4200 I-0.4126 J-0.1709
G02 X11.3479 Y58.0333 I-0.4466 J0.0000
G02 Y58.8068 I0.2233 J0.3868
G02 X12.0178 Y58.4200 I0.2233 J-0.3868
G02 X11.6178 Y58.0200 Z-5.7000 I-0.4000 J0.0000 F2400
G00 Z5.0000


(No. 16: Helical drill 69)
G00 X11.9712 Y55.0334 Z5.0000
G00 Z0.5000
G02 X11.3712 Y54.6870 Z0.3405 I-0.4000 J0.0000 F2400
G02 Y55.3798 Z0.1810 I0.2000 J0.3464
G02 X11.9712 Y55.0334 Z0.0214 I0.2000 J-0.3464
G02 X11.3712 Y54.6870 I-0.4000 J0.0000
G02 Y55.3798 I0.2000 J0.3464
G02 X11.9712 Y55.0334 I0.2000 J-0.3464
G02 X11.9754 Y54.8660 I-0.3984 J-0.0938 F1800
G02 X11.8870 Y54.7176 I-0.4161 J0.1473
G02 X11.7421 Y54.6208 I-0.3158 J0.3158
G02 X11.5712 Y54.5868 I-0.1709 J0.4126
G02 X11.4003 Y54.6208 I0.0000 J0.4466
G02 X11.2554 Y54.7176 I0.1709 J0.4126
G02 X11.1585 Y54.8625 I0.3158 J0.3158
G02 X11.1245 Y55.0334 I0.4126 J0.1709
G02 X11.1585 Y55.2043 I0.4466 J0.0000
G02 X11.2554 Y55.3492 I0.4126 J-0.1709
G02 X11.4003 Y55.4460 I0.3158 J-0.3158
G02 X11.5712 Y55.4800 I0.1709 J-0.4126
G02 X11.7421 Y55.4460 I0.0000 J-0.4466
G02 X11.8870 Y55.3492 I-0.1709 J-0.4126
G02 X11.9838 Y55.2043 I-0.3158 J-0.3158
G02 X12.0178 Y55.0334 I-0.4126 J-0.1709
G02 X11.3479 Y54.6466 I-0.4466 J0.0000
G02 Y55.4202 I0.2233 J0.3868
G02 X12.0178 Y55.0334 I0.2233 J-0.3868
G02 X11.1712 I-0.4233 J0.0000
G02 X11.9712 I0.4000 J0.0000
G02 X11.3712 Y54.6870 Z-0.1381 I-0.4000 J0.0000 F2400
G02 Y55.3798 Z-0.2976 I0.2000 J0.3464
G02 X11.9712 Y55.0334 Z-0.4571 I0.2000 J-0.3464
G02 X11.3712 Y54.6870 I-0.4000 J0.0000
G02 Y55.3798 I0.2000 J0.3464
G02 X11.9712 Y55.0334 I0.2000 J-0.3464
G02 X11.9754 Y54.8660 I-0.3984 J-0.0938 F1800
G02 X11.8870 Y54.7176 I-0.4161 J0.1473
G02 X11.7421 Y54.6208 I-0.3158 J0.3158
G02 X11.5712 Y54.5868 I-0.1709 J0.4126
G02 X11.4003 Y54.6208 I0.0000 J0.4466
G02 X11.2554 Y54.7176 I0.1709 J0.4126
G02 X11.1585 Y54.8625 I0.3158 J0.3158
G02 X11.1245 Y55.0334 I0.4126 J0.1709
G02 X11.1585 Y55.2043 I0.4466 J0.0000
G02 X11.2554 Y55.3492 I0.4126 J-0.1709
G02 X11.4003 Y55.4460 I0.3158 J-0.3158
G02 X11.5712 Y55.4800 I0.1709 J-0.4126
G02 X11.7421 Y55.4460 I0.0000 J-0.4466
G02 X11.8870 Y55.3492 I-0.1709 J-0.4126
G02 X11.9838 Y55.2043 I-0.3158 J-0.3158
G02 X12.0178 Y55.0334 I-0.4126 J-0.1709
G02 X11.3479 Y54.6466 I-0.4466 J0.0000
G02 Y55.4202 I0.2233 J0.3868
G02 X12.0178 Y55.0334 I0.2233 J-0.3868
G02 X11.1712 I-0.4233 J0.0000
G02 X11.9712 I0.4000 J0.0000
G02 X11.3712 Y54.6870 Z-0.6167 I-0.4000 J0.0000 F2400
G02 Y55.3798 Z-0.7762 I0.2000 J0.3464
G02 X11.9712 Y55.0334 Z-0.9357 I0.2000 J-0.3464
G02 X11.3712 Y54.6870 I-0.4000 J0.0000
G02 Y55.3798 I0.2000 J0.3464
G02 X11.9712 Y55.0334 I0.2000 J-0.3464
G02 X11.9754 Y54.8660 I-0.3984 J-0.0938 F1800
G02 X11.8870 Y54.7176 I-0.4161 J0.1473
G02 X11.7421 Y54.6208 I-0.3158 J0.3158
G02 X11.5712 Y54.5868 I-0.1709 J0.4126
G02 X11.4003 Y54.6208 I0.0000 J0.4466
G02 X11.2554 Y54.7176 I0.1709 J0.4126
G02 X11.1585 Y54.8625 I0.3158 J0.3158
G02 X11.1245 Y55.0334 I0.4126 J0.1709
G02 X11.1585 Y55.2043 I0.4466 J0.0000
G02 X11.2554 Y55.3492 I0.4126 J-0.1709
G02 X11.4003 Y55.4460 I0.3158 J-0.3158
G02 X11.5712 Y55.4800 I0.1709 J-0.4126
G02 X11.7421 Y55.4460 I0.0000 J-0.4466
G02 X11.8870 Y55.3492 I-0.1709 J-0.4126
G02 X11.9838 Y55.2043 I-0.3158 J-0.3158
G02 X12.0178 Y55.0334 I-0.4126 J-0.1709
G02 X11.3479 Y54.6466 I-0.4466 J0.0000
G02 Y55.4202 I0.2233 J0.3868
G02 X12.0178 Y55.0334 I0.2233 J-0.3868
G02 X11.1712 I-0.4233 J0.0000
G02 X11.9712 I0.4000 J0.0000
G02 X11.3712 Y54.6870 Z-1.0952 I-0.4000 J0.0000 F2400
G02 Y55.3798 Z-1.2548 I0.2000 J0.3464
G02 X11.9712 Y55.0334 Z-1.4143 I0.2000 J-0.3464
G02 X11.3712 Y54.6870 I-0.4000 J0.0000
G02 Y55.3798 I0.2000 J0.3464
G02 X11.9712 Y55.0334 I0.2000 J-0.3464
G02 X11.9754 Y54.8660 I-0.3984 J-0.0938 F1800
G02 X11.8870 Y54.7176 I-0.4161 J0.1473
G02 X11.7421 Y54.6208 I-0.3158 J0.3158
G02 X11.5712 Y54.5868 I-0.1709 J0.4126
G02 X11.4003 Y54.6208 I0.0000 J0.4466
G02 X11.2554 Y54.7176 I0.1709 J0.4126
G02 X11.1585 Y54.8625 I0.3158 J0.3158
G02 X11.1245 Y55.0334 I0.4126 J0.1709
G02 X11.1585 Y55.2043 I0.4466 J0.0000
G02 X11.2554 Y55.3492 I0.4126 J-0.1709
G02 X11.4003 Y55.4460 I0.3158 J-0.3158
G02 X11.5712 Y55.4800 I0.1709 J-0.4126
G02 X11.7421 Y55.4460 I0.0000 J-0.4466
G02 X11.8870 Y55.3492 I-0.1709 J-0.4126
G02 X11.9838 Y55.2043 I-0.3158 J-0.3158
G02 X12.0178 Y55.0334 I-0.4126 J-0.1709
G02 X11.3479 Y54.6466 I-0.4466 J0.0000
G02 Y55.4202 I0.2233 J0.3868
G02 X12.0178 Y55.0334 I0.2233 J-0.3868
G02 X11.1712 I-0.4233 J0.0000
G02 X11.9712 I0.4000 J0.0000
G02 X11.3712 Y54.6870 Z-1.5738 I-0.4000 J0.0000 F2400
G02 Y55.3798 Z-1.7333 I0.2000 J0.3464
G02 X11.9712 Y55.0334 Z-1.8929 I0.2000 J-0.3464
G02 X11.3712 Y54.6870 I-0.4000 J0.0000
G02 Y55.3798 I0.2000 J0.3464
G02 X11.9712 Y55.0334 I0.2000 J-0.3464
G02 X11.9754 Y54.8660 I-0.3984 J-0.0938 F1800
G02 X11.8870 Y54.7176 I-0.4161 J0.1473
G02 X11.7421 Y54.6208 I-0.3158 J0.3158
G02 X11.5712 Y54.5868 I-0.1709 J0.4126
G02 X11.4003 Y54.6208 I0.0000 J0.4466
G02 X11.2554 Y54.7176 I0.1709 J0.4126
G02 X11.1585 Y54.8625 I0.3158 J0.3158
G02 X11.1245 Y55.0334 I0.4126 J0.1709
G02 X11.1585 Y55.2043 I0.4466 J0.0000
G02 X11.2554 Y55.3492 I0.4126 J-0.1709
G02 X11.4003 Y55.4460 I0.3158 J-0.3158
G02 X11.5712 Y55.4800 I0.1709 J-0.4126
G02 X11.7421 Y55.4460 I0.0000 J-0.4466
G02 X11.8870 Y55.3492 I-0.1709 J-0.4126
G02 X11.9838 Y55.2043 I-0.3158 J-0.3158
G02 X12.0178 Y55.0334 I-0.4126 J-0.1709
G02 X11.3479 Y54.6466 I-0.4466 J0.0000
G02 Y55.4202 I0.2233 J0.3868
G02 X12.0178 Y55.0334 I0.2233 J-0.3868
G02 X11.1712 I-0.4233 J0.0000
G02 X11.9712 I0.4000 J0.0000
G02 X11.3712 Y54.6870 Z-2.0524 I-0.4000 J0.0000 F2400
G02 Y55.3798 Z-2.2119 I0.2000 J0.3464
G02 X11.9712 Y55.0334 Z-2.3714 I0.2000 J-0.3464
G02 X11.3712 Y54.6870 I-0.4000 J0.0000
G02 Y55.3798 I0.2000 J0.3464
G02 X11.9712 Y55.0334 I0.2000 J-0.3464
G02 X11.9754 Y54.8660 I-0.3984 J-0.0938 F1800
G02 X11.8870 Y54.7176 I-0.4161 J0.1473
G02 X11.7421 Y54.6208 I-0.3158 J0.3158
G02 X11.5712 Y54.5868 I-0.1709 J0.4126
G02 X11.4003 Y54.6208 I0.0000 J0.4466
G02 X11.2554 Y54.7176 I0.1709 J0.4126
G02 X11.1585 Y54.8625 I0.3158 J0.3158
G02 X11.1245 Y55.0334 I0.4126 J0.1709
G02 X11.1585 Y55.2043 I0.4466 J0.0000
G02 X11.2554 Y55.3492 I0.4126 J-0.1709
G02 X11.4003 Y55.4460 I0.3158 J-0.3158
G02 X11.5712 Y55.4800 I0.1709 J-0.4126
G02 X11.7421 Y55.4460 I0.0000 J-0.4466
G02 X11.8870 Y55.3492 I-0.1709 J-0.4126
G02 X11.9838 Y55.2043 I-0.3158 J-0.3158
G02 X12.0178 Y55.0334 I-0.4126 J-0.1709
G02 X11.3479 Y54.6466 I-0.4466 J0.0000
G02 Y55.4202 I0.2233 J0.3868
G02 X12.0178 Y55.0334 I0.2233 J-0.3868
G02 X11.1712 I-0.4233 J0.0000
G02 X11.9712 I0.4000 J0.0000
G02 X11.3712 Y54.6870 Z-2.5310 I-0.4000 J0.0000 F2400
G02 Y55.3798 Z-2.6905 I0.2000 J0.3464
G02 X11.9712 Y55.0334 Z-2.8500 I0.2000 J-0.3464
G02 X11.3712 Y54.6870 I-0.4000 J0.0000
G02 Y55.3798 I0.2000 J0.3464
G02 X11.9712 Y55.0334 I0.2000 J-0.3464
G02 X11.9754 Y54.8660 I-0.3984 J-0.0938 F1800
G02 X11.8870 Y54.7176 I-0.4161 J0.1473
G02 X11.7421 Y54.6208 I-0.3158 J0.3158
G02 X11.5712 Y54.5868 I-0.1709 J0.4126
G02 X11.4003 Y54.6208 I0.0000 J0.4466
G02 X11.2554 Y54.7176 I0.1709 J0.4126
G02 X11.1585 Y54.8625 I0.3158 J0.3158
G02 X11.1245 Y55.0334 I0.4126 J0.1709
G02 X11.1585 Y55.2043 I0.4466 J0.0000
G02 X11.2554 Y55.3492 I0.4126 J-0.1709
G02 X11.4003 Y55.4460 I0.3158 J-0.3158
G02 X11.5712 Y55.4800 I0.1709 J-0.4126
G02 X11.7421 Y55.4460 I0.0000 J-0.4466
G02 X11.8870 Y55.3492 I-0.1709 J-0.4126
G02 X11.9838 Y55.2043 I-0.3158 J-0.3158
G02 X12.0178 Y55.0334 I-0.4126 J-0.1709
G02 X11.3479 Y54.6466 I-0.4466 J0.0000
G02 Y55.4202 I0.2233 J0.3868
G02 X12.0178 Y55.0334 I0.2233 J-0.3868
G02 X11.1712 I-0.4233 J0.0000
G02 X11.9712 I0.4000 J0.0000
G02 X11.3712 Y54.6870 Z-3.0095 I-0.4000 J0.0000 F2400
G02 Y55.3798 Z-3.1690 I0.2000 J0.3464
G02 X11.9712 Y55.0334 Z-3.3286 I0.2000 J-0.3464
G02 X11.3712 Y54.6870 I-0.4000 J0.0000
G02 Y55.3798 I0.2000 J0.3464
G02 X11.9712 Y55.0334 I0.2000 J-0.3464
G02 X11.9754 Y54.8660 I-0.3984 J-0.0938 F1800
G02 X11.8870 Y54.7176 I-0.4161 J0.1473
G02 X11.7421 Y54.6208 I-0.3158 J0.3158
G02 X11.5712 Y54.5868 I-0.1709 J0.4126
G02 X11.4003 Y54.6208 I0.0000 J0.4466
G02 X11.2554 Y54.7176 I0.1709 J0.4126
G02 X11.1585 Y54.8625 I0.3158 J0.3158
G02 X11.1245 Y55.0334 I0.4126 J0.1709
G02 X11.1585 Y55.2043 I0.4466 J0.0000
G02 X11.2554 Y55.3492 I0.4126 J-0.1709
G02 X11.4003 Y55.4460 I0.3158 J-0.3158
G02 X11.5712 Y55.4800 I0.1709 J-0.4126
G02 X11.7421 Y55.4460 I0.0000 J-0.4466
G02 X11.8870 Y55.3492 I-0.1709 J-0.4126
G02 X11.9838 Y55.2043 I-0.3158 J-0.3158
