(Project microatx)
(Created by Estlcam version 11 build 11.233)
(Machining time about 00:27:14 hours)

(Required tools:)
(Endmill 1)
G21
G90
G94
M03 S12000
G00 Z5.0000


(No. 1: Part 1)
G00 X-0.5000 Y14.9000
G00 Z0.5000
G01 Z0.0000 F1200 S12000
G01 Z-0.2500
G03 X0.0000 Y14.4000 I0.5000 J0.0000
G01 X22.5000
G01 Y0.0000
G03 X23.0000 Y-0.5000 I0.5000 J0.0000
G01 X38.0000
G03 X38.5000 Y0.0000 I0.0000 J0.5000
G01 Y4.0500
G03 X38.0000 Y4.5500 I-0.5000 J0.0000
G01 X28.5000
G01 Y14.3000
G01 X96.0000
G03 X96.2778 Y14.3843 I0.0000 J0.5000
G01 X96.5000 Y14.4000
G01 X97.0000
G01 Y0.0000
G03 X97.5000 Y-0.5000 I0.5000 J0.0000
G01 X112.0000
G03 X112.5000 Y0.0000 I0.0000 J0.5000
G01 Y4.0500
G03 X112.0000 Y4.5500 I-0.5000 J0.0000
G01 X104.0000
G01 Y14.4000
G01 X149.9000
G01 Y0.0000
G03 X150.4000 Y-0.5000 I0.5000 J0.0000
G01 X289.5600
G03 X290.0600 Y0.0000 I0.0000 J0.5000
G01 Y289.5600
G03 X289.5600 Y290.0600 I-0.5000 J0.0000
G01 X0.0000
G03 X-0.5000 Y289.5600 I0.0000 J-0.5000
G01 Y14.9000
G01 Z-0.5000
G03 X0.0000 Y14.4000 I0.5000 J0.0000
G01 X22.5000
G01 Y0.0000
G03 X23.0000 Y-0.5000 I0.5000 J0.0000
G01 X38.0000
G03 X38.5000 Y0.0000 I0.0000 J0.5000
G01 Y4.0500
G03 X38.0000 Y4.5500 I-0.5000 J0.0000
G01 X28.5000
G01 Y14.3000
G01 X96.0000
G03 X96.2778 Y14.3843 I0.0000 J0.5000
G01 X96.5000 Y14.4000
G01 X97.0000
G01 Y0.0000
G03 X97.5000 Y-0.5000 I0.5000 J0.0000
G01 X112.0000
G03 X112.5000 Y0.0000 I0.0000 J0.5000
G01 Y4.0500
G03 X112.0000 Y4.5500 I-0.5000 J0.0000
G01 X104.0000
G01 Y14.4000
G01 X149.9000
G01 Y0.0000
G03 X150.4000 Y-0.5000 I0.5000 J0.0000
G01 X289.5600
G03 X290.0600 Y0.0000 I0.0000 J0.5000
G01 Y289.5600
G03 X289.5600 Y290.0600 I-0.5000 J0.0000
G01 X0.0000
G03 X-0.5000 Y289.5600 I0.0000 J-0.5000
G01 Y14.9000
G01 Z-0.7500
G03 X0.0000 Y14.4000 I0.5000 J0.0000
G01 X22.5000
G01 Y0.0000
G03 X23.0000 Y-0.5000 I0.5000 J0.0000
G01 X38.0000
G03 X38.5000 Y0.0000 I0.0000 J0.5000
G01 Y4.0500
G03 X38.0000 Y4.5500 I-0.5000 J0.0000
G01 X28.5000
G01 Y14.3000
G01 X96.0000
G03 X96.2778 Y14.3843 I0.0000 J0.5000
G01 X96.5000 Y14.4000
G01 X97.0000
G01 Y0.0000
G03 X97.5000 Y-0.5000 I0.5000 J0.0000
G01 X112.0000
G03 X112.5000 Y0.0000 I0.0000 J0.5000
G01 Y4.0500
G03 X112.0000 Y4.5500 I-0.5000 J0.0000
G01 X104.0000
G01 Y14.4000
G01 X149.9000
G01 Y0.0000
G03 X150.4000 Y-0.5000 I0.5000 J0.0000
G01 X289.5600
G03 X290.0600 Y0.0000 I0.0000 J0.5000
G01 Y289.5600
G03 X289.5600 Y290.0600 I-0.5000 J0.0000
G01 X0.0000
G03 X-0.5000 Y289.5600 I0.0000 J-0.5000
G01 Y14.9000
G01 Z-1.0000
G03 X0.0000 Y14.4000 I0.5000 J0.0000
G01 X22.5000
G01 Y0.0000
G03 X23.0000 Y-0.5000 I0.5000 J0.0000
G01 X38.0000
G03 X38.5000 Y0.0000 I0.0000 J0.5000
G01 Y4.0500
G03 X38.0000 Y4.5500 I-0.5000 J0.0000
G01 X28.5000
G01 Y14.3000
G01 X96.0000
G03 X96.2778 Y14.3843 I0.0000 J0.5000
G01 X96.5000 Y14.4000
G01 X97.0000
G01 Y0.0000
G03 X97.5000 Y-0.5000 I0.5000 J0.0000
G01 X112.0000
G03 X112.5000 Y0.0000 I0.0000 J0.5000
G01 Y4.0500
G03 X112.0000 Y4.5500 I-0.5000 J0.0000
G01 X104.0000
G01 Y14.4000
G01 X149.9000
G01 Y0.0000
G03 X150.4000 Y-0.5000 I0.5000 J0.0000
G01 X289.5600
G03 X290.0600 Y0.0000 I0.0000 J0.5000
G01 Y289.5600
G03 X289.5600 Y290.0600 I-0.5000 J0.0000
G01 X0.0000
G03 X-0.5000 Y289.5600 I0.0000 J-0.5000
G01 Y14.9000
G01 Z-1.2500
G03 X0.0000 Y14.4000 I0.5000 J0.0000
G01 X22.5000
G01 Y0.0000
G03 X23.0000 Y-0.5000 I0.5000 J0.0000
G01 X38.0000
G03 X38.5000 Y0.0000 I0.0000 J0.5000
G01 Y4.0500
G03 X38.0000 Y4.5500 I-0.5000 J0.0000
G01 X28.5000
G01 Y14.3000
G01 X96.0000
G03 X96.2778 Y14.3843 I0.0000 J0.5000
G01 X96.5000 Y14.4000
G01 X97.0000
G01 Y0.0000
G03 X97.5000 Y-0.5000 I0.5000 J0.0000
G01 X112.0000
G03 X112.5000 Y0.0000 I0.0000 J0.5000
G01 Y4.0500
G03 X112.0000 Y4.5500 I-0.5000 J0.0000
G01 X104.0000
G01 Y14.4000
G01 X149.9000
G01 Y0.0000
G03 X150.4000 Y-0.5000 I0.5000 J0.0000
G01 X289.5600
G03 X290.0600 Y0.0000 I0.0000 J0.5000
G01 Y289.5600
G03 X289.5600 Y290.0600 I-0.5000 J0.0000
G01 X0.0000
G03 X-0.5000 Y289.5600 I0.0000 J-0.5000
G01 Y14.9000
G01 Z-1.5000
G03 X0.0000 Y14.4000 I0.5000 J0.0000
G01 X22.5000
G01 Y0.0000
G03 X23.0000 Y-0.5000 I0.5000 J0.0000
G01 X38.0000
G03 X38.5000 Y0.0000 I0.0000 J0.5000
G01 Y4.0500
G03 X38.0000 Y4.5500 I-0.5000 J0.0000
G01 X28.5000
G01 Y14.3000
G01 X96.0000
G03 X96.2778 Y14.3843 I0.0000 J0.5000
G01 X96.5000 Y14.4000
G01 X97.0000
G01 Y0.0000
G03 X97.5000 Y-0.5000 I0.5000 J0.0000
G01 X112.0000
G03 X112.5000 Y0.0000 I0.0000 J0.5000
G01 Y4.0500
G03 X112.0000 Y4.5500 I-0.5000 J0.0000
G01 X104.0000
G01 Y14.4000
G01 X149.9000
G01 Y0.0000
G03 X150.4000 Y-0.5000 I0.5000 J0.0000
G01 X289.5600
G03 X290.0600 Y0.0000 I0.0000 J0.5000
G01 Y289.5600
G03 X289.5600 Y290.0600 I-0.5000 J0.0000
G01 X0.0000
G03 X-0.5000 Y289.5600 I0.0000 J-0.5000
G01 Y14.9000
G01 Z-1.7500
G03 X0.0000 Y14.4000 I0.5000 J0.0000
G01 X22.5000
G01 Y0.0000
G03 X23.0000 Y-0.5000 I0.5000 J0.0000
G01 X38.0000
G03 X38.5000 Y0.0000 I0.0000 J0.5000
G01 Y4.0500
G03 X38.0000 Y4.5500 I-0.5000 J0.0000
G01 X28.5000
G01 Y14.3000
G01 X96.0000
G03 X96.2778 Y14.3843 I0.0000 J0.5000
G01 X96.5000 Y14.4000
G01 X97.0000
G01 Y0.0000
G03 X97.5000 Y-0.5000 I0.5000 J0.0000
G01 X112.0000
G03 X112.5000 Y0.0000 I0.0000 J0.5000
G01 Y4.0500
G03 X112.0000 Y4.5500 I-0.5000 J0.0000
G01 X104.0000
G01 Y14.4000
G01 X149.9000
G01 Y0.0000
G03 X150.4000 Y-0.5000 I0.5000 J0.0000
G01 X289.5600
G03 X290.0600 Y0.0000 I0.0000 J0.5000
G01 Y289.5600
G03 X289.5600 Y290.0600 I-0.5000 J0.0000
G01 X0.0000
G03 X-0.5000 Y289.5600 I0.0000 J-0.5000
G01 Y14.9000
G01 Z-2.0000
G03 X0.0000 Y14.4000 I0.5000 J0.0000
G01 X22.5000
G01 Y0.0000
G03 X23.0000 Y-0.5000 I0.5000 J0.0000
G01 X38.0000
G03 X38.5000 Y0.0000 I0.0000 J0.5000
G01 Y4.0500
G03 X38.0000 Y4.5500 I-0.5000 J0.0000
G01 X28.5000
G01 Y14.3000
G01 X96.0000
G03 X96.2778 Y14.3843 I0.0000 J0.5000
G01 X96.5000 Y14.4000
G01 X97.0000
G01 Y0.0000
G03 X97.5000 Y-0.5000 I0.5000 J0.0000
G01 X112.0000
G03 X112.5000 Y0.0000 I0.0000 J0.5000
G01 Y4.0500
G03 X112.0000 Y4.5500 I-0.5000 J0.0000
G01 X104.0000
G01 Y14.4000
G01 X149.9000
G01 Y0.0000
G03 X150.4000 Y-0.5000 I0.5000 J0.0000
G01 X289.5600
G03 X290.0600 Y0.0000 I0.0000 J0.5000
G01 Y289.5600
G03 X289.5600 Y290.0600 I-0.5000 J0.0000
G01 X0.0000
G03 X-0.5000 Y289.5600 I0.0000 J-0.5000
G01 Y14.9000
G01 Z-2.2500
G03 X0.0000 Y14.4000 I0.5000 J0.0000
G01 X22.5000
G01 Y0.0000
G03 X23.0000 Y-0.5000 I0.5000 J0.0000
G01 X38.0000
G03 X38.5000 Y0.0000 I0.0000 J0.5000
G01 Y4.0500
G03 X38.0000 Y4.5500 I-0.5000 J0.0000
G01 X28.5000
G01 Y14.3000
G01 X96.0000
G03 X96.2778 Y14.3843 I0.0000 J0.5000
G01 X96.5000 Y14.4000
G01 X97.0000
G01 Y0.0000
G03 X97.5000 Y-0.5000 I0.5000 J0.0000
G01 X112.0000
G03 X112.5000 Y0.0000 I0.0000 J0.5000
G01 Y4.0500
G03 X112.0000 Y4.5500 I-0.5000 J0.0000
G01 X104.0000
G01 Y14.4000
G01 X149.9000
G01 Y0.0000
G03 X150.4000 Y-0.5000 I0.5000 J0.0000
G01 X289.5600
G03 X290.0600 Y0.0000 I0.0000 J0.5000
G01 Y289.5600
G03 X289.5600 Y290.0600 I-0.5000 J0.0000
G01 X0.0000
G03 X-0.5000 Y289.5600 I0.0000 J-0.5000
G01 Y14.9000
G01 Z-2.5000
G03 X0.0000 Y14.4000 I0.5000 J0.0000
G01 X22.5000
G01 Y0.0000
G03 X23.0000 Y-0.5000 I0.5000 J0.0000
G01 X38.0000
G03 X38.5000 Y0.0000 I0.0000 J0.5000
G01 Y4.0500
G03 X38.0000 Y4.5500 I-0.5000 J0.0000
G01 X28.5000
G01 Y14.3000
G01 X96.0000
G03 X96.2778 Y14.3843 I0.0000 J0.5000
G01 X96.5000 Y14.4000
G01 X97.0000
G01 Y0.0000
G03 X97.5000 Y-0.5000 I0.5000 J0.0000
G01 X112.0000
G03 X112.5000 Y0.0000 I0.0000 J0.5000
G01 Y4.0500
G03 X112.0000 Y4.5500 I-0.5000 J0.0000
G01 X104.0000
G01 Y14.4000
G01 X149.9000
G01 Y0.0000
G03 X150.4000 Y-0.5000 I0.5000 J0.0000
G01 X289.5600
G03 X290.0600 Y0.0000 I0.0000 J0.5000
G01 Y289.5600
G03 X289.5600 Y290.0600 I-0.5000 J0.0000
G01 X0.0000
G03 X-0.5000 Y289.5600 I0.0000 J-0.5000
G01 Y14.9000
G01 Z-2.7500
G03 X0.0000 Y14.4000 I0.5000 J0.0000
G01 X22.5000
G01 Y0.0000
G03 X23.0000 Y-0.5000 I0.5000 J0.0000
G01 X38.0000
G03 X38.5000 Y0.0000 I0.0000 J0.5000
G01 Y4.0500
G03 X38.0000 Y4.5500 I-0.5000 J0.0000
G01 X28.5000
G01 Y14.3000
G01 X96.0000
G03 X96.2778 Y14.3843 I0.0000 J0.5000
G01 X96.5000 Y14.4000
G01 X97.0000
G01 Y0.0000
G03 X97.5000 Y-0.5000 I0.5000 J0.0000
G01 X112.0000
G03 X112.5000 Y0.0000 I0.0000 J0.5000
G01 Y4.0500
G03 X112.0000 Y4.5500 I-0.5000 J0.0000
G01 X104.0000
G01 Y14.4000
G01 X149.9000
G01 Y0.0000
G03 X150.4000 Y-0.5000 I0.5000 J0.0000
G01 X289.5600
G03 X290.0600 Y0.0000 I0.0000 J0.5000
G01 Y289.5600
G03 X289.5600 Y290.0600 I-0.5000 J0.0000
G01 X0.0000
G03 X-0.5000 Y289.5600 I0.0000 J-0.5000
G01 Y14.9000
G01 Z-3.0000
G03 X0.0000 Y14.4000 I0.5000 J0.0000
G01 X22.5000
G01 Y0.0000
G03 X23.0000 Y-0.5000 I0.5000 J0.0000
G01 X38.0000
G03 X38.5000 Y0.0000 I0.0000 J0.5000
G01 Y4.0500
G03 X38.0000 Y4.5500 I-0.5000 J0.0000
G01 X28.5000
G01 Y14.3000
G01 X96.0000
G03 X96.2778 Y14.3843 I0.0000 J0.5000
G01 X96.5000 Y14.4000
G01 X97.0000
G01 Y0.0000
G03 X97.5000 Y-0.5000 I0.5000 J0.0000
G01 X112.0000
G03 X112.5000 Y0.0000 I0.0000 J0.5000
G01 Y4.0500
G03 X112.0000 Y4.5500 I-0.5000 J0.0000
G01 X104.0000
G01 Y14.4000
G01 X149.9000
G01 Y0.0000
G03 X150.4000 Y-0.5000 I0.5000 J0.0000
G01 X289.5600
G03 X290.0600 Y0.0000 I0.0000 J0.5000
G01 Y289.5600
G03 X289.5600 Y290.0600 I-0.5000 J0.0000
G01 X0.0000
G03 X-0.5000 Y289.5600 I0.0000 J-0.5000
G01 Y14.9000
G01 Z-3.2500
G03 X0.0000 Y14.4000 I0.5000 J0.0000
G01 X22.5000
G01 Y0.0000
G03 X23.0000 Y-0.5000 I0.5000 J0.0000
G01 X38.0000
G03 X38.5000 Y0.0000 I0.0000 J0.5000
G01 Y4.0500
G03 X38.0000 Y4.5500 I-0.5000 J0.0000
G01 X28.5000
G01 Y14.3000
G01 X96.0000
G03 X96.2778 Y14.3843 I0.0000 J0.5000
G01 X96.5000 Y14.4000
G01 X97.0000
G01 Y0.0000
G03 X97.5000 Y-0.5000 I0.5000 J0.0000
G01 X112.0000
G03 X112.5000 Y0.0000 I0.0000 J0.5000
G01 Y4.0500
G03 X112.0000 Y4.5500 I-0.5000 J0.0000
G01 X104.0000
G01 Y14.4000
G01 X149.9000
G01 Y0.0000
G03 X150.4000 Y-0.5000 I0.5000 J0.0000
G01 X289.5600
G03 X290.0600 Y0.0000 I0.0000 J0.5000
G01 Y289.5600
G03 X289.5600 Y290.0600 I-0.5000 J0.0000
G01 X0.0000
G03 X-0.5000 Y289.5600 I0.0000 J-0.5000
G01 Y14.9000
G01 Z-3.5000
G03 X0.0000 Y14.4000 I0.5000 J0.0000
G01 X22.5000
G01 Y0.0000
G03 X23.0000 Y-0.5000 I0.5000 J0.0000
G01 X38.0000
G03 X38.5000 Y0.0000 I0.0000 J0.5000
G01 Y4.0500
G03 X38.0000 Y4.5500 I-0.5000 J0.0000
G01 X28.5000
G01 Y14.3000
G01 X96.0000
G03 X96.2778 Y14.3843 I0.0000 J0.5000
G01 X96.5000 Y14.4000
G01 X97.0000
G01 Y0.0000
G03 X97.5000 Y-0.5000 I0.5000 J0.0000
G01 X112.0000
G03 X112.5000 Y0.0000 I0.0000 J0.5000
G01 Y4.0500
G03 X112.0000 Y4.5500 I-0.5000 J0.0000
G01 X104.0000
G01 Y14.4000
G01 X149.9000
G01 Y0.0000
G03 X150.4000 Y-0.5000 I0.5000 J0.0000
G01 X289.5600
G03 X290.0600 Y0.0000 I0.0000 J0.5000
G01 Y289.5600
G03 X289.5600 Y290.0600 I-0.5000 J0.0000
G01 X0.0000
G03 X-0.5000 Y289.5600 I0.0000 J-0.5000
G01 Y14.9000
G01 Z-3.7500
G03 X0.0000 Y14.4000 I0.5000 J0.0000
G01 X22.5000
G01 Y0.0000
G03 X23.0000 Y-0.5000 I0.5000 J0.0000
G01 X38.0000
G03 X38.5000 Y0.0000 I0.0000 J0.5000
G01 Y4.0500
G03 X38.0000 Y4.5500 I-0.5000 J0.0000
G01 X28.5000
G01 Y14.3000
G01 X96.0000
G03 X96.2778 Y14.3843 I0.0000 J0.5000
G01 X96.5000 Y14.4000
G01 X97.0000
G01 Y0.0000
G03 X97.5000 Y-0.5000 I0.5000 J0.0000
G01 X112.0000
G03 X112.5000 Y0.0000 I0.0000 J0.5000
G01 Y4.0500
G03 X112.0000 Y4.5500 I-0.5000 J0.0000
G01 X104.0000
G01 Y14.4000
G01 X149.9000
G01 Y0.0000
G03 X150.4000 Y-0.5000 I0.5000 J0.0000
G01 X289.5600
G03 X290.0600 Y0.0000 I0.0000 J0.5000
G01 Y289.5600
G03 X289.5600 Y290.0600 I-0.5000 J0.0000
G01 X0.0000
G03 X-0.5000 Y289.5600 I0.0000 J-0.5000
G01 Y14.9000
G01 Z-4.0000
G03 X0.0000 Y14.4000 I0.5000 J0.0000
G01 X22.5000
G01 Y0.0000
G03 X23.0000 Y-0.5000 I0.5000 J0.0000
G01 X38.0000
G03 X38.5000 Y0.0000 I0.0000 J0.5000
G01 Y4.0500
G03 X38.0000 Y4.5500 I-0.5000 J0.0000
G01 X28.5000
G01 Y14.3000
G01 X96.0000
G03 X96.2778 Y14.3843 I0.0000 J0.5000
G01 X96.5000 Y14.4000
G01 X97.0000
G01 Y0.0000
G03 X97.5000 Y-0.5000 I0.5000 J0.0000
G01 X112.0000
G03 X112.5000 Y0.0000 I0.0000 J0.5000
G01 Y4.0500
G03 X112.0000 Y4.5500 I-0.5000 J0.0000
G01 X104.0000
G01 Y14.4000
G01 X149.9000
G01 Y0.0000
G03 X150.4000 Y-0.5000 I0.5000 J0.0000
G01 X289.5600
G03 X290.0600 Y0.0000 I0.0000 J0.5000
G01 Y289.5600
G03 X289.5600 Y290.0600 I-0.5000 J0.0000
G01 X0.0000
G03 X-0.5000 Y289.5600 I0.0000 J-0.5000
G01 Y14.9000
G01 Z-4.2500
G03 X0.0000 Y14.4000 I0.5000 J0.0000
G01 X22.5000
G01 Y0.0000
G03 X23.0000 Y-0.5000 I0.5000 J0.0000
G01 X38.0000
G03 X38.5000 Y0.0000 I0.0000 J0.5000
G01 Y4.0500
G03 X38.0000 Y4.5500 I-0.5000 J0.0000
G01 X28.5000
G01 Y14.3000
G01 X96.0000
G03 X96.2778 Y14.3843 I0.0000 J0.5000
G01 X96.5000 Y14.4000
G01 X97.0000
G01 Y0.0000
G03 X97.5000 Y-0.5000 I0.5000 J0.0000
G01 X112.0000
G03 X112.5000 Y0.0000 I0.0000 J0.5000
G01 Y4.0500
G03 X112.0000 Y4.5500 I-0.5000 J0.0000
G01 X104.0000
G01 Y14.4000
G01 X149.9000
G01 Y0.0000
G03 X150.4000 Y-0.5000 I0.5000 J0.0000
G01 X289.5600
G03 X290.0600 Y0.0000 I0.0000 J0.5000
G01 Y289.5600
G03 X289.5600 Y290.0600 I-0.5000 J0.0000
G01 X0.0000
G03 X-0.5000 Y289.5600 I0.0000 J-0.5000
G01 Y14.9000
G01 Z-4.5000
G03 X0.0000 Y14.4000 I0.5000 J0.0000
G01 X22.5000
G01 Y0.0000
G03 X23.0000 Y-0.5000 I0.5000 J0.0000
G01 X38.0000
G03 X38.5000 Y0.0000 I0.0000 J0.5000
G01 Y4.0500
G03 X38.0000 Y4.5500 I-0.5000 J0.0000
G01 X28.5000
G01 Y14.3000
G01 X96.0000
G03 X96.2778 Y14.3843 I0.0000 J0.5000
G01 X96.5000 Y14.4000
G01 X97.0000
G01 Y0.0000
G03 X97.5000 Y-0.5000 I0.5000 J0.0000
G01 X112.0000
G03 X112.5000 Y0.0000 I0.0000 J0.5000
G01 Y4.0500
G03 X112.0000 Y4.5500 I-0.5000 J0.0000
G01 X104.0000
G01 Y14.4000
G01 X149.9000
G01 Y0.0000
G03 X150.4000 Y-0.5000 I0.5000 J0.0000
G01 X289.5600
G03 X290.0600 Y0.0000 I0.0000 J0.5000
G01 Y289.5600
G03 X289.5600 Y290.0600 I-0.5000 J0.0000
G01 X0.0000
G03 X-0.5000 Y289.5600 I0.0000 J-0.5000
G01 Y14.9000
G01 Z-4.7500
G03 X0.0000 Y14.4000 I0.5000 J0.0000
G01 X22.5000
G01 Y0.0000
G03 X23.0000 Y-0.5000 I0.5000 J0.0000
G01 X38.0000
G03 X38.5000 Y0.0000 I0.0000 J0.5000
G01 Y4.0500
G03 X38.0000 Y4.5500 I-0.5000 J0.0000
G01 X28.5000
G01 Y14.3000
G01 X96.0000
G03 X96.2778 Y14.3843 I0.0000 J0.5000
G01 X96.5000 Y14.4000
G01 X97.0000
G01 Y0.0000
G03 X97.5000 Y-0.5000 I0.5000 J0.0000
G01 X112.0000
G03 X112.5000 Y0.0000 I0.0000 J0.5000
G01 Y4.0500
G03 X112.0000 Y4.5500 I-0.5000 J0.0000
G01 X104.0000
G01 Y14.4000
G01 X149.9000
G01 Y0.0000
G03 X150.4000 Y-0.5000 I0.5000 J0.0000
G01 X289.5600
G03 X290.0600 Y0.0000 I0.0000 J0.5000
G01 Y289.5600
G03 X289.5600 Y290.0600 I-0.5000 J0.0000
G01 X0.0000
G03 X-0.5000 Y289.5600 I0.0000 J-0.5000
G01 Y14.9000
G01 Z-5.0000
G03 X0.0000 Y14.4000 I0.5000 J0.0000
G01 X22.5000
G01 Y0.0000
G03 X23.0000 Y-0.5000 I0.5000 J0.0000
G01 X38.0000
G03 X38.5000 Y0.0000 I0.0000 J0.5000
G01 Y4.0500
G03 X38.0000 Y4.5500 I-0.5000 J0.0000
G01 X28.5000
G01 Y14.3000
G01 X96.0000
G03 X96.2778 Y14.3843 I0.0000 J0.5000
G01 X96.5000 Y14.4000
G01 X97.0000
G01 Y0.0000
G03 X97.5000 Y-0.5000 I0.5000 J0.0000
G01 X112.0000
G03 X112.5000 Y0.0000 I0.0000 J0.5000
G01 Y4.0500
G03 X112.0000 Y4.5500 I-0.5000 J0.0000
G01 X104.0000
G01 Y14.4000
G01 X149.9000
G01 Y0.0000
G03 X150.4000 Y-0.5000 I0.5000 J0.0000
G01 X289.5600
G03 X290.0600 Y0.0000 I0.0000 J0.5000
G01 Y289.5600
G03 X289.5600 Y290.0600 I-0.5000 J0.0000
G01 X0.0000
G03 X-0.5000 Y289.5600 I0.0000 J-0.5000
G01 Y14.9000
G01 Z-5.2500
G03 X0.0000 Y14.4000 I0.5000 J0.0000
G01 X22.5000
G01 Y0.0000
G03 X23.0000 Y-0.5000 I0.5000 J0.0000
G01 X38.0000
G03 X38.5000 Y0.0000 I0.0000 J0.5000
G01 Y4.0500
G03 X38.0000 Y4.5500 I-0.5000 J0.0000
G01 X28.5000
G01 Y14.3000
G01 X96.0000
G03 X96.2778 Y14.3843 I0.0000 J0.5000
G01 X96.5000 Y14.4000
G01 X97.0000
G01 Y0.0000
G03 X97.5000 Y-0.5000 I0.5000 J0.0000
G01 X112.0000
G03 X112.5000 Y0.0000 I0.0000 J0.5000
G01 Y4.0500
G03 X112.0000 Y4.5500 I-0.5000 J0.0000
G01 X104.0000
G01 Y14.4000
G01 X149.9000
G01 Y0.0000
G03 X150.4000 Y-0.5000 I0.5000 J0.0000
G01 X289.5600
G03 X290.0600 Y0.0000 I0.0000 J0.5000
G01 Y289.5600
G03 X289.5600 Y290.0600 I-0.5000 J0.0000
G01 X0.0000
G03 X-0.5000 Y289.5600 I0.0000 J-0.5000
G01 Y14.9000
G01 Z-5.5000
G03 X0.0000 Y14.4000 I0.5000 J0.0000
G01 X22.5000
G01 Y0.0000
G03 X23.0000 Y-0.5000 I0.5000 J0.0000
G01 X38.0000
G03 X38.5000 Y0.0000 I0.0000 J0.5000
G01 Y4.0500
G03 X38.0000 Y4.5500 I-0.5000 J0.0000
G01 X28.5000
G01 Y14.3000
G01 X96.0000
G03 X96.2778 Y14.3843 I0.0000 J0.5000
G01 X96.5000 Y14.4000
G01 X97.0000
G01 Y0.0000
G03 X97.5000 Y-0.5000 I0.5000 J0.0000
G01 X112.0000
G03 X112.5000 Y0.0000 I0.0000 J0.5000
G01 Y4.0500
G03 X112.0000 Y4.5500 I-0.5000 J0.0000
G01 X104.0000
G01 Y14.4000
G01 X149.9000
G01 Y0.0000
G03 X150.4000 Y-0.5000 I0.5000 J0.0000
G01 X289.5600
G03 X290.0600 Y0.0000 I0.0000 J0.5000
G01 Y289.5600
G03 X289.5600 Y290.0600 I-0.5000 J0.0000
G01 X0.0000
G03 X-0.5000 Y289.5600 I0.0000 J-0.5000
G01 Y14.9000
G01 Z-5.7500
G03 X0.0000 Y14.4000 I0.5000 J0.0000
G01 X22.5000
G01 Y0.0000
G03 X23.0000 Y-0.5000 I0.5000 J0.0000
G01 X38.0000
G03 X38.5000 Y0.0000 I0.0000 J0.5000
G01 Y4.0500
G03 X38.0000 Y4.5500 I-0.5000 J0.0000
G01 X28.5000
G01 Y14.3000
G01 X96.0000
G03 X96.2778 Y14.3843 I0.0000 J0.5000
G01 X96.5000 Y14.4000
G01 X97.0000
G01 Y0.0000
G03 X97.5000 Y-0.5000 I0.5000 J0.0000
G01 X112.0000
G03 X112.5000 Y0.0000 I0.0000 J0.5000
G01 Y4.0500
G03 X112.0000 Y4.5500 I-0.5000 J0.0000
G01 X104.0000
G01 Y14.4000
G01 X149.9000
G01 Y0.0000
G03 X150.4000 Y-0.5000 I0.5000 J0.0000
G01 X289.5600
G03 X290.0600 Y0.0000 I0.0000 J0.5000
G01 Y289.5600
G03 X289.5600 Y290.0600 I-0.5000 J0.0000
G01 X0.0000
G03 X-0.5000 Y289.5600 I0.0000 J-0.5000
G01 Y14.9000
G01 Z-6.0000
G03 X0.0000 Y14.4000 I0.5000 J0.0000
G01 X22.5000
G01 Y0.0000
G03 X23.0000 Y-0.5000 I0.5000 J0.0000
G01 X38.0000
G03 X38.5000 Y0.0000 I0.0000 J0.5000
G01 Y4.0500
G03 X38.0000 Y4.5500 I-0.5000 J0.0000
G01 X28.5000
G01 Y14.3000
G01 X96.0000
G03 X96.2778 Y14.3843 I0.0000 J0.5000
G01 X96.5000 Y14.4000
G01 X97.0000
G01 Y0.0000
G03 X97.5000 Y-0.5000 I0.5000 J0.0000
G01 X112.0000
G03 X112.5000 Y0.0000 I0.0000 J0.5000
G01 Y4.0500
G03 X112.0000 Y4.5500 I-0.5000 J0.0000
G01 X104.0000
G01 Y14.4000
G01 X149.9000
G01 Y0.0000
G03 X150.4000 Y-0.5000 I0.5000 J0.0000
G01 X289.5600
G03 X290.0600 Y0.0000 I0.0000 J0.5000
G01 Y289.5600
G03 X289.5600 Y290.0600 I-0.5000 J0.0000
G01 X0.0000
G03 X-0.5000 Y289.5600 I0.0000 J-0.5000
G01 Y14.9000
G01 Z-6.2500
G03 X0.0000 Y14.4000 I0.5000 J0.0000
G01 X22.5000
G01 Y0.0000
G03 X23.0000 Y-0.5000 I0.5000 J0.0000
G01 X38.0000
G03 X38.5000 Y0.0000 I0.0000 J0.5000
G01 Y4.0500
G03 X38.0000 Y4.5500 I-0.5000 J0.0000
G01 X28.5000
G01 Y14.3000
G01 X96.0000
G03 X96.2778 Y14.3843 I0.0000 J0.5000
G01 X96.5000 Y14.4000
G01 X97.0000
G01 Y0.0000
G03 X97.5000 Y-0.5000 I0.5000 J0.0000
G01 X112.0000
G03 X112.5000 Y0.0000 I0.0000 J0.5000
G01 Y4.0500
G03 X112.0000 Y4.5500 I-0.5000 J0.0000
G01 X104.0000
G01 Y14.4000
G01 X149.9000
G01 Y0.0000
G03 X150.4000 Y-0.5000 I0.5000 J0.0000
G01 X289.5600
G03 X290.0600 Y0.0000 I0.0000 J0.5000
G01 Y289.5600
G03 X289.5600 Y290.0600 I-0.5000 J0.0000
G01 X0.0000
G03 X-0.5000 Y289.5600 I0.0000 J-0.5000
G01 Y14.9000
G01 Z-6.4000
G03 X0.0000 Y14.4000 I0.5000 J0.0000
G01 X22.5000
G01 Y0.0000
G03 X23.0000 Y-0.5000 I0.5000 J0.0000
G01 X38.0000
G03 X38.5000 Y0.0000 I0.0000 J0.5000
G01 Y4.0500
G03 X38.0000 Y4.5500 I-0.5000 J0.0000
G01 X28.5000
G01 Y14.3000
G01 X96.0000
G03 X96.2778 Y14.3843 I0.0000 J0.5000
G01 X96.5000 Y14.4000
G01 X97.0000
G01 Y0.0000
G03 X97.5000 Y-0.5000 I0.5000 J0.0000
G01 X112.0000
G03 X112.5000 Y0.0000 I0.0000 J0.5000
G01 Y4.0500
G03 X112.0000 Y4.5500 I-0.5000 J0.0000
G01 X104.0000
G01 Y14.4000
G01 X149.9000
G01 Y0.0000
G03 X150.4000 Y-0.5000 I0.5000 J0.0000
G01 X289.5600
G03 X290.0600 Y0.0000 I0.0000 J0.5000
G01 Y289.5600
G03 X289.5600 Y290.0600 I-0.5000 J0.0000
G01 X0.0000
G03 X-0.5000 Y289.5600 I0.0000 J-0.5000
G01 Y14.9000
G00 Z5.0000
G00 X0.0000 Y0.0000

M05
M30
