(Project microatx)
(Created by Estlcam version 11 build 11.233)
(Machining time about 00:51:27 hours)

(Required tools:)
(Endmill 1)
G21
G90
G94
M03 S12000
G00 Z5.0000


(No. 1: Helical drill 38)
G00 X10.5001 Y35.3999
G00 Z0.5000
G02 X9.7501 Y34.9669 Z0.4179 I-0.5000 J0.0000 F1200 S12000
G02 Y35.8329 Z0.3357 I0.2500 J0.4330
G02 X10.5001 Y35.3999 Z0.2536 I0.2500 J-0.4330
G02 X9.7501 Y34.9669 I-0.5000 J0.0000
G02 Y35.8329 I0.2500 J0.4330
G02 X10.5001 Y35.3999 I0.2500 J-0.4330
G02 X10.5053 Y35.1906 I-0.4981 J-0.1172
G02 X10.4199 Y34.9800 I-0.5502 J0.1005
G02 X10.2453 Y34.8080 I-0.5043 J0.3375
G02 X10.0001 Y34.7124 I-0.3555 J0.5493
G02 X9.7191 Y34.7214 I-0.1184 J0.6916
G02 X9.4698 Y34.8696 I0.2467 J0.6988
G02 X9.3072 Y35.1129 I0.5303 J0.5303
G02 X9.2501 Y35.3999 I0.6929 J0.2870
G02 X9.3072 Y35.6869 I0.7500 J0.0000
G02 X9.4698 Y35.9302 I0.6929 J-0.2870
G02 X9.7131 Y36.0927 I0.5303 J-0.5303
G02 X10.0001 Y36.1498 I0.2870 J-0.6929
G02 X10.2871 Y36.0927 I0.0000 J-0.7500
G02 X10.5304 Y35.9302 I-0.2870 J-0.6929
G02 X10.6930 Y35.6869 I-0.5303 J-0.5303
G02 X10.7501 Y35.3999 I-0.6929 J-0.2870
G02 X9.6251 Y34.7504 I-0.7500 J0.0000
G02 Y36.0494 I0.3750 J0.6495
G02 X10.7501 Y35.3999 I0.3750 J-0.6495
G02 X9.5001 I-0.6250 J0.0000
G02 X10.5001 I0.5000 J0.0000
G02 X9.7501 Y34.9669 Z0.1714 I-0.5000 J0.0000
G02 Y35.8329 Z0.0893 I0.2500 J0.4330
G02 X10.5001 Y35.3999 Z0.0071 I0.2500 J-0.4330
G02 X9.7501 Y34.9669 I-0.5000 J0.0000
G02 Y35.8329 I0.2500 J0.4330
G02 X10.5001 Y35.3999 I0.2500 J-0.4330
G02 X10.5053 Y35.1906 I-0.4981 J-0.1172
G02 X10.4199 Y34.9800 I-0.5502 J0.1005
G02 X10.2453 Y34.8080 I-0.5043 J0.3375
G02 X10.0001 Y34.7124 I-0.3555 J0.5493
G02 X9.7191 Y34.7214 I-0.1184 J0.6916
G02 X9.4698 Y34.8696 I0.2467 J0.6988
G02 X9.3072 Y35.1129 I0.5303 J0.5303
G02 X9.2501 Y35.3999 I0.6929 J0.2870
G02 X9.3072 Y35.6869 I0.7500 J0.0000
G02 X9.4698 Y35.9302 I0.6929 J-0.2870
G02 X9.7131 Y36.0927 I0.5303 J-0.5303
G02 X10.0001 Y36.1498 I0.2870 J-0.6929
G02 X10.2871 Y36.0927 I0.0000 J-0.7500
G02 X10.5304 Y35.9302 I-0.2870 J-0.6929
G02 X10.6930 Y35.6869 I-0.5303 J-0.5303
G02 X10.7501 Y35.3999 I-0.6929 J-0.2870
G02 X9.6251 Y34.7504 I-0.7500 J0.0000
G02 Y36.0494 I0.3750 J0.6495
G02 X10.7501 Y35.3999 I0.3750 J-0.6495
G02 X9.5001 I-0.6250 J0.0000
G02 X10.5001 I0.5000 J0.0000
G02 X9.7501 Y34.9669 Z-0.0750 I-0.5000 J0.0000
G02 Y35.8329 Z-0.1571 I0.2500 J0.4330
G02 X10.5001 Y35.3999 Z-0.2393 I0.2500 J-0.4330
G02 X9.7501 Y34.9669 I-0.5000 J0.0000
G02 Y35.8329 I0.2500 J0.4330
G02 X10.5001 Y35.3999 I0.2500 J-0.4330
G02 X10.5053 Y35.1906 I-0.4981 J-0.1172
G02 X10.4199 Y34.9800 I-0.5502 J0.1005
G02 X10.2453 Y34.8080 I-0.5043 J0.3375
G02 X10.0001 Y34.7124 I-0.3555 J0.5493
G02 X9.7191 Y34.7214 I-0.1184 J0.6916
G02 X9.4698 Y34.8696 I0.2467 J0.6988
G02 X9.3072 Y35.1129 I0.5303 J0.5303
G02 X9.2501 Y35.3999 I0.6929 J0.2870
G02 X9.3072 Y35.6869 I0.7500 J0.0000
G02 X9.4698 Y35.9302 I0.6929 J-0.2870
G02 X9.7131 Y36.0927 I0.5303 J-0.5303
G02 X10.0001 Y36.1498 I0.2870 J-0.6929
G02 X10.2871 Y36.0927 I0.0000 J-0.7500
G02 X10.5304 Y35.9302 I-0.2870 J-0.6929
G02 X10.6930 Y35.6869 I-0.5303 J-0.5303
G02 X10.7501 Y35.3999 I-0.6929 J-0.2870
G02 X9.6251 Y34.7504 I-0.7500 J0.0000
G02 Y36.0494 I0.3750 J0.6495
G02 X10.7501 Y35.3999 I0.3750 J-0.6495
G02 X9.5001 I-0.6250 J0.0000
G02 X10.5001 I0.5000 J0.0000
G02 X9.7501 Y34.9669 Z-0.3214 I-0.5000 J0.0000
G02 Y35.8329 Z-0.4036 I0.2500 J0.4330
G02 X10.5001 Y35.3999 Z-0.4857 I0.2500 J-0.4330
G02 X9.7501 Y34.9669 I-0.5000 J0.0000
G02 Y35.8329 I0.2500 J0.4330
G02 X10.5001 Y35.3999 I0.2500 J-0.4330
G02 X10.5053 Y35.1906 I-0.4981 J-0.1172
G02 X10.4199 Y34.9800 I-0.5502 J0.1005
G02 X10.2453 Y34.8080 I-0.5043 J0.3375
G02 X10.0001 Y34.7124 I-0.3555 J0.5493
G02 X9.7191 Y34.7214 I-0.1184 J0.6916
G02 X9.4698 Y34.8696 I0.2467 J0.6988
G02 X9.3072 Y35.1129 I0.5303 J0.5303
G02 X9.2501 Y35.3999 I0.6929 J0.2870
G02 X9.3072 Y35.6869 I0.7500 J0.0000
G02 X9.4698 Y35.9302 I0.6929 J-0.2870
G02 X9.7131 Y36.0927 I0.5303 J-0.5303
G02 X10.0001 Y36.1498 I0.2870 J-0.6929
G02 X10.2871 Y36.0927 I0.0000 J-0.7500
G02 X10.5304 Y35.9302 I-0.2870 J-0.6929
G02 X10.6930 Y35.6869 I-0.5303 J-0.5303
G02 X10.7501 Y35.3999 I-0.6929 J-0.2870
G02 X9.6251 Y34.7504 I-0.7500 J0.0000
G02 Y36.0494 I0.3750 J0.6495
G02 X10.7501 Y35.3999 I0.3750 J-0.6495
G02 X9.5001 I-0.6250 J0.0000
G02 X10.5001 I0.5000 J0.0000
G02 X9.7501 Y34.9669 Z-0.5679 I-0.5000 J0.0000
G02 Y35.8329 Z-0.6500 I0.2500 J0.4330
G02 X10.5001 Y35.3999 Z-0.7321 I0.2500 J-0.4330
G02 X9.7501 Y34.9669 I-0.5000 J0.0000
G02 Y35.8329 I0.2500 J0.4330
G02 X10.5001 Y35.3999 I0.2500 J-0.4330
G02 X10.5053 Y35.1906 I-0.4981 J-0.1172
G02 X10.4199 Y34.9800 I-0.5502 J0.1005
G02 X10.2453 Y34.8080 I-0.5043 J0.3375
G02 X10.0001 Y34.7124 I-0.3555 J0.5493
G02 X9.7191 Y34.7214 I-0.1184 J0.6916
G02 X9.4698 Y34.8696 I0.2467 J0.6988
G02 X9.3072 Y35.1129 I0.5303 J0.5303
G02 X9.2501 Y35.3999 I0.6929 J0.2870
G02 X9.3072 Y35.6869 I0.7500 J0.0000
G02 X9.4698 Y35.9302 I0.6929 J-0.2870
G02 X9.7131 Y36.0927 I0.5303 J-0.5303
G02 X10.0001 Y36.1498 I0.2870 J-0.6929
G02 X10.2871 Y36.0927 I0.0000 J-0.7500
G02 X10.5304 Y35.9302 I-0.2870 J-0.6929
G02 X10.6930 Y35.6869 I-0.5303 J-0.5303
G02 X10.7501 Y35.3999 I-0.6929 J-0.2870
G02 X9.6251 Y34.7504 I-0.7500 J0.0000
G02 Y36.0494 I0.3750 J0.6495
G02 X10.7501 Y35.3999 I0.3750 J-0.6495
G02 X9.5001 I-0.6250 J0.0000
G02 X10.5001 I0.5000 J0.0000
G02 X9.7501 Y34.9669 Z-0.8143 I-0.5000 J0.0000
G02 Y35.8329 Z-0.8964 I0.2500 J0.4330
G02 X10.5001 Y35.3999 Z-0.9786 I0.2500 J-0.4330
G02 X9.7501 Y34.9669 I-0.5000 J0.0000
G02 Y35.8329 I0.2500 J0.4330
G02 X10.5001 Y35.3999 I0.2500 J-0.4330
G02 X10.5053 Y35.1906 I-0.4981 J-0.1172
G02 X10.4199 Y34.9800 I-0.5502 J0.1005
G02 X10.2453 Y34.8080 I-0.5043 J0.3375
G02 X10.0001 Y34.7124 I-0.3555 J0.5493
G02 X9.7191 Y34.7214 I-0.1184 J0.6916
G02 X9.4698 Y34.8696 I0.2467 J0.6988
G02 X9.3072 Y35.1129 I0.5303 J0.5303
G02 X9.2501 Y35.3999 I0.6929 J0.2870
G02 X9.3072 Y35.6869 I0.7500 J0.0000
G02 X9.4698 Y35.9302 I0.6929 J-0.2870
G02 X9.7131 Y36.0927 I0.5303 J-0.5303
G02 X10.0001 Y36.1498 I0.2870 J-0.6929
G02 X10.2871 Y36.0927 I0.0000 J-0.7500
G02 X10.5304 Y35.9302 I-0.2870 J-0.6929
G02 X10.6930 Y35.6869 I-0.5303 J-0.5303
G02 X10.7501 Y35.3999 I-0.6929 J-0.2870
G02 X9.6251 Y34.7504 I-0.7500 J0.0000
G02 Y36.0494 I0.3750 J0.6495
G02 X10.7501 Y35.3999 I0.3750 J-0.6495
G02 X9.5001 I-0.6250 J0.0000
G02 X10.5001 I0.5000 J0.0000
G02 X9.7501 Y34.9669 Z-1.0607 I-0.5000 J0.0000
G02 Y35.8329 Z-1.1429 I0.2500 J0.4330
G02 X10.5001 Y35.3999 Z-1.2250 I0.2500 J-0.4330
G02 X9.7501 Y34.9669 I-0.5000 J0.0000
G02 Y35.8329 I0.2500 J0.4330
G02 X10.5001 Y35.3999 I0.2500 J-0.4330
G02 X10.5053 Y35.1906 I-0.4981 J-0.1172
G02 X10.4199 Y34.9800 I-0.5502 J0.1005
G02 X10.2453 Y34.8080 I-0.5043 J0.3375
G02 X10.0001 Y34.7124 I-0.3555 J0.5493
G02 X9.7191 Y34.7214 I-0.1184 J0.6916
G02 X9.4698 Y34.8696 I0.2467 J0.6988
G02 X9.3072 Y35.1129 I0.5303 J0.5303
G02 X9.2501 Y35.3999 I0.6929 J0.2870
G02 X9.3072 Y35.6869 I0.7500 J0.0000
G02 X9.4698 Y35.9302 I0.6929 J-0.2870
G02 X9.7131 Y36.0927 I0.5303 J-0.5303
G02 X10.0001 Y36.1498 I0.2870 J-0.6929
G02 X10.2871 Y36.0927 I0.0000 J-0.7500
G02 X10.5304 Y35.9302 I-0.2870 J-0.6929
G02 X10.6930 Y35.6869 I-0.5303 J-0.5303
G02 X10.7501 Y35.3999 I-0.6929 J-0.2870
G02 X9.6251 Y34.7504 I-0.7500 J0.0000
G02 Y36.0494 I0.3750 J0.6495
G02 X10.7501 Y35.3999 I0.3750 J-0.6495
G02 X9.5001 I-0.6250 J0.0000
G02 X10.5001 I0.5000 J0.0000
G02 X9.7501 Y34.9669 Z-1.3071 I-0.5000 J0.0000
G02 Y35.8329 Z-1.3893 I0.2500 J0.4330
G02 X10.5001 Y35.3999 Z-1.4714 I0.2500 J-0.4330
G02 X9.7501 Y34.9669 I-0.5000 J0.0000
G02 Y35.8329 I0.2500 J0.4330
G02 X10.5001 Y35.3999 I0.2500 J-0.4330
G02 X10.5053 Y35.1906 I-0.4981 J-0.1172
G02 X10.4199 Y34.9800 I-0.5502 J0.1005
G02 X10.2453 Y34.8080 I-0.5043 J0.3375
G02 X10.0001 Y34.7124 I-0.3555 J0.5493
G02 X9.7191 Y34.7214 I-0.1184 J0.6916
G02 X9.4698 Y34.8696 I0.2467 J0.6988
G02 X9.3072 Y35.1129 I0.5303 J0.5303
G02 X9.2501 Y35.3999 I0.6929 J0.2870
G02 X9.3072 Y35.6869 I0.7500 J0.0000
G02 X9.4698 Y35.9302 I0.6929 J-0.2870
G02 X9.7131 Y36.0927 I0.5303 J-0.5303
G02 X10.0001 Y36.1498 I0.2870 J-0.6929
G02 X10.2871 Y36.0927 I0.0000 J-0.7500
G02 X10.5304 Y35.9302 I-0.2870 J-0.6929
G02 X10.6930 Y35.6869 I-0.5303 J-0.5303
G02 X10.7501 Y35.3999 I-0.6929 J-0.2870
G02 X9.6251 Y34.7504 I-0.7500 J0.0000
G02 Y36.0494 I0.3750 J0.6495
G02 X10.7501 Y35.3999 I0.3750 J-0.6495
G02 X9.5001 I-0.6250 J0.0000
G02 X10.5001 I0.5000 J0.0000
G02 X9.7501 Y34.9669 Z-1.5536 I-0.5000 J0.0000
G02 Y35.8329 Z-1.6357 I0.2500 J0.4330
G02 X10.5001 Y35.3999 Z-1.7179 I0.2500 J-0.4330
G02 X9.7501 Y34.9669 I-0.5000 J0.0000
G02 Y35.8329 I0.2500 J0.4330
G02 X10.5001 Y35.3999 I0.2500 J-0.4330
G02 X10.5053 Y35.1906 I-0.4981 J-0.1172
G02 X10.4199 Y34.9800 I-0.5502 J0.1005
G02 X10.2453 Y34.8080 I-0.5043 J0.3375
G02 X10.0001 Y34.7124 I-0.3555 J0.5493
G02 X9.7191 Y34.7214 I-0.1184 J0.6916
G02 X9.4698 Y34.8696 I0.2467 J0.6988
G02 X9.3072 Y35.1129 I0.5303 J0.5303
G02 X9.2501 Y35.3999 I0.6929 J0.2870
G02 X9.3072 Y35.6869 I0.7500 J0.0000
G02 X9.4698 Y35.9302 I0.6929 J-0.2870
G02 X9.7131 Y36.0927 I0.5303 J-0.5303
G02 X10.0001 Y36.1498 I0.2870 J-0.6929
G02 X10.2871 Y36.0927 I0.0000 J-0.7500
G02 X10.5304 Y35.9302 I-0.2870 J-0.6929
G02 X10.6930 Y35.6869 I-0.5303 J-0.5303
G02 X10.7501 Y35.3999 I-0.6929 J-0.2870
G02 X9.6251 Y34.7504 I-0.7500 J0.0000
G02 Y36.0494 I0.3750 J0.6495
G02 X10.7501 Y35.3999 I0.3750 J-0.6495
G02 X9.5001 I-0.6250 J0.0000
G02 X10.5001 I0.5000 J0.0000
G02 X9.7501 Y34.9669 Z-1.8000 I-0.5000 J0.0000
G02 Y35.8329 Z-1.8821 I0.2500 J0.4330
G02 X10.5001 Y35.3999 Z-1.9643 I0.2500 J-0.4330
G02 X9.7501 Y34.9669 I-0.5000 J0.0000
G02 Y35.8329 I0.2500 J0.4330
G02 X10.5001 Y35.3999 I0.2500 J-0.4330
G02 X10.5053 Y35.1906 I-0.4981 J-0.1172
G02 X10.4199 Y34.9800 I-0.5502 J0.1005
G02 X10.2453 Y34.8080 I-0.5043 J0.3375
G02 X10.0001 Y34.7124 I-0.3555 J0.5493
G02 X9.7191 Y34.7214 I-0.1184 J0.6916
G02 X9.4698 Y34.8696 I0.2467 J0.6988
G02 X9.3072 Y35.1129 I0.5303 J0.5303
G02 X9.2501 Y35.3999 I0.6929 J0.2870
G02 X9.3072 Y35.6869 I0.7500 J0.0000
G02 X9.4698 Y35.9302 I0.6929 J-0.2870
G02 X9.7131 Y36.0927 I0.5303 J-0.5303
G02 X10.0001 Y36.1498 I0.2870 J-0.6929
G02 X10.2871 Y36.0927 I0.0000 J-0.7500
G02 X10.5304 Y35.9302 I-0.2870 J-0.6929
G02 X10.6930 Y35.6869 I-0.5303 J-0.5303
G02 X10.7501 Y35.3999 I-0.6929 J-0.2870
G02 X9.6251 Y34.7504 I-0.7500 J0.0000
G02 Y36.0494 I0.3750 J0.6495
G02 X10.7501 Y35.3999 I0.3750 J-0.6495
G02 X9.5001 I-0.6250 J0.0000
G02 X10.5001 I0.5000 J0.0000
G02 X9.7501 Y34.9669 Z-2.0464 I-0.5000 J0.0000
G02 Y35.8329 Z-2.1286 I0.2500 J0.4330
G02 X10.5001 Y35.3999 Z-2.2107 I0.2500 J-0.4330
G02 X9.7501 Y34.9669 I-0.5000 J0.0000
G02 Y35.8329 I0.2500 J0.4330
G02 X10.5001 Y35.3999 I0.2500 J-0.4330
G02 X10.5053 Y35.1906 I-0.4981 J-0.1172
G02 X10.4199 Y34.9800 I-0.5502 J0.1005
G02 X10.2453 Y34.8080 I-0.5043 J0.3375
G02 X10.0001 Y34.7124 I-0.3555 J0.5493
G02 X9.7191 Y34.7214 I-0.1184 J0.6916
G02 X9.4698 Y34.8696 I0.2467 J0.6988
G02 X9.3072 Y35.1129 I0.5303 J0.5303
G02 X9.2501 Y35.3999 I0.6929 J0.2870
G02 X9.3072 Y35.6869 I0.7500 J0.0000
G02 X9.4698 Y35.9302 I0.6929 J-0.2870
G02 X9.7131 Y36.0927 I0.5303 J-0.5303
G02 X10.0001 Y36.1498 I0.2870 J-0.6929
G02 X10.2871 Y36.0927 I0.0000 J-0.7500
G02 X10.5304 Y35.9302 I-0.2870 J-0.6929
G02 X10.6930 Y35.6869 I-0.5303 J-0.5303
G02 X10.7501 Y35.3999 I-0.6929 J-0.2870
G02 X9.6251 Y34.7504 I-0.7500 J0.0000
G02 Y36.0494 I0.3750 J0.6495
G02 X10.7501 Y35.3999 I0.3750 J-0.6495
G02 X9.5001 I-0.6250 J0.0000
G02 X10.5001 I0.5000 J0.0000
G02 X9.7501 Y34.9669 Z-2.2929 I-0.5000 J0.0000
G02 Y35.8329 Z-2.3750 I0.2500 J0.4330
G02 X10.5001 Y35.3999 Z-2.4571 I0.2500 J-0.4330
G02 X9.7501 Y34.9669 I-0.5000 J0.0000
G02 Y35.8329 I0.2500 J0.4330
G02 X10.5001 Y35.3999 I0.2500 J-0.4330
G02 X10.5053 Y35.1906 I-0.4981 J-0.1172
G02 X10.4199 Y34.9800 I-0.5502 J0.1005
G02 X10.2453 Y34.8080 I-0.5043 J0.3375
G02 X10.0001 Y34.7124 I-0.3555 J0.5493
G02 X9.7191 Y34.7214 I-0.1184 J0.6916
G02 X9.4698 Y34.8696 I0.2467 J0.6988
G02 X9.3072 Y35.1129 I0.5303 J0.5303
G02 X9.2501 Y35.3999 I0.6929 J0.2870
G02 X9.3072 Y35.6869 I0.7500 J0.0000
G02 X9.4698 Y35.9302 I0.6929 J-0.2870
G02 X9.7131 Y36.0927 I0.5303 J-0.5303
G02 X10.0001 Y36.1498 I0.2870 J-0.6929
G02 X10.2871 Y36.0927 I0.0000 J-0.7500
G02 X10.5304 Y35.9302 I-0.2870 J-0.6929
G02 X10.6930 Y35.6869 I-0.5303 J-0.5303
G02 X10.7501 Y35.3999 I-0.6929 J-0.2870
G02 X9.6251 Y34.7504 I-0.7500 J0.0000
G02 Y36.0494 I0.3750 J0.6495
G02 X10.7501 Y35.3999 I0.3750 J-0.6495
G02 X9.5001 I-0.6250 J0.0000
G02 X10.5001 I0.5000 J0.0000
G02 X9.7501 Y34.9669 Z-2.5393 I-0.5000 J0.0000
G02 Y35.8329 Z-2.6214 I0.2500 J0.4330
G02 X10.5001 Y35.3999 Z-2.7036 I0.2500 J-0.4330
G02 X9.7501 Y34.9669 I-0.5000 J0.0000
G02 Y35.8329 I0.2500 J0.4330
G02 X10.5001 Y35.3999 I0.2500 J-0.4330
G02 X10.5053 Y35.1906 I-0.4981 J-0.1172
G02 X10.4199 Y34.9800 I-0.5502 J0.1005
G02 X10.2453 Y34.8080 I-0.5043 J0.3375
G02 X10.0001 Y34.7124 I-0.3555 J0.5493
G02 X9.7191 Y34.7214 I-0.1184 J0.6916
G02 X9.4698 Y34.8696 I0.2467 J0.6988
G02 X9.3072 Y35.1129 I0.5303 J0.5303
G02 X9.2501 Y35.3999 I0.6929 J0.2870
G02 X9.3072 Y35.6869 I0.7500 J0.0000
G02 X9.4698 Y35.9302 I0.6929 J-0.2870
G02 X9.7131 Y36.0927 I0.5303 J-0.5303
G02 X10.0001 Y36.1498 I0.2870 J-0.6929
G02 X10.2871 Y36.0927 I0.0000 J-0.7500
G02 X10.5304 Y35.9302 I-0.2870 J-0.6929
G02 X10.6930 Y35.6869 I-0.5303 J-0.5303
G02 X10.7501 Y35.3999 I-0.6929 J-0.2870
G02 X9.6251 Y34.7504 I-0.7500 J0.0000
G02 Y36.0494 I0.3750 J0.6495
G02 X10.7501 Y35.3999 I0.3750 J-0.6495
G02 X9.5001 I-0.6250 J0.0000
G02 X10.5001 I0.5000 J0.0000
G02 X9.7501 Y34.9669 Z-2.7857 I-0.5000 J0.0000
G02 Y35.8329 Z-2.8679 I0.2500 J0.4330
G02 X10.5001 Y35.3999 Z-2.9500 I0.2500 J-0.4330
G02 X9.7501 Y34.9669 I-0.5000 J0.0000
G02 Y35.8329 I0.2500 J0.4330
G02 X10.5001 Y35.3999 I0.2500 J-0.4330
G02 X10.5053 Y35.1906 I-0.4981 J-0.1172
G02 X10.4199 Y34.9800 I-0.5502 J0.1005
G02 X10.2453 Y34.8080 I-0.5043 J0.3375
G02 X10.0001 Y34.7124 I-0.3555 J0.5493
G02 X9.7191 Y34.7214 I-0.1184 J0.6916
G02 X9.4698 Y34.8696 I0.2467 J0.6988
G02 X9.3072 Y35.1129 I0.5303 J0.5303
G02 X9.2501 Y35.3999 I0.6929 J0.2870
G02 X9.3072 Y35.6869 I0.7500 J0.0000
G02 X9.4698 Y35.9302 I0.6929 J-0.2870
G02 X9.7131 Y36.0927 I0.5303 J-0.5303
G02 X10.0001 Y36.1498 I0.2870 J-0.6929
G02 X10.2871 Y36.0927 I0.0000 J-0.7500
G02 X10.5304 Y35.9302 I-0.2870 J-0.6929
G02 X10.6930 Y35.6869 I-0.5303 J-0.5303
G02 X10.7501 Y35.3999 I-0.6929 J-0.2870
G02 X9.6251 Y34.7504 I-0.7500 J0.0000
G02 Y36.0494 I0.3750 J0.6495
G02 X10.7501 Y35.3999 I0.3750 J-0.6495
G02 X9.5001 I-0.6250 J0.0000
G02 X10.5001 I0.5000 J0.0000
G02 X9.7501 Y34.9669 Z-3.0321 I-0.5000 J0.0000
G02 Y35.8329 Z-3.1143 I0.2500 J0.4330
G02 X10.5001 Y35.3999 Z-3.1964 I0.2500 J-0.4330
G02 X9.7501 Y34.9669 I-0.5000 J0.0000
G02 Y35.8329 I0.2500 J0.4330
G02 X10.5001 Y35.3999 I0.2500 J-0.4330
G02 X10.5053 Y35.1906 I-0.4981 J-0.1172
G02 X10.4199 Y34.9800 I-0.5502 J0.1005
G02 X10.2453 Y34.8080 I-0.5043 J0.3375
G02 X10.0001 Y34.7124 I-0.3555 J0.5493
G02 X9.7191 Y34.7214 I-0.1184 J0.6916
G02 X9.4698 Y34.8696 I0.2467 J0.6988
G02 X9.3072 Y35.1129 I0.5303 J0.5303
G02 X9.2501 Y35.3999 I0.6929 J0.2870
G02 X9.3072 Y35.6869 I0.7500 J0.0000
G02 X9.4698 Y35.9302 I0.6929 J-0.2870
G02 X9.7131 Y36.0927 I0.5303 J-0.5303
G02 X10.0001 Y36.1498 I0.2870 J-0.6929
G02 X10.2871 Y36.0927 I0.0000 J-0.7500
G02 X10.5304 Y35.9302 I-0.2870 J-0.6929
G02 X10.6930 Y35.6869 I-0.5303 J-0.5303
G02 X10.7501 Y35.3999 I-0.6929 J-0.2870
G02 X9.6251 Y34.7504 I-0.7500 J0.0000
G02 Y36.0494 I0.3750 J0.6495
G02 X10.7501 Y35.3999 I0.3750 J-0.6495
G02 X9.5001 I-0.6250 J0.0000
G02 X10.5001 I0.5000 J0.0000
G02 X9.7501 Y34.9669 Z-3.2786 I-0.5000 J0.0000
G02 Y35.8329 Z-3.3607 I0.2500 J0.4330
G02 X10.5001 Y35.3999 Z-3.4429 I0.2500 J-0.4330
G02 X9.7501 Y34.9669 I-0.5000 J0.0000
G02 Y35.8329 I0.2500 J0.4330
G02 X10.5001 Y35.3999 I0.2500 J-0.4330
G02 X10.5053 Y35.1906 I-0.4981 J-0.1172
G02 X10.4199 Y34.9800 I-0.5502 J0.1005
G02 X10.2453 Y34.8080 I-0.5043 J0.3375
G02 X10.0001 Y34.7124 I-0.3555 J0.5493
G02 X9.7191 Y34.7214 I-0.1184 J0.6916
G02 X9.4698 Y34.8696 I0.2467 J0.6988
G02 X9.3072 Y35.1129 I0.5303 J0.5303
G02 X9.2501 Y35.3999 I0.6929 J0.2870
G02 X9.3072 Y35.6869 I0.7500 J0.0000
G02 X9.4698 Y35.9302 I0.6929 J-0.2870
G02 X9.7131 Y36.0927 I0.5303 J-0.5303
G02 X10.0001 Y36.1498 I0.2870 J-0.6929
G02 X10.2871 Y36.0927 I0.0000 J-0.7500
G02 X10.5304 Y35.9302 I-0.2870 J-0.6929
G02 X10.6930 Y35.6869 I-0.5303 J-0.5303
G02 X10.7501 Y35.3999 I-0.6929 J-0.2870
G02 X9.6251 Y34.7504 I-0.7500 J0.0000
G02 Y36.0494 I0.3750 J0.6495
G02 X10.7501 Y35.3999 I0.3750 J-0.6495
G02 X9.5001 I-0.6250 J0.0000
G02 X10.5001 I0.5000 J0.0000
G02 X9.7501 Y34.9669 Z-3.5250 I-0.5000 J0.0000
G02 Y35.8329 Z-3.6071 I0.2500 J0.4330
G02 X10.5001 Y35.3999 Z-3.6893 I0.2500 J-0.4330
G02 X9.7501 Y34.9669 I-0.5000 J0.0000
G02 Y35.8329 I0.2500 J0.4330
G02 X10.5001 Y35.3999 I0.2500 J-0.4330
G02 X10.5053 Y35.1906 I-0.4981 J-0.1172
G02 X10.4199 Y34.9800 I-0.5502 J0.1005
G02 X10.2453 Y34.8080 I-0.5043 J0.3375
G02 X10.0001 Y34.7124 I-0.3555 J0.5493
G02 X9.7191 Y34.7214 I-0.1184 J0.6916
G02 X9.4698 Y34.8696 I0.2467 J0.6988
G02 X9.3072 Y35.1129 I0.5303 J0.5303
G02 X9.2501 Y35.3999 I0.6929 J0.2870
G02 X9.3072 Y35.6869 I0.7500 J0.0000
G02 X9.4698 Y35.9302 I0.6929 J-0.2870
G02 X9.7131 Y36.0927 I0.5303 J-0.5303
G02 X10.0001 Y36.1498 I0.2870 J-0.6929
G02 X10.2871 Y36.0927 I0.0000 J-0.7500
G02 X10.5304 Y35.9302 I-0.2870 J-0.6929
G02 X10.6930 Y35.6869 I-0.5303 J-0.5303
G02 X10.7501 Y35.3999 I-0.6929 J-0.2870
G02 X9.6251 Y34.7504 I-0.7500 J0.0000
G02 Y36.0494 I0.3750 J0.6495
G02 X10.7501 Y35.3999 I0.3750 J-0.6495
G02 X9.5001 I-0.6250 J0.0000
G02 X10.5001 I0.5000 J0.0000
G02 X9.7501 Y34.9669 Z-3.7714 I-0.5000 J0.0000
G02 Y35.8329 Z-3.8536 I0.2500 J0.4330
G02 X10.5001 Y35.3999 Z-3.9357 I0.2500 J-0.4330
G02 X9.7501 Y34.9669 I-0.5000 J0.0000
G02 Y35.8329 I0.2500 J0.4330
G02 X10.5001 Y35.3999 I0.2500 J-0.4330
G02 X10.5053 Y35.1906 I-0.4981 J-0.1172
G02 X10.4199 Y34.9800 I-0.5502 J0.1005
G02 X10.2453 Y34.8080 I-0.5043 J0.3375
G02 X10.0001 Y34.7124 I-0.3555 J0.5493
G02 X9.7191 Y34.7214 I-0.1184 J0.6916
G02 X9.4698 Y34.8696 I0.2467 J0.6988
G02 X9.3072 Y35.1129 I0.5303 J0.5303
G02 X9.2501 Y35.3999 I0.6929 J0.2870
G02 X9.3072 Y35.6869 I0.7500 J0.0000
G02 X9.4698 Y35.9302 I0.6929 J-0.2870
G02 X9.7131 Y36.0927 I0.5303 J-0.5303
G02 X10.0001 Y36.1498 I0.2870 J-0.6929
G02 X10.2871 Y36.0927 I0.0000 J-0.7500
G02 X10.5304 Y35.9302 I-0.2870 J-0.6929
G02 X10.6930 Y35.6869 I-0.5303 J-0.5303
G02 X10.7501 Y35.3999 I-0.6929 J-0.2870
G02 X9.6251 Y34.7504 I-0.7500 J0.0000
G02 Y36.0494 I0.3750 J0.6495
G02 X10.7501 Y35.3999 I0.3750 J-0.6495
G02 X9.5001 I-0.6250 J0.0000
G02 X10.5001 I0.5000 J0.0000
G02 X9.7501 Y34.9669 Z-4.0179 I-0.5000 J0.0000
G02 Y35.8329 Z-4.1000 I0.2500 J0.4330
G02 X10.5001 Y35.3999 Z-4.1821 I0.2500 J-0.4330
G02 X9.7501 Y34.9669 I-0.5000 J0.0000
G02 Y35.8329 I0.2500 J0.4330
G02 X10.5001 Y35.3999 I0.2500 J-0.4330
G02 X10.5053 Y35.1906 I-0.4981 J-0.1172
G02 X10.4199 Y34.9800 I-0.5502 J0.1005
G02 X10.2453 Y34.8080 I-0.5043 J0.3375
G02 X10.0001 Y34.7124 I-0.3555 J0.5493
G02 X9.7191 Y34.7214 I-0.1184 J0.6916
G02 X9.4698 Y34.8696 I0.2467 J0.6988
G02 X9.3072 Y35.1129 I0.5303 J0.5303
G02 X9.2501 Y35.3999 I0.6929 J0.2870
G02 X9.3072 Y35.6869 I0.7500 J0.0000
G02 X9.4698 Y35.9302 I0.6929 J-0.2870
G02 X9.7131 Y36.0927 I0.5303 J-0.5303
G02 X10.0001 Y36.1498 I0.2870 J-0.6929
G02 X10.2871 Y36.0927 I0.0000 J-0.7500
G02 X10.5304 Y35.9302 I-0.2870 J-0.6929
G02 X10.6930 Y35.6869 I-0.5303 J-0.5303
G02 X10.7501 Y35.3999 I-0.6929 J-0.2870
G02 X9.6251 Y34.7504 I-0.7500 J0.0000
G02 Y36.0494 I0.3750 J0.6495
G02 X10.7501 Y35.3999 I0.3750 J-0.6495
G02 X9.5001 I-0.6250 J0.0000
G02 X10.5001 I0.5000 J0.0000
G02 X9.7501 Y34.9669 Z-4.2643 I-0.5000 J0.0000
G02 Y35.8329 Z-4.3464 I0.2500 J0.4330
G02 X10.5001 Y35.3999 Z-4.4286 I0.2500 J-0.4330
G02 X9.7501 Y34.9669 I-0.5000 J0.0000
G02 Y35.8329 I0.2500 J0.4330
G02 X10.5001 Y35.3999 I0.2500 J-0.4330
G02 X10.5053 Y35.1906 I-0.4981 J-0.1172
G02 X10.4199 Y34.9800 I-0.5502 J0.1005
G02 X10.2453 Y34.8080 I-0.5043 J0.3375
G02 X10.0001 Y34.7124 I-0.3555 J0.5493
G02 X9.7191 Y34.7214 I-0.1184 J0.6916
G02 X9.4698 Y34.8696 I0.2467 J0.6988
G02 X9.3072 Y35.1129 I0.5303 J0.5303
G02 X9.2501 Y35.3999 I0.6929 J0.2870
G02 X9.3072 Y35.6869 I0.7500 J0.0000
G02 X9.4698 Y35.9302 I0.6929 J-0.2870
G02 X9.7131 Y36.0927 I0.5303 J-0.5303
G02 X10.0001 Y36.1498 I0.2870 J-0.6929
G02 X10.2871 Y36.0927 I0.0000 J-0.7500
G02 X10.5304 Y35.9302 I-0.2870 J-0.6929
G02 X10.6930 Y35.6869 I-0.5303 J-0.5303
G02 X10.7501 Y35.3999 I-0.6929 J-0.2870
G02 X9.6251 Y34.7504 I-0.7500 J0.0000
G02 Y36.0494 I0.3750 J0.6495
G02 X10.7501 Y35.3999 I0.3750 J-0.6495
G02 X9.5001 I-0.6250 J0.0000
G02 X10.5001 I0.5000 J0.0000
G02 X9.7501 Y34.9669 Z-4.5107 I-0.5000 J0.0000
G02 Y35.8329 Z-4.5929 I0.2500 J0.4330
G02 X10.5001 Y35.3999 Z-4.6750 I0.2500 J-0.4330
G02 X9.7501 Y34.9669 I-0.5000 J0.0000
G02 Y35.8329 I0.2500 J0.4330
G02 X10.5001 Y35.3999 I0.2500 J-0.4330
G02 X10.5053 Y35.1906 I-0.4981 J-0.1172
G02 X10.4199 Y34.9800 I-0.5502 J0.1005
G02 X10.2453 Y34.8080 I-0.5043 J0.3375
G02 X10.0001 Y34.7124 I-0.3555 J0.5493
G02 X9.7191 Y34.7214 I-0.1184 J0.6916
G02 X9.4698 Y34.8696 I0.2467 J0.6988
G02 X9.3072 Y35.1129 I0.5303 J0.5303
G02 X9.2501 Y35.3999 I0.6929 J0.2870
G02 X9.3072 Y35.6869 I0.7500 J0.0000
G02 X9.4698 Y35.9302 I0.6929 J-0.2870
G02 X9.7131 Y36.0927 I0.5303 J-0.5303
G02 X10.0001 Y36.1498 I0.2870 J-0.6929
G02 X10.2871 Y36.0927 I0.0000 J-0.7500
G02 X10.5304 Y35.9302 I-0.2870 J-0.6929
G02 X10.6930 Y35.6869 I-0.5303 J-0.5303
G02 X10.7501 Y35.3999 I-0.6929 J-0.2870
G02 X9.6251 Y34.7504 I-0.7500 J0.0000
G02 Y36.0494 I0.3750 J0.6495
G02 X10.7501 Y35.3999 I0.3750 J-0.6495
G02 X9.5001 I-0.6250 J0.0000
G02 X10.5001 I0.5000 J0.0000
G02 X9.7501 Y34.9669 Z-4.7571 I-0.5000 J0.0000
G02 Y35.8329 Z-4.8393 I0.2500 J0.4330
G02 X10.5001 Y35.3999 Z-4.9214 I0.2500 J-0.4330
G02 X9.7501 Y34.9669 I-0.5000 J0.0000
G02 Y35.8329 I0.2500 J0.4330
G02 X10.5001 Y35.3999 I0.2500 J-0.4330
G02 X10.5053 Y35.1906 I-0.4981 J-0.1172
G02 X10.4199 Y34.9800 I-0.5502 J0.1005
G02 X10.2453 Y34.8080 I-0.5043 J0.3375
G02 X10.0001 Y34.7124 I-0.3555 J0.5493
G02 X9.7191 Y34.7214 I-0.1184 J0.6916
G02 X9.4698 Y34.8696 I0.2467 J0.6988
G02 X9.3072 Y35.1129 I0.5303 J0.5303
G02 X9.2501 Y35.3999 I0.6929 J0.2870
G02 X9.3072 Y35.6869 I0.7500 J0.0000
G02 X9.4698 Y35.9302 I0.6929 J-0.2870
G02 X9.7131 Y36.0927 I0.5303 J-0.5303
G02 X10.0001 Y36.1498 I0.2870 J-0.6929
G02 X10.2871 Y36.0927 I0.0000 J-0.7500
G02 X10.5304 Y35.9302 I-0.2870 J-0.6929
G02 X10.6930 Y35.6869 I-0.5303 J-0.5303
G02 X10.7501 Y35.3999 I-0.6929 J-0.2870
G02 X9.6251 Y34.7504 I-0.7500 J0.0000
G02 Y36.0494 I0.3750 J0.6495
G02 X10.7501 Y35.3999 I0.3750 J-0.6495
G02 X9.5001 I-0.6250 J0.0000
G02 X10.5001 I0.5000 J0.0000
G02 X9.7501 Y34.9669 Z-5.0036 I-0.5000 J0.0000
G02 Y35.8329 Z-5.0857 I0.2500 J0.4330
G02 X10.5001 Y35.3999 Z-5.1679 I0.2500 J-0.4330
G02 X9.7501 Y34.9669 I-0.5000 J0.0000
G02 Y35.8329 I0.2500 J0.4330
G02 X10.5001 Y35.3999 I0.2500 J-0.4330
G02 X10.5053 Y35.1906 I-0.4981 J-0.1172
G02 X10.4199 Y34.9800 I-0.5502 J0.1005
G02 X10.2453 Y34.8080 I-0.5043 J0.3375
G02 X10.0001 Y34.7124 I-0.3555 J0.5493
G02 X9.7191 Y34.7214 I-0.1184 J0.6916
G02 X9.4698 Y34.8696 I0.2467 J0.6988
G02 X9.3072 Y35.1129 I0.5303 J0.5303
G02 X9.2501 Y35.3999 I0.6929 J0.2870
G02 X9.3072 Y35.6869 I0.7500 J0.0000
G02 X9.4698 Y35.9302 I0.6929 J-0.2870
G02 X9.7131 Y36.0927 I0.5303 J-0.5303
G02 X10.0001 Y36.1498 I0.2870 J-0.6929
G02 X10.2871 Y36.0927 I0.0000 J-0.7500
G02 X10.5304 Y35.9302 I-0.2870 J-0.6929
G02 X10.6930 Y35.6869 I-0.5303 J-0.5303
G02 X10.7501 Y35.3999 I-0.6929 J-0.2870
G02 X9.6251 Y34.7504 I-0.7500 J0.0000
G02 Y36.0494 I0.3750 J0.6495
G02 X10.7501 Y35.3999 I0.3750 J-0.6495
G02 X9.5001 I-0.6250 J0.0000
G02 X10.5001 I0.5000 J0.0000
G02 X9.7501 Y34.9669 Z-5.2500 I-0.5000 J0.0000
G02 Y35.8329 Z-5.3321 I0.2500 J0.4330
G02 X10.5001 Y35.3999 Z-5.4143 I0.2500 J-0.4330
G02 X9.7501 Y34.9669 I-0.5000 J0.0000
G02 Y35.8329 I0.2500 J0.4330
G02 X10.5001 Y35.3999 I0.2500 J-0.4330
G02 X10.5053 Y35.1906 I-0.4981 J-0.1172
G02 X10.4199 Y34.9800 I-0.5502 J0.1005
G02 X10.2453 Y34.8080 I-0.5043 J0.3375
G02 X10.0001 Y34.7124 I-0.3555 J0.5493
G02 X9.7191 Y34.7214 I-0.1184 J0.6916
G02 X9.4698 Y34.8696 I0.2467 J0.6988
G02 X9.3072 Y35.1129 I0.5303 J0.5303
G02 X9.2501 Y35.3999 I0.6929 J0.2870
G02 X9.3072 Y35.6869 I0.7500 J0.0000
G02 X9.4698 Y35.9302 I0.6929 J-0.2870
G02 X9.7131 Y36.0927 I0.5303 J-0.5303
G02 X10.0001 Y36.1498 I0.2870 J-0.6929
G02 X10.2871 Y36.0927 I0.0000 J-0.7500
G02 X10.5304 Y35.9302 I-0.2870 J-0.6929
G02 X10.6930 Y35.6869 I-0.5303 J-0.5303
G02 X10.7501 Y35.3999 I-0.6929 J-0.2870
G02 X9.6251 Y34.7504 I-0.7500 J0.0000
G02 Y36.0494 I0.3750 J0.6495
G02 X10.7501 Y35.3999 I0.3750 J-0.6495
G02 X9.5001 I-0.6250 J0.0000
G02 X10.5001 I0.5000 J0.0000
G02 X9.7501 Y34.9669 Z-5.4964 I-0.5000 J0.0000
G02 Y35.8329 Z-5.5786 I0.2500 J0.4330
G02 X10.5001 Y35.3999 Z-5.6607 I0.2500 J-0.4330
G02 X9.7501 Y34.9669 I-0.5000 J0.0000
G02 Y35.8329 I0.2500 J0.4330
G02 X10.5001 Y35.3999 I0.2500 J-0.4330
G02 X10.5053 Y35.1906 I-0.4981 J-0.1172
G02 X10.4199 Y34.9800 I-0.5502 J0.1005
G02 X10.2453 Y34.8080 I-0.5043 J0.3375
G02 X10.0001 Y34.7124 I-0.3555 J0.5493
G02 X9.7191 Y34.7214 I-0.1184 J0.6916
G02 X9.4698 Y34.8696 I0.2467 J0.6988
G02 X9.3072 Y35.1129 I0.5303 J0.5303
G02 X9.2501 Y35.3999 I0.6929 J0.2870
G02 X9.3072 Y35.6869 I0.7500 J0.0000
G02 X9.4698 Y35.9302 I0.6929 J-0.2870
G02 X9.7131 Y36.0927 I0.5303 J-0.5303
G02 X10.0001 Y36.1498 I0.2870 J-0.6929
G02 X10.2871 Y36.0927 I0.0000 J-0.7500
G02 X10.5304 Y35.9302 I-0.2870 J-0.6929
G02 X10.6930 Y35.6869 I-0.5303 J-0.5303
G02 X10.7501 Y35.3999 I-0.6929 J-0.2870
G02 X9.6251 Y34.7504 I-0.7500 J0.0000
G02 Y36.0494 I0.3750 J0.6495
G02 X10.7501 Y35.3999 I0.3750 J-0.6495
G02 X9.5001 I-0.6250 J0.0000
G02 X10.5001 I0.5000 J0.0000
G02 X9.7501 Y34.9669 Z-5.7429 I-0.5000 J0.0000
G02 Y35.8329 Z-5.8250 I0.2500 J0.4330
G02 X10.5001 Y35.3999 Z-5.9071 I0.2500 J-0.4330
G02 X9.7501 Y34.9669 I-0.5000 J0.0000
G02 Y35.8329 I0.2500 J0.4330
G02 X10.5001 Y35.3999 I0.2500 J-0.4330
G02 X10.5053 Y35.1906 I-0.4981 J-0.1172
G02 X10.4199 Y34.9800 I-0.5502 J0.1005
G02 X10.2453 Y34.8080 I-0.5043 J0.3375
G02 X10.0001 Y34.7124 I-0.3555 J0.5493
G02 X9.7191 Y34.7214 I-0.1184 J0.6916
G02 X9.4698 Y34.8696 I0.2467 J0.6988
G02 X9.3072 Y35.1129 I0.5303 J0.5303
G02 X9.2501 Y35.3999 I0.6929 J0.2870
G02 X9.3072 Y35.6869 I0.7500 J0.0000
G02 X9.4698 Y35.9302 I0.6929 J-0.2870
G02 X9.7131 Y36.0927 I0.5303 J-0.5303
G02 X10.0001 Y36.1498 I0.2870 J-0.6929
G02 X10.2871 Y36.0927 I0.0000 J-0.7500
G02 X10.5304 Y35.9302 I-0.2870 J-0.6929
G02 X10.6930 Y35.6869 I-0.5303 J-0.5303
G02 X10.7501 Y35.3999 I-0.6929 J-0.2870
G02 X9.6251 Y34.7504 I-0.7500 J0.0000
G02 Y36.0494 I0.3750 J0.6495
G02 X10.7501 Y35.3999 I0.3750 J-0.6495
G02 X9.5001 I-0.6250 J0.0000
G02 X10.5001 I0.5000 J0.0000
G02 X9.7501 Y34.9669 Z-5.9893 I-0.5000 J0.0000
G02 Y35.8329 Z-6.0714 I0.2500 J0.4330
G02 X10.5001 Y35.3999 Z-6.1536 I0.2500 J-0.4330
G02 X9.7501 Y34.9669 I-0.5000 J0.0000
G02 Y35.8329 I0.2500 J0.4330
G02 X10.5001 Y35.3999 I0.2500 J-0.4330
G02 X10.5053 Y35.1906 I-0.4981 J-0.1172
G02 X10.4199 Y34.9800 I-0.5502 J0.1005
G02 X10.2453 Y34.8080 I-0.5043 J0.3375
G02 X10.0001 Y34.7124 I-0.3555 J0.5493
G02 X9.7191 Y34.7214 I-0.1184 J0.6916
G02 X9.4698 Y34.8696 I0.2467 J0.6988
G02 X9.3072 Y35.1129 I0.5303 J0.5303
G02 X9.2501 Y35.3999 I0.6929 J0.2870
G02 X9.3072 Y35.6869 I0.7500 J0.0000
G02 X9.4698 Y35.9302 I0.6929 J-0.2870
G02 X9.7131 Y36.0927 I0.5303 J-0.5303
G02 X10.0001 Y36.1498 I0.2870 J-0.6929
G02 X10.2871 Y36.0927 I0.0000 J-0.7500
G02 X10.5304 Y35.9302 I-0.2870 J-0.6929
G02 X10.6930 Y35.6869 I-0.5303 J-0.5303
G02 X10.7501 Y35.3999 I-0.6929 J-0.2870
G02 X9.6251 Y34.7504 I-0.7500 J0.0000
G02 Y36.0494 I0.3750 J0.6495
G02 X10.7501 Y35.3999 I0.3750 J-0.6495
G02 X9.5001 I-0.6250 J0.0000
G02 X10.5001 I0.5000 J0.0000
G02 X9.7501 Y34.9669 Z-6.2357 I-0.5000 J0.0000
G02 Y35.8329 Z-6.3179 I0.2500 J0.4330
G02 X10.5001 Y35.3999 Z-6.4000 I0.2500 J-0.4330
G02 X9.7501 Y34.9669 I-0.5000 J0.0000
G02 Y35.8329 I0.2500 J0.4330
G02 X10.5001 Y35.3999 I0.2500 J-0.4330
G02 X10.5053 Y35.1906 I-0.4981 J-0.1172
G02 X10.4199 Y34.9800 I-0.5502 J0.1005
G02 X10.2453 Y34.8080 I-0.5043 J0.3375
G02 X10.0001 Y34.7124 I-0.3555 J0.5493
G02 X9.7191 Y34.7214 I-0.1184 J0.6916
G02 X9.4698 Y34.8696 I0.2467 J0.6988
G02 X9.3072 Y35.1129 I0.5303 J0.5303
G02 X9.2501 Y35.3999 I0.6929 J0.2870
G02 X9.3072 Y35.6869 I0.7500 J0.0000
G02 X9.4698 Y35.9302 I0.6929 J-0.2870
G02 X9.7131 Y36.0927 I0.5303 J-0.5303
G02 X10.0001 Y36.1498 I0.2870 J-0.6929
G02 X10.2871 Y36.0927 I0.0000 J-0.7500
G02 X10.5304 Y35.9302 I-0.2870 J-0.6929
G02 X10.6930 Y35.6869 I-0.5303 J-0.5303
G02 X10.7501 Y35.3999 I-0.6929 J-0.2870
G02 X9.6251 Y34.7504 I-0.7500 J0.0000
G02 Y36.0494 I0.3750 J0.6495
G02 X10.7501 Y35.3999 I0.3750 J-0.6495
G02 X9.5001 I-0.6250 J0.0000
G02 X10.5001 I0.5000 J0.0000
G00 Z5.0000


(No. 2: Helical drill 34)
G00 X10.5000 Y60.7997 Z5.0000
G00 Z0.5000
G02 X9.7500 Y60.3667 Z0.4179 I-0.5000 J0.0000 F1200
G02 Y61.2327 Z0.3357 I0.2500 J0.4330
G02 X10.5000 Y60.7997 Z0.2536 I0.2500 J-0.4330
G02 X9.7500 Y60.3667 I-0.5000 J0.0000
G02 Y61.2327 I0.2500 J0.4330
G02 X10.5000 Y60.7997 I0.2500 J-0.4330
G02 X10.5053 Y60.5904 I-0.4981 J-0.1172
G02 X10.4199 Y60.3798 I-0.5502 J0.1005
G02 X10.2452 Y60.2078 I-0.5043 J0.3375
G02 X10.0000 Y60.1122 I-0.3555 J0.5493
G02 X9.7190 Y60.1212 I-0.1184 J0.6916
G02 X9.4699 Y60.2696 I0.2474 J0.6985
G02 X9.3074 Y60.5128 I0.5301 J0.5301
G02 X9.2504 Y60.7997 I0.6926 J0.2869
G02 X9.3074 Y61.0866 I0.7497 J0.0000
G02 X9.4699 Y61.3298 I0.6926 J-0.2869
G02 X9.7131 Y61.4923 I0.5301 J-0.5301
G02 X10.0000 Y61.5493 I0.2869 J-0.6926
G02 X10.2869 Y61.4923 I0.0000 J-0.7497
G02 X10.5301 Y61.3298 I-0.2869 J-0.6926
G02 X10.6926 Y61.0866 I-0.5301 J-0.5301
G02 X10.7497 Y60.7997 I-0.6926 J-0.2869
G02 X9.6252 Y60.1504 I-0.7497 J0.0000
G02 Y61.4489 I0.3748 J0.6492
G02 X10.7497 Y60.7997 I0.3748 J-0.6492
G02 X9.5000 I-0.6248 J0.0000
G02 X10.5000 I0.5000 J0.0000
G02 X9.7500 Y60.3667 Z0.1714 I-0.5000 J0.0000
G02 Y61.2327 Z0.0893 I0.2500 J0.4330
G02 X10.5000 Y60.7997 Z0.0071 I0.2500 J-0.4330
G02 X9.7500 Y60.3667 I-0.5000 J0.0000
G02 Y61.2327 I0.2500 J0.4330
G02 X10.5000 Y60.7997 I0.2500 J-0.4330
G02 X10.5053 Y60.5904 I-0.4981 J-0.1172
G02 X10.4199 Y60.3798 I-0.5502 J0.1005
G02 X10.2452 Y60.2078 I-0.5043 J0.3375
G02 X10.0000 Y60.1122 I-0.3555 J0.5493
G02 X9.7190 Y60.1212 I-0.1184 J0.6916
G02 X9.4699 Y60.2696 I0.2474 J0.6985
G02 X9.3074 Y60.5128 I0.5301 J0.5301
G02 X9.2504 Y60.7997 I0.6926 J0.2869
G02 X9.3074 Y61.0866 I0.7497 J0.0000
G02 X9.4699 Y61.3298 I0.6926 J-0.2869
G02 X9.7131 Y61.4923 I0.5301 J-0.5301
G02 X10.0000 Y61.5493 I0.2869 J-0.6926
G02 X10.2869 Y61.4923 I0.0000 J-0.7497
G02 X10.5301 Y61.3298 I-0.2869 J-0.6926
G02 X10.6926 Y61.0866 I-0.5301 J-0.5301
G02 X10.7497 Y60.7997 I-0.6926 J-0.2869
G02 X9.6252 Y60.1504 I-0.7497 J0.0000
G02 Y61.4489 I0.3748 J0.6492
G02 X10.7497 Y60.7997 I0.3748 J-0.6492
G02 X9.5000 I-0.6248 J0.0000
G02 X10.5000 I0.5000 J0.0000
G02 X9.7500 Y60.3667 Z-0.0750 I-0.5000 J0.0000
G02 Y61.2327 Z-0.1571 I0.2500 J0.4330
G02 X10.5000 Y60.7997 Z-0.2393 I0.2500 J-0.4330
G02 X9.7500 Y60.3667 I-0.5000 J0.0000
G02 Y61.2327 I0.2500 J0.4330
G02 X10.5000 Y60.7997 I0.2500 J-0.4330
G02 X10.5053 Y60.5904 I-0.4981 J-0.1172
G02 X10.4199 Y60.3798 I-0.5502 J0.1005
G02 X10.2452 Y60.2078 I-0.5043 J0.3375
G02 X10.0000 Y60.1122 I-0.3555 J0.5493
G02 X9.7190 Y60.1212 I-0.1184 J0.6916
G02 X9.4699 Y60.2696 I0.2474 J0.6985
G02 X9.3074 Y60.5128 I0.5301 J0.5301
G02 X9.2504 Y60.7997 I0.6926 J0.2869
G02 X9.3074 Y61.0866 I0.7497 J0.0000
G02 X9.4699 Y61.3298 I0.6926 J-0.2869
G02 X9.7131 Y61.4923 I0.5301 J-0.5301
G02 X10.0000 Y61.5493 I0.2869 J-0.6926
G02 X10.2869 Y61.4923 I0.0000 J-0.7497
G02 X10.5301 Y61.3298 I-0.2869 J-0.6926
G02 X10.6926 Y61.0866 I-0.5301 J-0.5301
G02 X10.7497 Y60.7997 I-0.6926 J-0.2869
G02 X9.6252 Y60.1504 I-0.7497 J0.0000
G02 Y61.4489 I0.3748 J0.6492
G02 X10.7497 Y60.7997 I0.3748 J-0.6492
G02 X9.5000 I-0.6248 J0.0000
G02 X10.5000 I0.5000 J0.0000
G02 X9.7500 Y60.3667 Z-0.3214 I-0.5000 J0.0000
G02 Y61.2327 Z-0.4036 I0.2500 J0.4330
G02 X10.5000 Y60.7997 Z-0.4857 I0.2500 J-0.4330
G02 X9.7500 Y60.3667 I-0.5000 J0.0000
G02 Y61.2327 I0.2500 J0.4330
G02 X10.5000 Y60.7997 I0.2500 J-0.4330
G02 X10.5053 Y60.5904 I-0.4981 J-0.1172
G02 X10.4199 Y60.3798 I-0.5502 J0.1005
G02 X10.2452 Y60.2078 I-0.5043 J0.3375
G02 X10.0000 Y60.1122 I-0.3555 J0.5493
G02 X9.7190 Y60.1212 I-0.1184 J0.6916
G02 X9.4699 Y60.2696 I0.2474 J0.6985
G02 X9.3074 Y60.5128 I0.5301 J0.5301
G02 X9.2504 Y60.7997 I0.6926 J0.2869
G02 X9.3074 Y61.0866 I0.7497 J0.0000
G02 X9.4699 Y61.3298 I0.6926 J-0.2869
G02 X9.7131 Y61.4923 I0.5301 J-0.5301
G02 X10.0000 Y61.5493 I0.2869 J-0.6926
G02 X10.2869 Y61.4923 I0.0000 J-0.7497
G02 X10.5301 Y61.3298 I-0.2869 J-0.6926
G02 X10.6926 Y61.0866 I-0.5301 J-0.5301
G02 X10.7497 Y60.7997 I-0.6926 J-0.2869
G02 X9.6252 Y60.1504 I-0.7497 J0.0000
G02 Y61.4489 I0.3748 J0.6492
G02 X10.7497 Y60.7997 I0.3748 J-0.6492
G02 X9.5000 I-0.6248 J0.0000
G02 X10.5000 I0.5000 J0.0000
G02 X9.7500 Y60.3667 Z-0.5679 I-0.5000 J0.0000
G02 Y61.2327 Z-0.6500 I0.2500 J0.4330
G02 X10.5000 Y60.7997 Z-0.7321 I0.2500 J-0.4330
G02 X9.7500 Y60.3667 I-0.5000 J0.0000
G02 Y61.2327 I0.2500 J0.4330
G02 X10.5000 Y60.7997 I0.2500 J-0.4330
G02 X10.5053 Y60.5904 I-0.4981 J-0.1172
G02 X10.4199 Y60.3798 I-0.5502 J0.1005
G02 X10.2452 Y60.2078 I-0.5043 J0.3375
G02 X10.0000 Y60.1122 I-0.3555 J0.5493
G02 X9.7190 Y60.1212 I-0.1184 J0.6916
G02 X9.4699 Y60.2696 I0.2474 J0.6985
G02 X9.3074 Y60.5128 I0.5301 J0.5301
G02 X9.2504 Y60.7997 I0.6926 J0.2869
G02 X9.3074 Y61.0866 I0.7497 J0.0000
G02 X9.4699 Y61.3298 I0.6926 J-0.2869
G02 X9.7131 Y61.4923 I0.5301 J-0.5301
G02 X10.0000 Y61.5493 I0.2869 J-0.6926
G02 X10.2869 Y61.4923 I0.0000 J-0.7497
G02 X10.5301 Y61.3298 I-0.2869 J-0.6926
G02 X10.6926 Y61.0866 I-0.5301 J-0.5301
G02 X10.7497 Y60.7997 I-0.6926 J-0.2869
G02 X9.6252 Y60.1504 I-0.7497 J0.0000
G02 Y61.4489 I0.3748 J0.6492
G02 X10.7497 Y60.7997 I0.3748 J-0.6492
G02 X9.5000 I-0.6248 J0.0000
G02 X10.5000 I0.5000 J0.0000
G02 X9.7500 Y60.3667 Z-0.8143 I-0.5000 J0.0000
G02 Y61.2327 Z-0.8964 I0.2500 J0.4330
G02 X10.5000 Y60.7997 Z-0.9786 I0.2500 J-0.4330
G02 X9.7500 Y60.3667 I-0.5000 J0.0000
G02 Y61.2327 I0.2500 J0.4330
G02 X10.5000 Y60.7997 I0.2500 J-0.4330
G02 X10.5053 Y60.5904 I-0.4981 J-0.1172
G02 X10.4199 Y60.3798 I-0.5502 J0.1005
G02 X10.2452 Y60.2078 I-0.5043 J0.3375
G02 X10.0000 Y60.1122 I-0.3555 J0.5493
G02 X9.7190 Y60.1212 I-0.1184 J0.6916
G02 X9.4699 Y60.2696 I0.2474 J0.6985
G02 X9.3074 Y60.5128 I0.5301 J0.5301
G02 X9.2504 Y60.7997 I0.6926 J0.2869
G02 X9.3074 Y61.0866 I0.7497 J0.0000
G02 X9.4699 Y61.3298 I0.6926 J-0.2869
G02 X9.7131 Y61.4923 I0.5301 J-0.5301
G02 X10.0000 Y61.5493 I0.2869 J-0.6926
G02 X10.2869 Y61.4923 I0.0000 J-0.7497
G02 X10.5301 Y61.3298 I-0.2869 J-0.6926
G02 X10.6926 Y61.0866 I-0.5301 J-0.5301
G02 X10.7497 Y60.7997 I-0.6926 J-0.2869
G02 X9.6252 Y60.1504 I-0.7497 J0.0000
G02 Y61.4489 I0.3748 J0.6492
G02 X10.7497 Y60.7997 I0.3748 J-0.6492
G02 X9.5000 I-0.6248 J0.0000
G02 X10.5000 I0.5000 J0.0000
G02 X9.7500 Y60.3667 Z-1.0607 I-0.5000 J0.0000
G02 Y61.2327 Z-1.1429 I0.2500 J0.4330
G02 X10.5000 Y60.7997 Z-1.2250 I0.2500 J-0.4330
G02 X9.7500 Y60.3667 I-0.5000 J0.0000
G02 Y61.2327 I0.2500 J0.4330
G02 X10.5000 Y60.7997 I0.2500 J-0.4330
G02 X10.5053 Y60.5904 I-0.4981 J-0.1172
G02 X10.4199 Y60.3798 I-0.5502 J0.1005
G02 X10.2452 Y60.2078 I-0.5043 J0.3375
G02 X10.0000 Y60.1122 I-0.3555 J0.5493
G02 X9.7190 Y60.1212 I-0.1184 J0.6916
G02 X9.4699 Y60.2696 I0.2474 J0.6985
G02 X9.3074 Y60.5128 I0.5301 J0.5301
G02 X9.2504 Y60.7997 I0.6926 J0.2869
G02 X9.3074 Y61.0866 I0.7497 J0.0000
G02 X9.4699 Y61.3298 I0.6926 J-0.2869
G02 X9.7131 Y61.4923 I0.5301 J-0.5301
G02 X10.0000 Y61.5493 I0.2869 J-0.6926
G02 X10.2869 Y61.4923 I0.0000 J-0.7497
G02 X10.5301 Y61.3298 I-0.2869 J-0.6926
G02 X10.6926 Y61.0866 I-0.5301 J-0.5301
G02 X10.7497 Y60.7997 I-0.6926 J-0.2869
G02 X9.6252 Y60.1504 I-0.7497 J0.0000
G02 Y61.4489 I0.3748 J0.6492
G02 X10.7497 Y60.7997 I0.3748 J-0.6492
G02 X9.5000 I-0.6248 J0.0000
G02 X10.5000 I0.5000 J0.0000
G02 X9.7500 Y60.3667 Z-1.3071 I-0.5000 J0.0000
G02 Y61.2327 Z-1.3893 I0.2500 J0.4330
G02 X10.5000 Y60.7997 Z-1.4714 I0.2500 J-0.4330
G02 X9.7500 Y60.3667 I-0.5000 J0.0000
G02 Y61.2327 I0.2500 J0.4330
G02 X10.5000 Y60.7997 I0.2500 J-0.4330
G02 X10.5053 Y60.5904 I-0.4981 J-0.1172
G02 X10.4199 Y60.3798 I-0.5502 J0.1005
G02 X10.2452 Y60.2078 I-0.5043 J0.3375
G02 X10.0000 Y60.1122 I-0.3555 J0.5493
G02 X9.7190 Y60.1212 I-0.1184 J0.6916
G02 X9.4699 Y60.2696 I0.2474 J0.6985
G02 X9.3074 Y60.5128 I0.5301 J0.5301
G02 X9.2504 Y60.7997 I0.6926 J0.2869
G02 X9.3074 Y61.0866 I0.7497 J0.0000
G02 X9.4699 Y61.3298 I0.6926 J-0.2869
G02 X9.7131 Y61.4923 I0.5301 J-0.5301
G02 X10.0000 Y61.5493 I0.2869 J-0.6926
G02 X10.2869 Y61.4923 I0.0000 J-0.7497
G02 X10.5301 Y61.3298 I-0.2869 J-0.6926
G02 X10.6926 Y61.0866 I-0.5301 J-0.5301
G02 X10.7497 Y60.7997 I-0.6926 J-0.2869
G02 X9.6252 Y60.1504 I-0.7497 J0.0000
G02 Y61.4489 I0.3748 J0.6492
G02 X10.7497 Y60.7997 I0.3748 J-0.6492
G02 X9.5000 I-0.6248 J0.0000
G02 X10.5000 I0.5000 J0.0000
G02 X9.7500 Y60.3667 Z-1.5536 I-0.5000 J0.0000
G02 Y61.2327 Z-1.6357 I0.2500 J0.4330
G02 X10.5000 Y60.7997 Z-1.7179 I0.2500 J-0.4330
G02 X9.7500 Y60.3667 I-0.5000 J0.0000
G02 Y61.2327 I0.2500 J0.4330
G02 X10.5000 Y60.7997 I0.2500 J-0.4330
G02 X10.5053 Y60.5904 I-0.4981 J-0.1172
G02 X10.4199 Y60.3798 I-0.5502 J0.1005
G02 X10.2452 Y60.2078 I-0.5043 J0.3375
G02 X10.0000 Y60.1122 I-0.3555 J0.5493
G02 X9.7190 Y60.1212 I-0.1184 J0.6916
G02 X9.4699 Y60.2696 I0.2474 J0.6985
G02 X9.3074 Y60.5128 I0.5301 J0.5301
G02 X9.2504 Y60.7997 I0.6926 J0.2869
G02 X9.3074 Y61.0866 I0.7497 J0.0000
G02 X9.4699 Y61.3298 I0.6926 J-0.2869
G02 X9.7131 Y61.4923 I0.5301 J-0.5301
G02 X10.0000 Y61.5493 I0.2869 J-0.6926
G02 X10.2869 Y61.4923 I0.0000 J-0.7497
G02 X10.5301 Y61.3298 I-0.2869 J-0.6926
G02 X10.6926 Y61.0866 I-0.5301 J-0.5301
G02 X10.7497 Y60.7997 I-0.6926 J-0.2869
G02 X9.6252 Y60.1504 I-0.7497 J0.0000
G02 Y61.4489 I0.3748 J0.6492
G02 X10.7497 Y60.7997 I0.3748 J-0.6492
G02 X9.5000 I-0.6248 J0.0000
G02 X10.5000 I0.5000 J0.0000
G02 X9.7500 Y60.3667 Z-1.8000 I-0.5000 J0.0000
G02 Y61.2327 Z-1.8821 I0.2500 J0.4330
G02 X10.5000 Y60.7997 Z-1.9643 I0.2500 J-0.4330
G02 X9.7500 Y60.3667 I-0.5000 J0.0000
G02 Y61.2327 I0.2500 J0.4330
G02 X10.5000 Y60.7997 I0.2500 J-0.4330
G02 X10.5053 Y60.5904 I-0.4981 J-0.1172
G02 X10.4199 Y60.3798 I-0.5502 J0.1005
G02 X10.2452 Y60.2078 I-0.5043 J0.3375
G02 X10.0000 Y60.1122 I-0.3555 J0.5493
G02 X9.7190 Y60.1212 I-0.1184 J0.6916
G02 X9.4699 Y60.2696 I0.2474 J0.6985
G02 X9.3074 Y60.5128 I0.5301 J0.5301
G02 X9.2504 Y60.7997 I0.6926 J0.2869
G02 X9.3074 Y61.0866 I0.7497 J0.0000
G02 X9.4699 Y61.3298 I0.6926 J-0.2869
G02 X9.7131 Y61.4923 I0.5301 J-0.5301
G02 X10.0000 Y61.5493 I0.2869 J-0.6926
G02 X10.2869 Y61.4923 I0.0000 J-0.7497
G02 X10.5301 Y61.3298 I-0.2869 J-0.6926
G02 X10.6926 Y61.0866 I-0.5301 J-0.5301
G02 X10.7497 Y60.7997 I-0.6926 J-0.2869
G02 X9.6252 Y60.1504 I-0.7497 J0.0000
G02 Y61.4489 I0.3748 J0.6492
G02 X10.7497 Y60.7997 I0.3748 J-0.6492
G02 X9.5000 I-0.6248 J0.0000
G02 X10.5000 I0.5000 J0.0000
G02 X9.7500 Y60.3667 Z-2.0464 I-0.5000 J0.0000
G02 Y61.2327 Z-2.1286 I0.2500 J0.4330
G02 X10.5000 Y60.7997 Z-2.2107 I0.2500 J-0.4330
G02 X9.7500 Y60.3667 I-0.5000 J0.0000
G02 Y61.2327 I0.2500 J0.4330
G02 X10.5000 Y60.7997 I0.2500 J-0.4330
G02 X10.5053 Y60.5904 I-0.4981 J-0.1172
G02 X10.4199 Y60.3798 I-0.5502 J0.1005
G02 X10.2452 Y60.2078 I-0.5043 J0.3375
G02 X10.0000 Y60.1122 I-0.3555 J0.5493
G02 X9.7190 Y60.1212 I-0.1184 J0.6916
G02 X9.4699 Y60.2696 I0.2474 J0.6985
G02 X9.3074 Y60.5128 I0.5301 J0.5301
G02 X9.2504 Y60.7997 I0.6926 J0.2869
G02 X9.3074 Y61.0866 I0.7497 J0.0000
G02 X9.4699 Y61.3298 I0.6926 J-0.2869
G02 X9.7131 Y61.4923 I0.5301 J-0.5301
G02 X10.0000 Y61.5493 I0.2869 J-0.6926
G02 X10.2869 Y61.4923 I0.0000 J-0.7497
G02 X10.5301 Y61.3298 I-0.2869 J-0.6926
G02 X10.6926 Y61.0866 I-0.5301 J-0.5301
G02 X10.7497 Y60.7997 I-0.6926 J-0.2869
G02 X9.6252 Y60.1504 I-0.7497 J0.0000
G02 Y61.4489 I0.3748 J0.6492
G02 X10.7497 Y60.7997 I0.3748 J-0.6492
G02 X9.5000 I-0.6248 J0.0000
G02 X10.5000 I0.5000 J0.0000
G02 X9.7500 Y60.3667 Z-2.2929 I-0.5000 J0.0000
G02 Y61.2327 Z-2.3750 I0.2500 J0.4330
G02 X10.5000 Y60.7997 Z-2.4571 I0.2500 J-0.4330
G02 X9.7500 Y60.3667 I-0.5000 J0.0000
G02 Y61.2327 I0.2500 J0.4330
G02 X10.5000 Y60.7997 I0.2500 J-0.4330
G02 X10.5053 Y60.5904 I-0.4981 J-0.1172
G02 X10.4199 Y60.3798 I-0.5502 J0.1005
G02 X10.2452 Y60.2078 I-0.5043 J0.3375
G02 X10.0000 Y60.1122 I-0.3555 J0.5493
G02 X9.7190 Y60.1212 I-0.1184 J0.6916
G02 X9.4699 Y60.2696 I0.2474 J0.6985
G02 X9.3074 Y60.5128 I0.5301 J0.5301
G02 X9.2504 Y60.7997 I0.6926 J0.2869
G02 X9.3074 Y61.0866 I0.7497 J0.0000
G02 X9.4699 Y61.3298 I0.6926 J-0.2869
G02 X9.7131 Y61.4923 I0.5301 J-0.5301
G02 X10.0000 Y61.5493 I0.2869 J-0.6926
G02 X10.2869 Y61.4923 I0.0000 J-0.7497
G02 X10.5301 Y61.3298 I-0.2869 J-0.6926
G02 X10.6926 Y61.0866 I-0.5301 J-0.5301
G02 X10.7497 Y60.7997 I-0.6926 J-0.2869
G02 X9.6252 Y60.1504 I-0.7497 J0.0000
G02 Y61.4489 I0.3748 J0.6492
G02 X10.7497 Y60.7997 I0.3748 J-0.6492
G02 X9.5000 I-0.6248 J0.0000
G02 X10.5000 I0.5000 J0.0000
G02 X9.7500 Y60.3667 Z-2.5393 I-0.5000 J0.0000
G02 Y61.2327 Z-2.6214 I0.2500 J0.4330
G02 X10.5000 Y60.7997 Z-2.7036 I0.2500 J-0.4330
G02 X9.7500 Y60.3667 I-0.5000 J0.0000
G02 Y61.2327 I0.2500 J0.4330
G02 X10.5000 Y60.7997 I0.2500 J-0.4330
G02 X10.5053 Y60.5904 I-0.4981 J-0.1172
G02 X10.4199 Y60.3798 I-0.5502 J0.1005
G02 X10.2452 Y60.2078 I-0.5043 J0.3375
G02 X10.0000 Y60.1122 I-0.3555 J0.5493
G02 X9.7190 Y60.1212 I-0.1184 J0.6916
G02 X9.4699 Y60.2696 I0.2474 J0.6985
G02 X9.3074 Y60.5128 I0.5301 J0.5301
G02 X9.2504 Y60.7997 I0.6926 J0.2869
G02 X9.3074 Y61.0866 I0.7497 J0.0000
G02 X9.4699 Y61.3298 I0.6926 J-0.2869
G02 X9.7131 Y61.4923 I0.5301 J-0.5301
G02 X10.0000 Y61.5493 I0.2869 J-0.6926
G02 X10.2869 Y61.4923 I0.0000 J-0.7497
G02 X10.5301 Y61.3298 I-0.2869 J-0.6926
G02 X10.6926 Y61.0866 I-0.5301 J-0.5301
G02 X10.7497 Y60.7997 I-0.6926 J-0.2869
G02 X9.6252 Y60.1504 I-0.7497 J0.0000
G02 Y61.4489 I0.3748 J0.6492
G02 X10.7497 Y60.7997 I0.3748 J-0.6492
G02 X9.5000 I-0.6248 J0.0000
G02 X10.5000 I0.5000 J0.0000
G02 X9.7500 Y60.3667 Z-2.7857 I-0.5000 J0.0000
G02 Y61.2327 Z-2.8679 I0.2500 J0.4330
G02 X10.5000 Y60.7997 Z-2.9500 I0.2500 J-0.4330
G02 X9.7500 Y60.3667 I-0.5000 J0.0000
G02 Y61.2327 I0.2500 J0.4330
G02 X10.5000 Y60.7997 I0.2500 J-0.4330
G02 X10.5053 Y60.5904 I-0.4981 J-0.1172
G02 X10.4199 Y60.3798 I-0.5502 J0.1005
G02 X10.2452 Y60.2078 I-0.5043 J0.3375
G02 X10.0000 Y60.1122 I-0.3555 J0.5493
G02 X9.7190 Y60.1212 I-0.1184 J0.6916
G02 X9.4699 Y60.2696 I0.2474 J0.6985
G02 X9.3074 Y60.5128 I0.5301 J0.5301
G02 X9.2504 Y60.7997 I0.6926 J0.2869
G02 X9.3074 Y61.0866 I0.7497 J0.0000
G02 X9.4699 Y61.3298 I0.6926 J-0.2869
G02 X9.7131 Y61.4923 I0.5301 J-0.5301
G02 X10.0000 Y61.5493 I0.2869 J-0.6926
G02 X10.2869 Y61.4923 I0.0000 J-0.7497
G02 X10.5301 Y61.3298 I-0.2869 J-0.6926
G02 X10.6926 Y61.0866 I-0.5301 J-0.5301
G02 X10.7497 Y60.7997 I-0.6926 J-0.2869
G02 X9.6252 Y60.1504 I-0.7497 J0.0000
G02 Y61.4489 I0.3748 J0.6492
G02 X10.7497 Y60.7997 I0.3748 J-0.6492
G02 X9.5000 I-0.6248 J0.0000
G02 X10.5000 I0.5000 J0.0000
G02 X9.7500 Y60.3667 Z-3.0321 I-0.5000 J0.0000
G02 Y61.2327 Z-3.1143 I0.2500 J0.4330
G02 X10.5000 Y60.7997 Z-3.1964 I0.2500 J-0.4330
G02 X9.7500 Y60.3667 I-0.5000 J0.0000
G02 Y61.2327 I0.2500 J0.4330
G02 X10.5000 Y60.7997 I0.2500 J-0.4330
G02 X10.5053 Y60.5904 I-0.4981 J-0.1172
G02 X10.4199 Y60.3798 I-0.5502 J0.1005
G02 X10.2452 Y60.2078 I-0.5043 J0.3375
G02 X10.0000 Y60.1122 I-0.3555 J0.5493
G02 X9.7190 Y60.1212 I-0.1184 J0.6916
G02 X9.4699 Y60.2696 I0.2474 J0.6985
G02 X9.3074 Y60.5128 I0.5301 J0.5301
G02 X9.2504 Y60.7997 I0.6926 J0.2869
G02 X9.3074 Y61.0866 I0.7497 J0.0000
G02 X9.4699 Y61.3298 I0.6926 J-0.2869
G02 X9.7131 Y61.4923 I0.5301 J-0.5301
G02 X10.0000 Y61.5493 I0.2869 J-0.6926
G02 X10.2869 Y61.4923 I0.0000 J-0.7497
G02 X10.5301 Y61.3298 I-0.2869 J-0.6926
G02 X10.6926 Y61.0866 I-0.5301 J-0.5301
G02 X10.7497 Y60.7997 I-0.6926 J-0.2869
G02 X9.6252 Y60.1504 I-0.7497 J0.0000
G02 Y61.4489 I0.3748 J0.6492
G02 X10.7497 Y60.7997 I0.3748 J-0.6492
G02 X9.5000 I-0.6248 J0.0000
G02 X10.5000 I0.5000 J0.0000
G02 X9.7500 Y60.3667 Z-3.2786 I-0.5000 J0.0000
G02 Y61.2327 Z-3.3607 I0.2500 J0.4330
G02 X10.5000 Y60.7997 Z-3.4429 I0.2500 J-0.4330
G02 X9.7500 Y60.3667 I-0.5000 J0.0000
G02 Y61.2327 I0.2500 J0.4330
G02 X10.5000 Y60.7997 I0.2500 J-0.4330
G02 X10.5053 Y60.5904 I-0.4981 J-0.1172
G02 X10.4199 Y60.3798 I-0.5502 J0.1005
G02 X10.2452 Y60.2078 I-0.5043 J0.3375
G02 X10.0000 Y60.1122 I-0.3555 J0.5493
G02 X9.7190 Y60.1212 I-0.1184 J0.6916
G02 X9.4699 Y60.2696 I0.2474 J0.6985
G02 X9.3074 Y60.5128 I0.5301 J0.5301
G02 X9.2504 Y60.7997 I0.6926 J0.2869
G02 X9.3074 Y61.0866 I0.7497 J0.0000
G02 X9.4699 Y61.3298 I0.6926 J-0.2869
G02 X9.7131 Y61.4923 I0.5301 J-0.5301
G02 X10.0000 Y61.5493 I0.2869 J-0.6926
G02 X10.2869 Y61.4923 I0.0000 J-0.7497
G02 X10.5301 Y61.3298 I-0.2869 J-0.6926
G02 X10.6926 Y61.0866 I-0.5301 J-0.5301
G02 X10.7497 Y60.7997 I-0.6926 J-0.2869
G02 X9.6252 Y60.1504 I-0.7497 J0.0000
G02 Y61.4489 I0.3748 J0.6492
G02 X10.7497 Y60.7997 I0.3748 J-0.6492
G02 X9.5000 I-0.6248 J0.0000
G02 X10.5000 I0.5000 J0.0000
G02 X9.7500 Y60.3667 Z-3.5250 I-0.5000 J0.0000
G02 Y61.2327 Z-3.6071 I0.2500 J0.4330
G02 X10.5000 Y60.7997 Z-3.6893 I0.2500 J-0.4330
G02 X9.7500 Y60.3667 I-0.5000 J0.0000
G02 Y61.2327 I0.2500 J0.4330
G02 X10.5000 Y60.7997 I0.2500 J-0.4330
G02 X10.5053 Y60.5904 I-0.4981 J-0.1172
G02 X10.4199 Y60.3798 I-0.5502 J0.1005
G02 X10.2452 Y60.2078 I-0.5043 J0.3375
G02 X10.0000 Y60.1122 I-0.3555 J0.5493
G02 X9.7190 Y60.1212 I-0.1184 J0.6916
G02 X9.4699 Y60.2696 I0.2474 J0.6985
G02 X9.3074 Y60.5128 I0.5301 J0.5301
G02 X9.2504 Y60.7997 I0.6926 J0.2869
G02 X9.3074 Y61.0866 I0.7497 J0.0000
G02 X9.4699 Y61.3298 I0.6926 J-0.2869
G02 X9.7131 Y61.4923 I0.5301 J-0.5301
G02 X10.0000 Y61.5493 I0.2869 J-0.6926
G02 X10.2869 Y61.4923 I0.0000 J-0.7497
G02 X10.5301 Y61.3298 I-0.2869 J-0.6926
G02 X10.6926 Y61.0866 I-0.5301 J-0.5301
G02 X10.7497 Y60.7997 I-0.6926 J-0.2869
G02 X9.6252 Y60.1504 I-0.7497 J0.0000
G02 Y61.4489 I0.3748 J0.6492
G02 X10.7497 Y60.7997 I0.3748 J-0.6492
G02 X9.5000 I-0.6248 J0.0000
G02 X10.5000 I0.5000 J0.0000
G02 X9.7500 Y60.3667 Z-3.7714 I-0.5000 J0.0000
G02 Y61.2327 Z-3.8536 I0.2500 J0.4330
G02 X10.5000 Y60.7997 Z-3.9357 I0.2500 J-0.4330
G02 X9.7500 Y60.3667 I-0.5000 J0.0000
G02 Y61.2327 I0.2500 J0.4330
G02 X10.5000 Y60.7997 I0.2500 J-0.4330
G02 X10.5053 Y60.5904 I-0.4981 J-0.1172
G02 X10.4199 Y60.3798 I-0.5502 J0.1005
G02 X10.2452 Y60.2078 I-0.5043 J0.3375
G02 X10.0000 Y60.1122 I-0.3555 J0.5493
G02 X9.7190 Y60.1212 I-0.1184 J0.6916
G02 X9.4699 Y60.2696 I0.2474 J0.6985
G02 X9.3074 Y60.5128 I0.5301 J0.5301
G02 X9.2504 Y60.7997 I0.6926 J0.2869
G02 X9.3074 Y61.0866 I0.7497 J0.0000
G02 X9.4699 Y61.3298 I0.6926 J-0.2869
G02 X9.7131 Y61.4923 I0.5301 J-0.5301
G02 X10.0000 Y61.5493 I0.2869 J-0.6926
G02 X10.2869 Y61.4923 I0.0000 J-0.7497
G02 X10.5301 Y61.3298 I-0.2869 J-0.6926
G02 X10.6926 Y61.0866 I-0.5301 J-0.5301
G02 X10.7497 Y60.7997 I-0.6926 J-0.2869
G02 X9.6252 Y60.1504 I-0.7497 J0.0000
G02 Y61.4489 I0.3748 J0.6492
G02 X10.7497 Y60.7997 I0.3748 J-0.6492
G02 X9.5000 I-0.6248 J0.0000
G02 X10.5000 I0.5000 J0.0000
G02 X9.7500 Y60.3667 Z-4.0179 I-0.5000 J0.0000
G02 Y61.2327 Z-4.1000 I0.2500 J0.4330
G02 X10.5000 Y60.7997 Z-4.1821 I0.2500 J-0.4330
G02 X9.7500 Y60.3667 I-0.5000 J0.0000
G02 Y61.2327 I0.2500 J0.4330
G02 X10.5000 Y60.7997 I0.2500 J-0.4330
G02 X10.5053 Y60.5904 I-0.4981 J-0.1172
G02 X10.4199 Y60.3798 I-0.5502 J0.1005
G02 X10.2452 Y60.2078 I-0.5043 J0.3375
G02 X10.0000 Y60.1122 I-0.3555 J0.5493
G02 X9.7190 Y60.1212 I-0.1184 J0.6916
G02 X9.4699 Y60.2696 I0.2474 J0.6985
G02 X9.3074 Y60.5128 I0.5301 J0.5301
G02 X9.2504 Y60.7997 I0.6926 J0.2869
G02 X9.3074 Y61.0866 I0.7497 J0.0000
G02 X9.4699 Y61.3298 I0.6926 J-0.2869
G02 X9.7131 Y61.4923 I0.5301 J-0.5301
G02 X10.0000 Y61.5493 I0.2869 J-0.6926
G02 X10.2869 Y61.4923 I0.0000 J-0.7497
G02 X10.5301 Y61.3298 I-0.2869 J-0.6926
G02 X10.6926 Y61.0866 I-0.5301 J-0.5301
G02 X10.7497 Y60.7997 I-0.6926 J-0.2869
G02 X9.6252 Y60.1504 I-0.7497 J0.0000
G02 Y61.4489 I0.3748 J0.6492
G02 X10.7497 Y60.7997 I0.3748 J-0.6492
G02 X9.5000 I-0.6248 J0.0000
G02 X10.5000 I0.5000 J0.0000
G02 X9.7500 Y60.3667 Z-4.2643 I-0.5000 J0.0000
G02 Y61.2327 Z-4.3464 I0.2500 J0.4330
G02 X10.5000 Y60.7997 Z-4.4286 I0.2500 J-0.4330
G02 X9.7500 Y60.3667 I-0.5000 J0.0000
G02 Y61.2327 I0.2500 J0.4330
G02 X10.5000 Y60.7997 I0.2500 J-0.4330
G02 X10.5053 Y60.5904 I-0.4981 J-0.1172
G02 X10.4199 Y60.3798 I-0.5502 J0.1005
G02 X10.2452 Y60.2078 I-0.5043 J0.3375
G02 X10.0000 Y60.1122 I-0.3555 J0.5493
G02 X9.7190 Y60.1212 I-0.1184 J0.6916
G02 X9.4699 Y60.2696 I0.2474 J0.6985
G02 X9.3074 Y60.5128 I0.5301 J0.5301
G02 X9.2504 Y60.7997 I0.6926 J0.2869
G02 X9.3074 Y61.0866 I0.7497 J0.0000
G02 X9.4699 Y61.3298 I0.6926 J-0.2869
G02 X9.7131 Y61.4923 I0.5301 J-0.5301
G02 X10.0000 Y61.5493 I0.2869 J-0.6926
G02 X10.2869 Y61.4923 I0.0000 J-0.7497
G02 X10.5301 Y61.3298 I-0.2869 J-0.6926
G02 X10.6926 Y61.0866 I-0.5301 J-0.5301
G02 X10.7497 Y60.7997 I-0.6926 J-0.2869
G02 X9.6252 Y60.1504 I-0.7497 J0.0000
G02 Y61.4489 I0.3748 J0.6492
G02 X10.7497 Y60.7997 I0.3748 J-0.6492
G02 X9.5000 I-0.6248 J0.0000
G02 X10.5000 I0.5000 J0.0000
G02 X9.7500 Y60.3667 Z-4.5107 I-0.5000 J0.0000
G02 Y61.2327 Z-4.5929 I0.2500 J0.4330
G02 X10.5000 Y60.7997 Z-4.6750 I0.2500 J-0.4330
G02 X9.7500 Y60.3667 I-0.5000 J0.0000
G02 Y61.2327 I0.2500 J0.4330
G02 X10.5000 Y60.7997 I0.2500 J-0.4330
G02 X10.5053 Y60.5904 I-0.4981 J-0.1172
G02 X10.4199 Y60.3798 I-0.5502 J0.1005
G02 X10.2452 Y60.2078 I-0.5043 J0.3375
G02 X10.0000 Y60.1122 I-0.3555 J0.5493
G02 X9.7190 Y60.1212 I-0.1184 J0.6916
G02 X9.4699 Y60.2696 I0.2474 J0.6985
G02 X9.3074 Y60.5128 I0.5301 J0.5301
G02 X9.2504 Y60.7997 I0.6926 J0.2869
G02 X9.3074 Y61.0866 I0.7497 J0.0000
G02 X9.4699 Y61.3298 I0.6926 J-0.2869
G02 X9.7131 Y61.4923 I0.5301 J-0.5301
G02 X10.0000 Y61.5493 I0.2869 J-0.6926
G02 X10.2869 Y61.4923 I0.0000 J-0.7497
G02 X10.5301 Y61.3298 I-0.2869 J-0.6926
G02 X10.6926 Y61.0866 I-0.5301 J-0.5301
G02 X10.7497 Y60.7997 I-0.6926 J-0.2869
G02 X9.6252 Y60.1504 I-0.7497 J0.0000
G02 Y61.4489 I0.3748 J0.6492
G02 X10.7497 Y60.7997 I0.3748 J-0.6492
G02 X9.5000 I-0.6248 J0.0000
G02 X10.5000 I0.5000 J0.0000
G02 X9.7500 Y60.3667 Z-4.7571 I-0.5000 J0.0000
G02 Y61.2327 Z-4.8393 I0.2500 J0.4330
G02 X10.5000 Y60.7997 Z-4.9214 I0.2500 J-0.4330
G02 X9.7500 Y60.3667 I-0.5000 J0.0000
G02 Y61.2327 I0.2500 J0.4330
G02 X10.5000 Y60.7997 I0.2500 J-0.4330
G02 X10.5053 Y60.5904 I-0.4981 J-0.1172
G02 X10.4199 Y60.3798 I-0.5502 J0.1005
G02 X10.2452 Y60.2078 I-0.5043 J0.3375
G02 X10.0000 Y60.1122 I-0.3555 J0.5493
G02 X9.7190 Y60.1212 I-0.1184 J0.6916
G02 X9.4699 Y60.2696 I0.2474 J0.6985
G02 X9.3074 Y60.5128 I0.5301 J0.5301
G02 X9.2504 Y60.7997 I0.6926 J0.2869
G02 X9.3074 Y61.0866 I0.7497 J0.0000
G02 X9.4699 Y61.3298 I0.6926 J-0.2869
G02 X9.7131 Y61.4923 I0.5301 J-0.5301
G02 X10.0000 Y61.5493 I0.2869 J-0.6926
G02 X10.2869 Y61.4923 I0.0000 J-0.7497
G02 X10.5301 Y61.3298 I-0.2869 J-0.6926
G02 X10.6926 Y61.0866 I-0.5301 J-0.5301
G02 X10.7497 Y60.7997 I-0.6926 J-0.2869
G02 X9.6252 Y60.1504 I-0.7497 J0.0000
G02 Y61.4489 I0.3748 J0.6492
G02 X10.7497 Y60.7997 I0.3748 J-0.6492
G02 X9.5000 I-0.6248 J0.0000
G02 X10.5000 I0.5000 J0.0000
G02 X9.7500 Y60.3667 Z-5.0036 I-0.5000 J0.0000
G02 Y61.2327 Z-5.0857 I0.2500 J0.4330
G02 X10.5000 Y60.7997 Z-5.1679 I0.2500 J-0.4330
G02 X9.7500 Y60.3667 I-0.5000 J0.0000
G02 Y61.2327 I0.2500 J0.4330
G02 X10.5000 Y60.7997 I0.2500 J-0.4330
G02 X10.5053 Y60.5904 I-0.4981 J-0.1172
G02 X10.4199 Y60.3798 I-0.5502 J0.1005
G02 X10.2452 Y60.2078 I-0.5043 J0.3375
G02 X10.0000 Y60.1122 I-0.3555 J0.5493
G02 X9.7190 Y60.1212 I-0.1184 J0.6916
G02 X9.4699 Y60.2696 I0.2474 J0.6985
G02 X9.3074 Y60.5128 I0.5301 J0.5301
G02 X9.2504 Y60.7997 I0.6926 J0.2869
G02 X9.3074 Y61.0866 I0.7497 J0.0000
G02 X9.4699 Y61.3298 I0.6926 J-0.2869
G02 X9.7131 Y61.4923 I0.5301 J-0.5301
G02 X10.0000 Y61.5493 I0.2869 J-0.6926
G02 X10.2869 Y61.4923 I0.0000 J-0.7497
G02 X10.5301 Y61.3298 I-0.2869 J-0.6926
G02 X10.6926 Y61.0866 I-0.5301 J-0.5301
G02 X10.7497 Y60.7997 I-0.6926 J-0.2869
G02 X9.6252 Y60.1504 I-0.7497 J0.0000
G02 Y61.4489 I0.3748 J0.6492
G02 X10.7497 Y60.7997 I0.3748 J-0.6492
G02 X9.5000 I-0.6248 J0.0000
G02 X10.5000 I0.5000 J0.0000
G02 X9.7500 Y60.3667 Z-5.2500 I-0.5000 J0.0000
G02 Y61.2327 Z-5.3321 I0.2500 J0.4330
G02 X10.5000 Y60.7997 Z-5.4143 I0.2500 J-0.4330
G02 X9.7500 Y60.3667 I-0.5000 J0.0000
G02 Y61.2327 I0.2500 J0.4330
G02 X10.5000 Y60.7997 I0.2500 J-0.4330
G02 X10.5053 Y60.5904 I-0.4981 J-0.1172
G02 X10.4199 Y60.3798 I-0.5502 J0.1005
G02 X10.2452 Y60.2078 I-0.5043 J0.3375
G02 X10.0000 Y60.1122 I-0.3555 J0.5493
G02 X9.7190 Y60.1212 I-0.1184 J0.6916
G02 X9.4699 Y60.2696 I0.2474 J0.6985
G02 X9.3074 Y60.5128 I0.5301 J0.5301
G02 X9.2504 Y60.7997 I0.6926 J0.2869
G02 X9.3074 Y61.0866 I0.7497 J0.0000
G02 X9.4699 Y61.3298 I0.6926 J-0.2869
G02 X9.7131 Y61.4923 I0.5301 J-0.5301
G02 X10.0000 Y61.5493 I0.2869 J-0.6926
G02 X10.2869 Y61.4923 I0.0000 J-0.7497
G02 X10.5301 Y61.3298 I-0.2869 J-0.6926
G02 X10.6926 Y61.0866 I-0.5301 J-0.5301
G02 X10.7497 Y60.7997 I-0.6926 J-0.2869
G02 X9.6252 Y60.1504 I-0.7497 J0.0000
G02 Y61.4489 I0.3748 J0.6492
G02 X10.7497 Y60.7997 I0.3748 J-0.6492
G02 X9.5000 I-0.6248 J0.0000
G02 X10.5000 I0.5000 J0.0000
G02 X9.7500 Y60.3667 Z-5.4964 I-0.5000 J0.0000
G02 Y61.2327 Z-5.5786 I0.2500 J0.4330
G02 X10.5000 Y60.7997 Z-5.6607 I0.2500 J-0.4330
G02 X9.7500 Y60.3667 I-0.5000 J0.0000
G02 Y61.2327 I0.2500 J0.4330
G02 X10.5000 Y60.7997 I0.2500 J-0.4330
G02 X10.5053 Y60.5904 I-0.4981 J-0.1172
G02 X10.4199 Y60.3798 I-0.5502 J0.1005
G02 X10.2452 Y60.2078 I-0.5043 J0.3375
G02 X10.0000 Y60.1122 I-0.3555 J0.5493
G02 X9.7190 Y60.1212 I-0.1184 J0.6916
G02 X9.4699 Y60.2696 I0.2474 J0.6985
G02 X9.3074 Y60.5128 I0.5301 J0.5301
G02 X9.2504 Y60.7997 I0.6926 J0.2869
G02 X9.3074 Y61.0866 I0.7497 J0.0000
G02 X9.4699 Y61.3298 I0.6926 J-0.2869
G02 X9.7131 Y61.4923 I0.5301 J-0.5301
G02 X10.0000 Y61.5493 I0.2869 J-0.6926
G02 X10.2869 Y61.4923 I0.0000 J-0.7497
G02 X10.5301 Y61.3298 I-0.2869 J-0.6926
G02 X10.6926 Y61.0866 I-0.5301 J-0.5301
G02 X10.7497 Y60.7997 I-0.6926 J-0.2869
G02 X9.6252 Y60.1504 I-0.7497 J0.0000
G02 Y61.4489 I0.3748 J0.6492
G02 X10.7497 Y60.7997 I0.3748 J-0.6492
G02 X9.5000 I-0.6248 J0.0000
G02 X10.5000 I0.5000 J0.0000
G02 X9.7500 Y60.3667 Z-5.7429 I-0.5000 J0.0000
G02 Y61.2327 Z-5.8250 I0.2500 J0.4330
G02 X10.5000 Y60.7997 Z-5.9071 I0.2500 J-0.4330
G02 X9.7500 Y60.3667 I-0.5000 J0.0000
G02 Y61.2327 I0.2500 J0.4330
G02 X10.5000 Y60.7997 I0.2500 J-0.4330
G02 X10.5053 Y60.5904 I-0.4981 J-0.1172
G02 X10.4199 Y60.3798 I-0.5502 J0.1005
G02 X10.2452 Y60.2078 I-0.5043 J0.3375
G02 X10.0000 Y60.1122 I-0.3555 J0.5493
G02 X9.7190 Y60.1212 I-0.1184 J0.6916
G02 X9.4699 Y60.2696 I0.2474 J0.6985
G02 X9.3074 Y60.5128 I0.5301 J0.5301
G02 X9.2504 Y60.7997 I0.6926 J0.2869
G02 X9.3074 Y61.0866 I0.7497 J0.0000
G02 X9.4699 Y61.3298 I0.6926 J-0.2869
G02 X9.7131 Y61.4923 I0.5301 J-0.5301
G02 X10.0000 Y61.5493 I0.2869 J-0.6926
G02 X10.2869 Y61.4923 I0.0000 J-0.7497
G02 X10.5301 Y61.3298 I-0.2869 J-0.6926
G02 X10.6926 Y61.0866 I-0.5301 J-0.5301
G02 X10.7497 Y60.7997 I-0.6926 J-0.2869
G02 X9.6252 Y60.1504 I-0.7497 J0.0000
G02 Y61.4489 I0.3748 J0.6492
G02 X10.7497 Y60.7997 I0.3748 J-0.6492
G02 X9.5000 I-0.6248 J0.0000
G02 X10.5000 I0.5000 J0.0000
G02 X9.7500 Y60.3667 Z-5.9893 I-0.5000 J0.0000
G02 Y61.2327 Z-6.0714 I0.2500 J0.4330
G02 X10.5000 Y60.7997 Z-6.1536 I0.2500 J-0.4330
G02 X9.7500 Y60.3667 I-0.5000 J0.0000
G02 Y61.2327 I0.2500 J0.4330
G02 X10.5000 Y60.7997 I0.2500 J-0.4330
G02 X10.5053 Y60.5904 I-0.4981 J-0.1172
G02 X10.4199 Y60.3798 I-0.5502 J0.1005
G02 X10.2452 Y60.2078 I-0.5043 J0.3375
G02 X10.0000 Y60.1122 I-0.3555 J0.5493
G02 X9.7190 Y60.1212 I-0.1184 J0.6916
G02 X9.4699 Y60.2696 I0.2474 J0.6985
G02 X9.3074 Y60.5128 I0.5301 J0.5301
G02 X9.2504 Y60.7997 I0.6926 J0.2869
G02 X9.3074 Y61.0866 I0.7497 J0.0000
G02 X9.4699 Y61.3298 I0.6926 J-0.2869
G02 X9.7131 Y61.4923 I0.5301 J-0.5301
G02 X10.0000 Y61.5493 I0.2869 J-0.6926
G02 X10.2869 Y61.4923 I0.0000 J-0.7497
G02 X10.5301 Y61.3298 I-0.2869 J-0.6926
G02 X10.6926 Y61.0866 I-0.5301 J-0.5301
G02 X10.7497 Y60.7997 I-0.6926 J-0.2869
G02 X9.6252 Y60.1504 I-0.7497 J0.0000
G02 Y61.4489 I0.3748 J0.6492
G02 X10.7497 Y60.7997 I0.3748 J-0.6492
G02 X9.5000 I-0.6248 J0.0000
G02 X10.5000 I0.5000 J0.0000
G02 X9.7500 Y60.3667 Z-6.2357 I-0.5000 J0.0000
G02 Y61.2327 Z-6.3179 I0.2500 J0.4330
G02 X10.5000 Y60.7997 Z-6.4000 I0.2500 J-0.4330
G02 X9.7500 Y60.3667 I-0.5000 J0.0000
G02 Y61.2327 I0.2500 J0.4330
G02 X10.5000 Y60.7997 I0.2500 J-0.4330
G02 X10.5053 Y60.5904 I-0.4981 J-0.1172
G02 X10.4199 Y60.3798 I-0.5502 J0.1005
G02 X10.2452 Y60.2078 I-0.5043 J0.3375
G02 X10.0000 Y60.1122 I-0.3555 J0.5493
G02 X9.7190 Y60.1212 I-0.1184 J0.6916
G02 X9.4699 Y60.2696 I0.2474 J0.6985
G02 X9.3074 Y60.5128 I0.5301 J0.5301
G02 X9.2504 Y60.7997 I0.6926 J0.2869
G02 X9.3074 Y61.0866 I0.7497 J0.0000
G02 X9.4699 Y61.3298 I0.6926 J-0.2869
G02 X9.7131 Y61.4923 I0.5301 J-0.5301
G02 X10.0000 Y61.5493 I0.2869 J-0.6926
G02 X10.2869 Y61.4923 I0.0000 J-0.7497
G02 X10.5301 Y61.3298 I-0.2869 J-0.6926
G02 X10.6926 Y61.0866 I-0.5301 J-0.5301
G02 X10.7497 Y60.7997 I-0.6926 J-0.2869
G02 X9.6252 Y60.1504 I-0.7497 J0.0000
G02 Y61.4489 I0.3748 J0.6492
G02 X10.7497 Y60.7997 I0.3748 J-0.6492
G02 X9.5000 I-0.6248 J0.0000
G02 X10.5000 I0.5000 J0.0000
G00 Z5.0000


(No. 3: Helical drill 31)
G00 X10.5001 Y86.1999 Z5.0000
G00 Z0.5000
G02 X9.7501 Y85.7669 Z0.4179 I-0.5000 J0.0000 F1200
G02 Y86.6329 Z0.3357 I0.2500 J0.4330
G02 X10.5001 Y86.1999 Z0.2536 I0.2500 J-0.4330
G02 X9.7501 Y85.7669 I-0.5000 J0.0000
G02 Y86.6329 I0.2500 J0.4330
G02 X10.5001 Y86.1999 I0.2500 J-0.4330
G02 X10.5053 Y85.9906 I-0.4981 J-0.1172
G02 X10.4199 Y85.7800 I-0.5502 J0.1005
G02 X10.2453 Y85.6080 I-0.5043 J0.3375
G02 X10.0001 Y85.5124 I-0.3555 J0.5493
G02 X9.7191 Y85.5214 I-0.1184 J0.6916
G02 X9.4698 Y85.6696 I0.2467 J0.6988
G02 X9.3072 Y85.9129 I0.5303 J0.5303
G02 X9.2501 Y86.1999 I0.6929 J0.2870
G02 X9.3072 Y86.4869 I0.7500 J0.0000
G02 X9.4698 Y86.7302 I0.6929 J-0.2870
G02 X9.7131 Y86.8927 I0.5303 J-0.5303
G02 X10.0001 Y86.9498 I0.2870 J-0.6929
G02 X10.2871 Y86.8927 I0.0000 J-0.7500
G02 X10.5304 Y86.7302 I-0.2870 J-0.6929
G02 X10.6930 Y86.4869 I-0.5303 J-0.5303
G02 X10.7501 Y86.1999 I-0.6929 J-0.2870
G02 X9.6251 Y85.5504 I-0.7500 J0.0000
G02 Y86.8494 I0.3750 J0.6495
G02 X10.7501 Y86.1999 I0.3750 J-0.6495
G02 X9.5001 I-0.6250 J0.0000
G02 X10.5001 I0.5000 J0.0000
G02 X9.7501 Y85.7669 Z0.1714 I-0.5000 J0.0000
G02 Y86.6329 Z0.0893 I0.2500 J0.4330
G02 X10.5001 Y86.1999 Z0.0071 I0.2500 J-0.4330
G02 X9.7501 Y85.7669 I-0.5000 J0.0000
G02 Y86.6329 I0.2500 J0.4330
G02 X10.5001 Y86.1999 I0.2500 J-0.4330
G02 X10.5053 Y85.9906 I-0.4981 J-0.1172
G02 X10.4199 Y85.7800 I-0.5502 J0.1005
G02 X10.2453 Y85.6080 I-0.5043 J0.3375
G02 X10.0001 Y85.5124 I-0.3555 J0.5493
G02 X9.7191 Y85.5214 I-0.1184 J0.6916
G02 X9.4698 Y85.6696 I0.2467 J0.6988
G02 X9.3072 Y85.9129 I0.5303 J0.5303
G02 X9.2501 Y86.1999 I0.6929 J0.2870
G02 X9.3072 Y86.4869 I0.7500 J0.0000
G02 X9.4698 Y86.7302 I0.6929 J-0.2870
G02 X9.7131 Y86.8927 I0.5303 J-0.5303
G02 X10.0001 Y86.9498 I0.2870 J-0.6929
G02 X10.2871 Y86.8927 I0.0000 J-0.7500
G02 X10.5304 Y86.7302 I-0.2870 J-0.6929
G02 X10.6930 Y86.4869 I-0.5303 J-0.5303
G02 X10.7501 Y86.1999 I-0.6929 J-0.2870
G02 X9.6251 Y85.5504 I-0.7500 J0.0000
G02 Y86.8494 I0.3750 J0.6495
G02 X10.7501 Y86.1999 I0.3750 J-0.6495
G02 X9.5001 I-0.6250 J0.0000
G02 X10.5001 I0.5000 J0.0000
G02 X9.7501 Y85.7669 Z-0.0750 I-0.5000 J0.0000
G02 Y86.6329 Z-0.1571 I0.2500 J0.4330
G02 X10.5001 Y86.1999 Z-0.2393 I0.2500 J-0.4330
G02 X9.7501 Y85.7669 I-0.5000 J0.0000
G02 Y86.6329 I0.2500 J0.4330
G02 X10.5001 Y86.1999 I0.2500 J-0.4330
G02 X10.5053 Y85.9906 I-0.4981 J-0.1172
G02 X10.4199 Y85.7800 I-0.5502 J0.1005
G02 X10.2453 Y85.6080 I-0.5043 J0.3375
G02 X10.0001 Y85.5124 I-0.3555 J0.5493
G02 X9.7191 Y85.5214 I-0.1184 J0.6916
G02 X9.4698 Y85.6696 I0.2467 J0.6988
G02 X9.3072 Y85.9129 I0.5303 J0.5303
G02 X9.2501 Y86.1999 I0.6929 J0.2870
G02 X9.3072 Y86.4869 I0.7500 J0.0000
G02 X9.4698 Y86.7302 I0.6929 J-0.2870
G02 X9.7131 Y86.8927 I0.5303 J-0.5303
G02 X10.0001 Y86.9498 I0.2870 J-0.6929
G02 X10.2871 Y86.8927 I0.0000 J-0.7500
G02 X10.5304 Y86.7302 I-0.2870 J-0.6929
G02 X10.6930 Y86.4869 I-0.5303 J-0.5303
G02 X10.7501 Y86.1999 I-0.6929 J-0.2870
G02 X9.6251 Y85.5504 I-0.7500 J0.0000
G02 Y86.8494 I0.3750 J0.6495
G02 X10.7501 Y86.1999 I0.3750 J-0.6495
G02 X9.5001 I-0.6250 J0.0000
G02 X10.5001 I0.5000 J0.0000
G02 X9.7501 Y85.7669 Z-0.3214 I-0.5000 J0.0000
G02 Y86.6329 Z-0.4036 I0.2500 J0.4330
G02 X10.5001 Y86.1999 Z-0.4857 I0.2500 J-0.4330
G02 X9.7501 Y85.7669 I-0.5000 J0.0000
G02 Y86.6329 I0.2500 J0.4330
G02 X10.5001 Y86.1999 I0.2500 J-0.4330
G02 X10.5053 Y85.9906 I-0.4981 J-0.1172
G02 X10.4199 Y85.7800 I-0.5502 J0.1005
G02 X10.2453 Y85.6080 I-0.5043 J0.3375
G02 X10.0001 Y85.5124 I-0.3555 J0.5493
G02 X9.7191 Y85.5214 I-0.1184 J0.6916
G02 X9.4698 Y85.6696 I0.2467 J0.6988
G02 X9.3072 Y85.9129 I0.5303 J0.5303
G02 X9.2501 Y86.1999 I0.6929 J0.2870
G02 X9.3072 Y86.4869 I0.7500 J0.0000
G02 X9.4698 Y86.7302 I0.6929 J-0.2870
G02 X9.7131 Y86.8927 I0.5303 J-0.5303
G02 X10.0001 Y86.9498 I0.2870 J-0.6929
G02 X10.2871 Y86.8927 I0.0000 J-0.7500
G02 X10.5304 Y86.7302 I-0.2870 J-0.6929
G02 X10.6930 Y86.4869 I-0.5303 J-0.5303
G02 X10.7501 Y86.1999 I-0.6929 J-0.2870
G02 X9.6251 Y85.5504 I-0.7500 J0.0000
G02 Y86.8494 I0.3750 J0.6495
G02 X10.7501 Y86.1999 I0.3750 J-0.6495
G02 X9.5001 I-0.6250 J0.0000
G02 X10.5001 I0.5000 J0.0000
G02 X9.7501 Y85.7669 Z-0.5679 I-0.5000 J0.0000
G02 Y86.6329 Z-0.6500 I0.2500 J0.4330
G02 X10.5001 Y86.1999 Z-0.7321 I0.2500 J-0.4330
G02 X9.7501 Y85.7669 I-0.5000 J0.0000
G02 Y86.6329 I0.2500 J0.4330
G02 X10.5001 Y86.1999 I0.2500 J-0.4330
G02 X10.5053 Y85.9906 I-0.4981 J-0.1172
G02 X10.4199 Y85.7800 I-0.5502 J0.1005
G02 X10.2453 Y85.6080 I-0.5043 J0.3375
G02 X10.0001 Y85.5124 I-0.3555 J0.5493
G02 X9.7191 Y85.5214 I-0.1184 J0.6916
G02 X9.4698 Y85.6696 I0.2467 J0.6988
G02 X9.3072 Y85.9129 I0.5303 J0.5303
G02 X9.2501 Y86.1999 I0.6929 J0.2870
G02 X9.3072 Y86.4869 I0.7500 J0.0000
G02 X9.4698 Y86.7302 I0.6929 J-0.2870
G02 X9.7131 Y86.8927 I0.5303 J-0.5303
G02 X10.0001 Y86.9498 I0.2870 J-0.6929
G02 X10.2871 Y86.8927 I0.0000 J-0.7500
G02 X10.5304 Y86.7302 I-0.2870 J-0.6929
G02 X10.6930 Y86.4869 I-0.5303 J-0.5303
G02 X10.7501 Y86.1999 I-0.6929 J-0.2870
G02 X9.6251 Y85.5504 I-0.7500 J0.0000
G02 Y86.8494 I0.3750 J0.6495
G02 X10.7501 Y86.1999 I0.3750 J-0.6495
G02 X9.5001 I-0.6250 J0.0000
G02 X10.5001 I0.5000 J0.0000
G02 X9.7501 Y85.7669 Z-0.8143 I-0.5000 J0.0000
G02 Y86.6329 Z-0.8964 I0.2500 J0.4330
G02 X10.5001 Y86.1999 Z-0.9786 I0.2500 J-0.4330
G02 X9.7501 Y85.7669 I-0.5000 J0.0000
G02 Y86.6329 I0.2500 J0.4330
G02 X10.5001 Y86.1999 I0.2500 J-0.4330
G02 X10.5053 Y85.9906 I-0.4981 J-0.1172
G02 X10.4199 Y85.7800 I-0.5502 J0.1005
G02 X10.2453 Y85.6080 I-0.5043 J0.3375
G02 X10.0001 Y85.5124 I-0.3555 J0.5493
G02 X9.7191 Y85.5214 I-0.1184 J0.6916
G02 X9.4698 Y85.6696 I0.2467 J0.6988
G02 X9.3072 Y85.9129 I0.5303 J0.5303
G02 X9.2501 Y86.1999 I0.6929 J0.2870
G02 X9.3072 Y86.4869 I0.7500 J0.0000
G02 X9.4698 Y86.7302 I0.6929 J-0.2870
G02 X9.7131 Y86.8927 I0.5303 J-0.5303
G02 X10.0001 Y86.9498 I0.2870 J-0.6929
G02 X10.2871 Y86.8927 I0.0000 J-0.7500
G02 X10.5304 Y86.7302 I-0.2870 J-0.6929
G02 X10.6930 Y86.4869 I-0.5303 J-0.5303
G02 X10.7501 Y86.1999 I-0.6929 J-0.2870
G02 X9.6251 Y85.5504 I-0.7500 J0.0000
G02 Y86.8494 I0.3750 J0.6495
G02 X10.7501 Y86.1999 I0.3750 J-0.6495
G02 X9.5001 I-0.6250 J0.0000
G02 X10.5001 I0.5000 J0.0000
G02 X9.7501 Y85.7669 Z-1.0607 I-0.5000 J0.0000
G02 Y86.6329 Z-1.1429 I0.2500 J0.4330
G02 X10.5001 Y86.1999 Z-1.2250 I0.2500 J-0.4330
G02 X9.7501 Y85.7669 I-0.5000 J0.0000
G02 Y86.6329 I0.2500 J0.4330
G02 X10.5001 Y86.1999 I0.2500 J-0.4330
G02 X10.5053 Y85.9906 I-0.4981 J-0.1172
G02 X10.4199 Y85.7800 I-0.5502 J0.1005
G02 X10.2453 Y85.6080 I-0.5043 J0.3375
G02 X10.0001 Y85.5124 I-0.3555 J0.5493
G02 X9.7191 Y85.5214 I-0.1184 J0.6916
G02 X9.4698 Y85.6696 I0.2467 J0.6988
G02 X9.3072 Y85.9129 I0.5303 J0.5303
G02 X9.2501 Y86.1999 I0.6929 J0.2870
G02 X9.3072 Y86.4869 I0.7500 J0.0000
G02 X9.4698 Y86.7302 I0.6929 J-0.2870
G02 X9.7131 Y86.8927 I0.5303 J-0.5303
G02 X10.0001 Y86.9498 I0.2870 J-0.6929
G02 X10.2871 Y86.8927 I0.0000 J-0.7500
G02 X10.5304 Y86.7302 I-0.2870 J-0.6929
G02 X10.6930 Y86.4869 I-0.5303 J-0.5303
G02 X10.7501 Y86.1999 I-0.6929 J-0.2870
G02 X9.6251 Y85.5504 I-0.7500 J0.0000
G02 Y86.8494 I0.3750 J0.6495
G02 X10.7501 Y86.1999 I0.3750 J-0.6495
G02 X9.5001 I-0.6250 J0.0000
G02 X10.5001 I0.5000 J0.0000
G02 X9.7501 Y85.7669 Z-1.3071 I-0.5000 J0.0000
G02 Y86.6329 Z-1.3893 I0.2500 J0.4330
G02 X10.5001 Y86.1999 Z-1.4714 I0.2500 J-0.4330
G02 X9.7501 Y85.7669 I-0.5000 J0.0000
G02 Y86.6329 I0.2500 J0.4330
G02 X10.5001 Y86.1999 I0.2500 J-0.4330
G02 X10.5053 Y85.9906 I-0.4981 J-0.1172
G02 X10.4199 Y85.7800 I-0.5502 J0.1005
G02 X10.2453 Y85.6080 I-0.5043 J0.3375
G02 X10.0001 Y85.5124 I-0.3555 J0.5493
G02 X9.7191 Y85.5214 I-0.1184 J0.6916
G02 X9.4698 Y85.6696 I0.2467 J0.6988
G02 X9.3072 Y85.9129 I0.5303 J0.5303
G02 X9.2501 Y86.1999 I0.6929 J0.2870
G02 X9.3072 Y86.4869 I0.7500 J0.0000
G02 X9.4698 Y86.7302 I0.6929 J-0.2870
G02 X9.7131 Y86.8927 I0.5303 J-0.5303
G02 X10.0001 Y86.9498 I0.2870 J-0.6929
G02 X10.2871 Y86.8927 I0.0000 J-0.7500
G02 X10.5304 Y86.7302 I-0.2870 J-0.6929
G02 X10.6930 Y86.4869 I-0.5303 J-0.5303
G02 X10.7501 Y86.1999 I-0.6929 J-0.2870
G02 X9.6251 Y85.5504 I-0.7500 J0.0000
G02 Y86.8494 I0.3750 J0.6495
G02 X10.7501 Y86.1999 I0.3750 J-0.6495
G02 X9.5001 I-0.6250 J0.0000
G02 X10.5001 I0.5000 J0.0000
G02 X9.7501 Y85.7669 Z-1.5536 I-0.5000 J0.0000
G02 Y86.6329 Z-1.6357 I0.2500 J0.4330
G02 X10.5001 Y86.1999 Z-1.7179 I0.2500 J-0.4330
G02 X9.7501 Y85.7669 I-0.5000 J0.0000
G02 Y86.6329 I0.2500 J0.4330
G02 X10.5001 Y86.1999 I0.2500 J-0.4330
G02 X10.5053 Y85.9906 I-0.4981 J-0.1172
G02 X10.4199 Y85.7800 I-0.5502 J0.1005
G02 X10.2453 Y85.6080 I-0.5043 J0.3375
G02 X10.0001 Y85.5124 I-0.3555 J0.5493
G02 X9.7191 Y85.5214 I-0.1184 J0.6916
G02 X9.4698 Y85.6696 I0.2467 J0.6988
G02 X9.3072 Y85.9129 I0.5303 J0.5303
G02 X9.2501 Y86.1999 I0.6929 J0.2870
G02 X9.3072 Y86.4869 I0.7500 J0.0000
G02 X9.4698 Y86.7302 I0.6929 J-0.2870
G02 X9.7131 Y86.8927 I0.5303 J-0.5303
G02 X10.0001 Y86.9498 I0.2870 J-0.6929
G02 X10.2871 Y86.8927 I0.0000 J-0.7500
G02 X10.5304 Y86.7302 I-0.2870 J-0.6929
G02 X10.6930 Y86.4869 I-0.5303 J-0.5303
G02 X10.7501 Y86.1999 I-0.6929 J-0.2870
G02 X9.6251 Y85.5504 I-0.7500 J0.0000
G02 Y86.8494 I0.3750 J0.6495
G02 X10.7501 Y86.1999 I0.3750 J-0.6495
G02 X9.5001 I-0.6250 J0.0000
G02 X10.5001 I0.5000 J0.0000
G02 X9.7501 Y85.7669 Z-1.8000 I-0.5000 J0.0000
G02 Y86.6329 Z-1.8821 I0.2500 J0.4330
G02 X10.5001 Y86.1999 Z-1.9643 I0.2500 J-0.4330
G02 X9.7501 Y85.7669 I-0.5000 J0.0000
G02 Y86.6329 I0.2500 J0.4330
G02 X10.5001 Y86.1999 I0.2500 J-0.4330
G02 X10.5053 Y85.9906 I-0.4981 J-0.1172
G02 X10.4199 Y85.7800 I-0.5502 J0.1005
G02 X10.2453 Y85.6080 I-0.5043 J0.3375
G02 X10.0001 Y85.5124 I-0.3555 J0.5493
G02 X9.7191 Y85.5214 I-0.1184 J0.6916
G02 X9.4698 Y85.6696 I0.2467 J0.6988
G02 X9.3072 Y85.9129 I0.5303 J0.5303
G02 X9.2501 Y86.1999 I0.6929 J0.2870
G02 X9.3072 Y86.4869 I0.7500 J0.0000
G02 X9.4698 Y86.7302 I0.6929 J-0.2870
G02 X9.7131 Y86.8927 I0.5303 J-0.5303
G02 X10.0001 Y86.9498 I0.2870 J-0.6929
G02 X10.2871 Y86.8927 I0.0000 J-0.7500
G02 X10.5304 Y86.7302 I-0.2870 J-0.6929
G02 X10.6930 Y86.4869 I-0.5303 J-0.5303
G02 X10.7501 Y86.1999 I-0.6929 J-0.2870
G02 X9.6251 Y85.5504 I-0.7500 J0.0000
G02 Y86.8494 I0.3750 J0.6495
G02 X10.7501 Y86.1999 I0.3750 J-0.6495
G02 X9.5001 I-0.6250 J0.0000
G02 X10.5001 I0.5000 J0.0000
G02 X9.7501 Y85.7669 Z-2.0464 I-0.5000 J0.0000
G02 Y86.6329 Z-2.1286 I0.2500 J0.4330
G02 X10.5001 Y86.1999 Z-2.2107 I0.2500 J-0.4330
G02 X9.7501 Y85.7669 I-0.5000 J0.0000
G02 Y86.6329 I0.2500 J0.4330
G02 X10.5001 Y86.1999 I0.2500 J-0.4330
G02 X10.5053 Y85.9906 I-0.4981 J-0.1172
G02 X10.4199 Y85.7800 I-0.5502 J0.1005
G02 X10.2453 Y85.6080 I-0.5043 J0.3375
G02 X10.0001 Y85.5124 I-0.3555 J0.5493
G02 X9.7191 Y85.5214 I-0.1184 J0.6916
G02 X9.4698 Y85.6696 I0.2467 J0.6988
G02 X9.3072 Y85.9129 I0.5303 J0.5303
G02 X9.2501 Y86.1999 I0.6929 J0.2870
G02 X9.3072 Y86.4869 I0.7500 J0.0000
G02 X9.4698 Y86.7302 I0.6929 J-0.2870
G02 X9.7131 Y86.8927 I0.5303 J-0.5303
G02 X10.0001 Y86.9498 I0.2870 J-0.6929
G02 X10.2871 Y86.8927 I0.0000 J-0.7500
G02 X10.5304 Y86.7302 I-0.2870 J-0.6929
G02 X10.6930 Y86.4869 I-0.5303 J-0.5303
G02 X10.7501 Y86.1999 I-0.6929 J-0.2870
G02 X9.6251 Y85.5504 I-0.7500 J0.0000
G02 Y86.8494 I0.3750 J0.6495
G02 X10.7501 Y86.1999 I0.3750 J-0.6495
G02 X9.5001 I-0.6250 J0.0000
G02 X10.5001 I0.5000 J0.0000
G02 X9.7501 Y85.7669 Z-2.2929 I-0.5000 J0.0000
G02 Y86.6329 Z-2.3750 I0.2500 J0.4330
G02 X10.5001 Y86.1999 Z-2.4571 I0.2500 J-0.4330
G02 X9.7501 Y85.7669 I-0.5000 J0.0000
G02 Y86.6329 I0.2500 J0.4330
G02 X10.5001 Y86.1999 I0.2500 J-0.4330
G02 X10.5053 Y85.9906 I-0.4981 J-0.1172
G02 X10.4199 Y85.7800 I-0.5502 J0.1005
G02 X10.2453 Y85.6080 I-0.5043 J0.3375
G02 X10.0001 Y85.5124 I-0.3555 J0.5493
G02 X9.7191 Y85.5214 I-0.1184 J0.6916
G02 X9.4698 Y85.6696 I0.2467 J0.6988
G02 X9.3072 Y85.9129 I0.5303 J0.5303
G02 X9.2501 Y86.1999 I0.6929 J0.2870
G02 X9.3072 Y86.4869 I0.7500 J0.0000
G02 X9.4698 Y86.7302 I0.6929 J-0.2870
G02 X9.7131 Y86.8927 I0.5303 J-0.5303
G02 X10.0001 Y86.9498 I0.2870 J-0.6929
G02 X10.2871 Y86.8927 I0.0000 J-0.7500
G02 X10.5304 Y86.7302 I-0.2870 J-0.6929
G02 X10.6930 Y86.4869 I-0.5303 J-0.5303
G02 X10.7501 Y86.1999 I-0.6929 J-0.2870
G02 X9.6251 Y85.5504 I-0.7500 J0.0000
G02 Y86.8494 I0.3750 J0.6495
G02 X10.7501 Y86.1999 I0.3750 J-0.6495
G02 X9.5001 I-0.6250 J0.0000
G02 X10.5001 I0.5000 J0.0000
G02 X9.7501 Y85.7669 Z-2.5393 I-0.5000 J0.0000
G02 Y86.6329 Z-2.6214 I0.2500 J0.4330
G02 X10.5001 Y86.1999 Z-2.7036 I0.2500 J-0.4330
G02 X9.7501 Y85.7669 I-0.5000 J0.0000
G02 Y86.6329 I0.2500 J0.4330
G02 X10.5001 Y86.1999 I0.2500 J-0.4330
G02 X10.5053 Y85.9906 I-0.4981 J-0.1172
G02 X10.4199 Y85.7800 I-0.5502 J0.1005
G02 X10.2453 Y85.6080 I-0.5043 J0.3375
G02 X10.0001 Y85.5124 I-0.3555 J0.5493
G02 X9.7191 Y85.5214 I-0.1184 J0.6916
G02 X9.4698 Y85.6696 I0.2467 J0.6988
G02 X9.3072 Y85.9129 I0.5303 J0.5303
G02 X9.2501 Y86.1999 I0.6929 J0.2870
G02 X9.3072 Y86.4869 I0.7500 J0.0000
G02 X9.4698 Y86.7302 I0.6929 J-0.2870
G02 X9.7131 Y86.8927 I0.5303 J-0.5303
G02 X10.0001 Y86.9498 I0.2870 J-0.6929
G02 X10.2871 Y86.8927 I0.0000 J-0.7500
G02 X10.5304 Y86.7302 I-0.2870 J-0.6929
G02 X10.6930 Y86.4869 I-0.5303 J-0.5303
G02 X10.7501 Y86.1999 I-0.6929 J-0.2870
G02 X9.6251 Y85.5504 I-0.7500 J0.0000
G02 Y86.8494 I0.3750 J0.6495
G02 X10.7501 Y86.1999 I0.3750 J-0.6495
G02 X9.5001 I-0.6250 J0.0000
G02 X10.5001 I0.5000 J0.0000
G02 X9.7501 Y85.7669 Z-2.7857 I-0.5000 J0.0000
G02 Y86.6329 Z-2.8679 I0.2500 J0.4330
G02 X10.5001 Y86.1999 Z-2.9500 I0.2500 J-0.4330
G02 X9.7501 Y85.7669 I-0.5000 J0.0000
G02 Y86.6329 I0.2500 J0.4330
G02 X10.5001 Y86.1999 I0.2500 J-0.4330
G02 X10.5053 Y85.9906 I-0.4981 J-0.1172
G02 X10.4199 Y85.7800 I-0.5502 J0.1005
G02 X10.2453 Y85.6080 I-0.5043 J0.3375
G02 X10.0001 Y85.5124 I-0.3555 J0.5493
G02 X9.7191 Y85.5214 I-0.1184 J0.6916
G02 X9.4698 Y85.6696 I0.2467 J0.6988
G02 X9.3072 Y85.9129 I0.5303 J0.5303
G02 X9.2501 Y86.1999 I0.6929 J0.2870
G02 X9.3072 Y86.4869 I0.7500 J0.0000
G02 X9.4698 Y86.7302 I0.6929 J-0.2870
G02 X9.7131 Y86.8927 I0.5303 J-0.5303
G02 X10.0001 Y86.9498 I0.2870 J-0.6929
G02 X10.2871 Y86.8927 I0.0000 J-0.7500
G02 X10.5304 Y86.7302 I-0.2870 J-0.6929
G02 X10.6930 Y86.4869 I-0.5303 J-0.5303
G02 X10.7501 Y86.1999 I-0.6929 J-0.2870
G02 X9.6251 Y85.5504 I-0.7500 J0.0000
G02 Y86.8494 I0.3750 J0.6495
G02 X10.7501 Y86.1999 I0.3750 J-0.6495
G02 X9.5001 I-0.6250 J0.0000
G02 X10.5001 I0.5000 J0.0000
G02 X9.7501 Y85.7669 Z-3.0321 I-0.5000 J0.0000
G02 Y86.6329 Z-3.1143 I0.2500 J0.4330
G02 X10.5001 Y86.1999 Z-3.1964 I0.2500 J-0.4330
G02 X9.7501 Y85.7669 I-0.5000 J0.0000
G02 Y86.6329 I0.2500 J0.4330
G02 X10.5001 Y86.1999 I0.2500 J-0.4330
G02 X10.5053 Y85.9906 I-0.4981 J-0.1172
G02 X10.4199 Y85.7800 I-0.5502 J0.1005
G02 X10.2453 Y85.6080 I-0.5043 J0.3375
G02 X10.0001 Y85.5124 I-0.3555 J0.5493
G02 X9.7191 Y85.5214 I-0.1184 J0.6916
G02 X9.4698 Y85.6696 I0.2467 J0.6988
G02 X9.3072 Y85.9129 I0.5303 J0.5303
G02 X9.2501 Y86.1999 I0.6929 J0.2870
G02 X9.3072 Y86.4869 I0.7500 J0.0000
G02 X9.4698 Y86.7302 I0.6929 J-0.2870
G02 X9.7131 Y86.8927 I0.5303 J-0.5303
G02 X10.0001 Y86.9498 I0.2870 J-0.6929
G02 X10.2871 Y86.8927 I0.0000 J-0.7500
G02 X10.5304 Y86.7302 I-0.2870 J-0.6929
G02 X10.6930 Y86.4869 I-0.5303 J-0.5303
G02 X10.7501 Y86.1999 I-0.6929 J-0.2870
G02 X9.6251 Y85.5504 I-0.7500 J0.0000
G02 Y86.8494 I0.3750 J0.6495
G02 X10.7501 Y86.1999 I0.3750 J-0.6495
G02 X9.5001 I-0.6250 J0.0000
G02 X10.5001 I0.5000 J0.0000
G02 X9.7501 Y85.7669 Z-3.2786 I-0.5000 J0.0000
G02 Y86.6329 Z-3.3607 I0.2500 J0.4330
G02 X10.5001 Y86.1999 Z-3.4429 I0.2500 J-0.4330
G02 X9.7501 Y85.7669 I-0.5000 J0.0000
G02 Y86.6329 I0.2500 J0.4330
G02 X10.5001 Y86.1999 I0.2500 J-0.4330
G02 X10.5053 Y85.9906 I-0.4981 J-0.1172
G02 X10.4199 Y85.7800 I-0.5502 J0.1005
G02 X10.2453 Y85.6080 I-0.5043 J0.3375
G02 X10.0001 Y85.5124 I-0.3555 J0.5493
G02 X9.7191 Y85.5214 I-0.1184 J0.6916
G02 X9.4698 Y85.6696 I0.2467 J0.6988
G02 X9.3072 Y85.9129 I0.5303 J0.5303
G02 X9.2501 Y86.1999 I0.6929 J0.2870
G02 X9.3072 Y86.4869 I0.7500 J0.0000
G02 X9.4698 Y86.7302 I0.6929 J-0.2870
G02 X9.7131 Y86.8927 I0.5303 J-0.5303
G02 X10.0001 Y86.9498 I0.2870 J-0.6929
G02 X10.2871 Y86.8927 I0.0000 J-0.7500
G02 X10.5304 Y86.7302 I-0.2870 J-0.6929
G02 X10.6930 Y86.4869 I-0.5303 J-0.5303
G02 X10.7501 Y86.1999 I-0.6929 J-0.2870
G02 X9.6251 Y85.5504 I-0.7500 J0.0000
G02 Y86.8494 I0.3750 J0.6495
G02 X10.7501 Y86.1999 I0.3750 J-0.6495
G02 X9.5001 I-0.6250 J0.0000
G02 X10.5001 I0.5000 J0.0000
G02 X9.7501 Y85.7669 Z-3.5250 I-0.5000 J0.0000
G02 Y86.6329 Z-3.6071 I0.2500 J0.4330
G02 X10.5001 Y86.1999 Z-3.6893 I0.2500 J-0.4330
G02 X9.7501 Y85.7669 I-0.5000 J0.0000
G02 Y86.6329 I0.2500 J0.4330
G02 X10.5001 Y86.1999 I0.2500 J-0.4330
G02 X10.5053 Y85.9906 I-0.4981 J-0.1172
G02 X10.4199 Y85.7800 I-0.5502 J0.1005
G02 X10.2453 Y85.6080 I-0.5043 J0.3375
G02 X10.0001 Y85.5124 I-0.3555 J0.5493
G02 X9.7191 Y85.5214 I-0.1184 J0.6916
G02 X9.4698 Y85.6696 I0.2467 J0.6988
G02 X9.3072 Y85.9129 I0.5303 J0.5303
G02 X9.2501 Y86.1999 I0.6929 J0.2870
G02 X9.3072 Y86.4869 I0.7500 J0.0000
G02 X9.4698 Y86.7302 I0.6929 J-0.2870
G02 X9.7131 Y86.8927 I0.5303 J-0.5303
G02 X10.0001 Y86.9498 I0.2870 J-0.6929
G02 X10.2871 Y86.8927 I0.0000 J-0.7500
G02 X10.5304 Y86.7302 I-0.2870 J-0.6929
G02 X10.6930 Y86.4869 I-0.5303 J-0.5303
G02 X10.7501 Y86.1999 I-0.6929 J-0.2870
G02 X9.6251 Y85.5504 I-0.7500 J0.0000
G02 Y86.8494 I0.3750 J0.6495
G02 X10.7501 Y86.1999 I0.3750 J-0.6495
G02 X9.5001 I-0.6250 J0.0000
G02 X10.5001 I0.5000 J0.0000
G02 X9.7501 Y85.7669 Z-3.7714 I-0.5000 J0.0000
G02 Y86.6329 Z-3.8536 I0.2500 J0.4330
G02 X10.5001 Y86.1999 Z-3.9357 I0.2500 J-0.4330
G02 X9.7501 Y85.7669 I-0.5000 J0.0000
G02 Y86.6329 I0.2500 J0.4330
G02 X10.5001 Y86.1999 I0.2500 J-0.4330
G02 X10.5053 Y85.9906 I-0.4981 J-0.1172
G02 X10.4199 Y85.7800 I-0.5502 J0.1005
G02 X10.2453 Y85.6080 I-0.5043 J0.3375
G02 X10.0001 Y85.5124 I-0.3555 J0.5493
G02 X9.7191 Y85.5214 I-0.1184 J0.6916
G02 X9.4698 Y85.6696 I0.2467 J0.6988
G02 X9.3072 Y85.9129 I0.5303 J0.5303
G02 X9.2501 Y86.1999 I0.6929 J0.2870
G02 X9.3072 Y86.4869 I0.7500 J0.0000
G02 X9.4698 Y86.7302 I0.6929 J-0.2870
G02 X9.7131 Y86.8927 I0.5303 J-0.5303
G02 X10.0001 Y86.9498 I0.2870 J-0.6929
G02 X10.2871 Y86.8927 I0.0000 J-0.7500
G02 X10.5304 Y86.7302 I-0.2870 J-0.6929
G02 X10.6930 Y86.4869 I-0.5303 J-0.5303
G02 X10.7501 Y86.1999 I-0.6929 J-0.2870
G02 X9.6251 Y85.5504 I-0.7500 J0.0000
G02 Y86.8494 I0.3750 J0.6495
G02 X10.7501 Y86.1999 I0.3750 J-0.6495
G02 X9.5001 I-0.6250 J0.0000
G02 X10.5001 I0.5000 J0.0000
G02 X9.7501 Y85.7669 Z-4.0179 I-0.5000 J0.0000
G02 Y86.6329 Z-4.1000 I0.2500 J0.4330
G02 X10.5001 Y86.1999 Z-4.1821 I0.2500 J-0.4330
G02 X9.7501 Y85.7669 I-0.5000 J0.0000
G02 Y86.6329 I0.2500 J0.4330
G02 X10.5001 Y86.1999 I0.2500 J-0.4330
G02 X10.5053 Y85.9906 I-0.4981 J-0.1172
G02 X10.4199 Y85.7800 I-0.5502 J0.1005
G02 X10.2453 Y85.6080 I-0.5043 J0.3375
G02 X10.0001 Y85.5124 I-0.3555 J0.5493
G02 X9.7191 Y85.5214 I-0.1184 J0.6916
G02 X9.4698 Y85.6696 I0.2467 J0.6988
G02 X9.3072 Y85.9129 I0.5303 J0.5303
G02 X9.2501 Y86.1999 I0.6929 J0.2870
G02 X9.3072 Y86.4869 I0.7500 J0.0000
G02 X9.4698 Y86.7302 I0.6929 J-0.2870
G02 X9.7131 Y86.8927 I0.5303 J-0.5303
G02 X10.0001 Y86.9498 I0.2870 J-0.6929
G02 X10.2871 Y86.8927 I0.0000 J-0.7500
G02 X10.5304 Y86.7302 I-0.2870 J-0.6929
G02 X10.6930 Y86.4869 I-0.5303 J-0.5303
G02 X10.7501 Y86.1999 I-0.6929 J-0.2870
G02 X9.6251 Y85.5504 I-0.7500 J0.0000
G02 Y86.8494 I0.3750 J0.6495
G02 X10.7501 Y86.1999 I0.3750 J-0.6495
G02 X9.5001 I-0.6250 J0.0000
G02 X10.5001 I0.5000 J0.0000
G02 X9.7501 Y85.7669 Z-4.2643 I-0.5000 J0.0000
G02 Y86.6329 Z-4.3464 I0.2500 J0.4330
G02 X10.5001 Y86.1999 Z-4.4286 I0.2500 J-0.4330
G02 X9.7501 Y85.7669 I-0.5000 J0.0000
G02 Y86.6329 I0.2500 J0.4330
G02 X10.5001 Y86.1999 I0.2500 J-0.4330
G02 X10.5053 Y85.9906 I-0.4981 J-0.1172
G02 X10.4199 Y85.7800 I-0.5502 J0.1005
G02 X10.2453 Y85.6080 I-0.5043 J0.3375
G02 X10.0001 Y85.5124 I-0.3555 J0.5493
G02 X9.7191 Y85.5214 I-0.1184 J0.6916
G02 X9.4698 Y85.6696 I0.2467 J0.6988
G02 X9.3072 Y85.9129 I0.5303 J0.5303
G02 X9.2501 Y86.1999 I0.6929 J0.2870
G02 X9.3072 Y86.4869 I0.7500 J0.0000
G02 X9.4698 Y86.7302 I0.6929 J-0.2870
G02 X9.7131 Y86.8927 I0.5303 J-0.5303
G02 X10.0001 Y86.9498 I0.2870 J-0.6929
G02 X10.2871 Y86.8927 I0.0000 J-0.7500
G02 X10.5304 Y86.7302 I-0.2870 J-0.6929
G02 X10.6930 Y86.4869 I-0.5303 J-0.5303
G02 X10.7501 Y86.1999 I-0.6929 J-0.2870
G02 X9.6251 Y85.5504 I-0.7500 J0.0000
G02 Y86.8494 I0.3750 J0.6495
G02 X10.7501 Y86.1999 I0.3750 J-0.6495
G02 X9.5001 I-0.6250 J0.0000
G02 X10.5001 I0.5000 J0.0000
G02 X9.7501 Y85.7669 Z-4.5107 I-0.5000 J0.0000
G02 Y86.6329 Z-4.5929 I0.2500 J0.4330
G02 X10.5001 Y86.1999 Z-4.6750 I0.2500 J-0.4330
G02 X9.7501 Y85.7669 I-0.5000 J0.0000
G02 Y86.6329 I0.2500 J0.4330
G02 X10.5001 Y86.1999 I0.2500 J-0.4330
G02 X10.5053 Y85.9906 I-0.4981 J-0.1172
G02 X10.4199 Y85.7800 I-0.5502 J0.1005
G02 X10.2453 Y85.6080 I-0.5043 J0.3375
G02 X10.0001 Y85.5124 I-0.3555 J0.5493
G02 X9.7191 Y85.5214 I-0.1184 J0.6916
G02 X9.4698 Y85.6696 I0.2467 J0.6988
G02 X9.3072 Y85.9129 I0.5303 J0.5303
G02 X9.2501 Y86.1999 I0.6929 J0.2870
G02 X9.3072 Y86.4869 I0.7500 J0.0000
G02 X9.4698 Y86.7302 I0.6929 J-0.2870
G02 X9.7131 Y86.8927 I0.5303 J-0.5303
G02 X10.0001 Y86.9498 I0.2870 J-0.6929
G02 X10.2871 Y86.8927 I0.0000 J-0.7500
G02 X10.5304 Y86.7302 I-0.2870 J-0.6929
G02 X10.6930 Y86.4869 I-0.5303 J-0.5303
G02 X10.7501 Y86.1999 I-0.6929 J-0.2870
G02 X9.6251 Y85.5504 I-0.7500 J0.0000
G02 Y86.8494 I0.3750 J0.6495
G02 X10.7501 Y86.1999 I0.3750 J-0.6495
G02 X9.5001 I-0.6250 J0.0000
G02 X10.5001 I0.5000 J0.0000
G02 X9.7501 Y85.7669 Z-4.7571 I-0.5000 J0.0000
G02 Y86.6329 Z-4.8393 I0.2500 J0.4330
G02 X10.5001 Y86.1999 Z-4.9214 I0.2500 J-0.4330
G02 X9.7501 Y85.7669 I-0.5000 J0.0000
G02 Y86.6329 I0.2500 J0.4330
G02 X10.5001 Y86.1999 I0.2500 J-0.4330
G02 X10.5053 Y85.9906 I-0.4981 J-0.1172
G02 X10.4199 Y85.7800 I-0.5502 J0.1005
G02 X10.2453 Y85.6080 I-0.5043 J0.3375
G02 X10.0001 Y85.5124 I-0.3555 J0.5493
G02 X9.7191 Y85.5214 I-0.1184 J0.6916
G02 X9.4698 Y85.6696 I0.2467 J0.6988
G02 X9.3072 Y85.9129 I0.5303 J0.5303
G02 X9.2501 Y86.1999 I0.6929 J0.2870
G02 X9.3072 Y86.4869 I0.7500 J0.0000
G02 X9.4698 Y86.7302 I0.6929 J-0.2870
G02 X9.7131 Y86.8927 I0.5303 J-0.5303
G02 X10.0001 Y86.9498 I0.2870 J-0.6929
G02 X10.2871 Y86.8927 I0.0000 J-0.7500
G02 X10.5304 Y86.7302 I-0.2870 J-0.6929
G02 X10.6930 Y86.4869 I-0.5303 J-0.5303
G02 X10.7501 Y86.1999 I-0.6929 J-0.2870
G02 X9.6251 Y85.5504 I-0.7500 J0.0000
G02 Y86.8494 I0.3750 J0.6495
G02 X10.7501 Y86.1999 I0.3750 J-0.6495
G02 X9.5001 I-0.6250 J0.0000
G02 X10.5001 I0.5000 J0.0000
G02 X9.7501 Y85.7669 Z-5.0036 I-0.5000 J0.0000
G02 Y86.6329 Z-5.0857 I0.2500 J0.4330
G02 X10.5001 Y86.1999 Z-5.1679 I0.2500 J-0.4330
G02 X9.7501 Y85.7669 I-0.5000 J0.0000
G02 Y86.6329 I0.2500 J0.4330
G02 X10.5001 Y86.1999 I0.2500 J-0.4330
G02 X10.5053 Y85.9906 I-0.4981 J-0.1172
G02 X10.4199 Y85.7800 I-0.5502 J0.1005
G02 X10.2453 Y85.6080 I-0.5043 J0.3375
G02 X10.0001 Y85.5124 I-0.3555 J0.5493
G02 X9.7191 Y85.5214 I-0.1184 J0.6916
G02 X9.4698 Y85.6696 I0.2467 J0.6988
G02 X9.3072 Y85.9129 I0.5303 J0.5303
G02 X9.2501 Y86.1999 I0.6929 J0.2870
G02 X9.3072 Y86.4869 I0.7500 J0.0000
G02 X9.4698 Y86.7302 I0.6929 J-0.2870
G02 X9.7131 Y86.8927 I0.5303 J-0.5303
G02 X10.0001 Y86.9498 I0.2870 J-0.6929
G02 X10.2871 Y86.8927 I0.0000 J-0.7500
G02 X10.5304 Y86.7302 I-0.2870 J-0.6929
G02 X10.6930 Y86.4869 I-0.5303 J-0.5303
G02 X10.7501 Y86.1999 I-0.6929 J-0.2870
G02 X9.6251 Y85.5504 I-0.7500 J0.0000
G02 Y86.8494 I0.3750 J0.6495
G02 X10.7501 Y86.1999 I0.3750 J-0.6495
G02 X9.5001 I-0.6250 J0.0000
G02 X10.5001 I0.5000 J0.0000
G02 X9.7501 Y85.7669 Z-5.2500 I-0.5000 J0.0000
G02 Y86.6329 Z-5.3321 I0.2500 J0.4330
G02 X10.5001 Y86.1999 Z-5.4143 I0.2500 J-0.4330
G02 X9.7501 Y85.7669 I-0.5000 J0.0000
G02 Y86.6329 I0.2500 J0.4330
G02 X10.5001 Y86.1999 I0.2500 J-0.4330
G02 X10.5053 Y85.9906 I-0.4981 J-0.1172
G02 X10.4199 Y85.7800 I-0.5502 J0.1005
G02 X10.2453 Y85.6080 I-0.5043 J0.3375
G02 X10.0001 Y85.5124 I-0.3555 J0.5493
G02 X9.7191 Y85.5214 I-0.1184 J0.6916
G02 X9.4698 Y85.6696 I0.2467 J0.6988
G02 X9.3072 Y85.9129 I0.5303 J0.5303
G02 X9.2501 Y86.1999 I0.6929 J0.2870
G02 X9.3072 Y86.4869 I0.7500 J0.0000
G02 X9.4698 Y86.7302 I0.6929 J-0.2870
G02 X9.7131 Y86.8927 I0.5303 J-0.5303
G02 X10.0001 Y86.9498 I0.2870 J-0.6929
G02 X10.2871 Y86.8927 I0.0000 J-0.7500
G02 X10.5304 Y86.7302 I-0.2870 J-0.6929
G02 X10.6930 Y86.4869 I-0.5303 J-0.5303
G02 X10.7501 Y86.1999 I-0.6929 J-0.2870
G02 X9.6251 Y85.5504 I-0.7500 J0.0000
G02 Y86.8494 I0.3750 J0.6495
G02 X10.7501 Y86.1999 I0.3750 J-0.6495
G02 X9.5001 I-0.6250 J0.0000
G02 X10.5001 I0.5000 J0.0000
G02 X9.7501 Y85.7669 Z-5.4964 I-0.5000 J0.0000
G02 Y86.6329 Z-5.5786 I0.2500 J0.4330
G02 X10.5001 Y86.1999 Z-5.6607 I0.2500 J-0.4330
G02 X9.7501 Y85.7669 I-0.5000 J0.0000
G02 Y86.6329 I0.2500 J0.4330
G02 X10.5001 Y86.1999 I0.2500 J-0.4330
G02 X10.5053 Y85.9906 I-0.4981 J-0.1172
G02 X10.4199 Y85.7800 I-0.5502 J0.1005
G02 X10.2453 Y85.6080 I-0.5043 J0.3375
G02 X10.0001 Y85.5124 I-0.3555 J0.5493
G02 X9.7191 Y85.5214 I-0.1184 J0.6916
G02 X9.4698 Y85.6696 I0.2467 J0.6988
G02 X9.3072 Y85.9129 I0.5303 J0.5303
G02 X9.2501 Y86.1999 I0.6929 J0.2870
G02 X9.3072 Y86.4869 I0.7500 J0.0000
G02 X9.4698 Y86.7302 I0.6929 J-0.2870
G02 X9.7131 Y86.8927 I0.5303 J-0.5303
G02 X10.0001 Y86.9498 I0.2870 J-0.6929
G02 X10.2871 Y86.8927 I0.0000 J-0.7500
G02 X10.5304 Y86.7302 I-0.2870 J-0.6929
G02 X10.6930 Y86.4869 I-0.5303 J-0.5303
G02 X10.7501 Y86.1999 I-0.6929 J-0.2870
G02 X9.6251 Y85.5504 I-0.7500 J0.0000
G02 Y86.8494 I0.3750 J0.6495
G02 X10.7501 Y86.1999 I0.3750 J-0.6495
G02 X9.5001 I-0.6250 J0.0000
G02 X10.5001 I0.5000 J0.0000
G02 X9.7501 Y85.7669 Z-5.7429 I-0.5000 J0.0000
G02 Y86.6329 Z-5.8250 I0.2500 J0.4330
G02 X10.5001 Y86.1999 Z-5.9071 I0.2500 J-0.4330
G02 X9.7501 Y85.7669 I-0.5000 J0.0000
G02 Y86.6329 I0.2500 J0.4330
G02 X10.5001 Y86.1999 I0.2500 J-0.4330
G02 X10.5053 Y85.9906 I-0.4981 J-0.1172
G02 X10.4199 Y85.7800 I-0.5502 J0.1005
G02 X10.2453 Y85.6080 I-0.5043 J0.3375
G02 X10.0001 Y85.5124 I-0.3555 J0.5493
G02 X9.7191 Y85.5214 I-0.1184 J0.6916
G02 X9.4698 Y85.6696 I0.2467 J0.6988
G02 X9.3072 Y85.9129 I0.5303 J0.5303
G02 X9.2501 Y86.1999 I0.6929 J0.2870
G02 X9.3072 Y86.4869 I0.7500 J0.0000
G02 X9.4698 Y86.7302 I0.6929 J-0.2870
G02 X9.7131 Y86.8927 I0.5303 J-0.5303
G02 X10.0001 Y86.9498 I0.2870 J-0.6929
G02 X10.2871 Y86.8927 I0.0000 J-0.7500
G02 X10.5304 Y86.7302 I-0.2870 J-0.6929
G02 X10.6930 Y86.4869 I-0.5303 J-0.5303
G02 X10.7501 Y86.1999 I-0.6929 J-0.2870
G02 X9.6251 Y85.5504 I-0.7500 J0.0000
G02 Y86.8494 I0.3750 J0.6495
G02 X10.7501 Y86.1999 I0.3750 J-0.6495
G02 X9.5001 I-0.6250 J0.0000
G02 X10.5001 I0.5000 J0.0000
G02 X9.7501 Y85.7669 Z-5.9893 I-0.5000 J0.0000
G02 Y86.6329 Z-6.0714 I0.2500 J0.4330
G02 X10.5001 Y86.1999 Z-6.1536 I0.2500 J-0.4330
G02 X9.7501 Y85.7669 I-0.5000 J0.0000
G02 Y86.6329 I0.2500 J0.4330
G02 X10.5001 Y86.1999 I0.2500 J-0.4330
G02 X10.5053 Y85.9906 I-0.4981 J-0.1172
G02 X10.4199 Y85.7800 I-0.5502 J0.1005
G02 X10.2453 Y85.6080 I-0.5043 J0.3375
G02 X10.0001 Y85.5124 I-0.3555 J0.5493
G02 X9.7191 Y85.5214 I-0.1184 J0.6916
G02 X9.4698 Y85.6696 I0.2467 J0.6988
G02 X9.3072 Y85.9129 I0.5303 J0.5303
G02 X9.2501 Y86.1999 I0.6929 J0.2870
G02 X9.3072 Y86.4869 I0.7500 J0.0000
G02 X9.4698 Y86.7302 I0.6929 J-0.2870
G02 X9.7131 Y86.8927 I0.5303 J-0.5303
G02 X10.0001 Y86.9498 I0.2870 J-0.6929
G02 X10.2871 Y86.8927 I0.0000 J-0.7500
G02 X10.5304 Y86.7302 I-0.2870 J-0.6929
G02 X10.6930 Y86.4869 I-0.5303 J-0.5303
G02 X10.7501 Y86.1999 I-0.6929 J-0.2870
G02 X9.6251 Y85.5504 I-0.7500 J0.0000
G02 Y86.8494 I0.3750 J0.6495
G02 X10.7501 Y86.1999 I0.3750 J-0.6495
G02 X9.5001 I-0.6250 J0.0000
G02 X10.5001 I0.5000 J0.0000
G02 X9.7501 Y85.7669 Z-6.2357 I-0.5000 J0.0000
G02 Y86.6329 Z-6.3179 I0.2500 J0.4330
G02 X10.5001 Y86.1999 Z-6.4000 I0.2500 J-0.4330
G02 X9.7501 Y85.7669 I-0.5000 J0.0000
G02 Y86.6329 I0.2500 J0.4330
G02 X10.5001 Y86.1999 I0.2500 J-0.4330
G02 X10.5053 Y85.9906 I-0.4981 J-0.1172
G02 X10.4199 Y85.7800 I-0.5502 J0.1005
G02 X10.2453 Y85.6080 I-0.5043 J0.3375
G02 X10.0001 Y85.5124 I-0.3555 J0.5493
G02 X9.7191 Y85.5214 I-0.1184 J0.6916
G02 X9.4698 Y85.6696 I0.2467 J0.6988
G02 X9.3072 Y85.9129 I0.5303 J0.5303
G02 X9.2501 Y86.1999 I0.6929 J0.2870
G02 X9.3072 Y86.4869 I0.7500 J0.0000
G02 X9.4698 Y86.7302 I0.6929 J-0.2870
G02 X9.7131 Y86.8927 I0.5303 J-0.5303
G02 X10.0001 Y86.9498 I0.2870 J-0.6929
G02 X10.2871 Y86.8927 I0.0000 J-0.7500
G02 X10.5304 Y86.7302 I-0.2870 J-0.6929
G02 X10.6930 Y86.4869 I-0.5303 J-0.5303
G02 X10.7501 Y86.1999 I-0.6929 J-0.2870
G02 X9.6251 Y85.5504 I-0.7500 J0.0000
G02 Y86.8494 I0.3750 J0.6495
G02 X10.7501 Y86.1999 I0.3750 J-0.6495
G02 X9.5001 I-0.6250 J0.0000
G02 X10.5001 I0.5000 J0.0000
G00 Z5.0000


(No. 4: Helical drill 30)
G00 X10.5001 Y111.5999 Z5.0000
G00 Z0.5000
G02 X9.7501 Y111.1669 Z0.4179 I-0.5000 J0.0000 F1200
G02 Y112.0329 Z0.3357 I0.2500 J0.4330
G02 X10.5001 Y111.5999 Z0.2536 I0.2500 J-0.4330
G02 X9.7501 Y111.1669 I-0.5000 J0.0000
G02 Y112.0329 I0.2500 J0.4330
G02 X10.5001 Y111.5999 I0.2500 J-0.4330
G02 X10.5053 Y111.3906 I-0.4981 J-0.1172
G02 X10.4199 Y111.1800 I-0.5502 J0.1005
G02 X10.2453 Y111.0080 I-0.5043 J0.3375
G02 X10.0001 Y110.9124 I-0.3555 J0.5493
G02 X9.7191 Y110.9214 I-0.1184 J0.6916
G02 X9.4698 Y111.0696 I0.2467 J0.6988
G02 X9.3072 Y111.3129 I0.5303 J0.5303
G02 X9.2501 Y111.5999 I0.6929 J0.2870
G02 X9.3072 Y111.8869 I0.7500 J0.0000
G02 X9.4698 Y112.1302 I0.6929 J-0.2870
G02 X9.7131 Y112.2927 I0.5303 J-0.5303
G02 X10.0001 Y112.3498 I0.2870 J-0.6929
G02 X10.2871 Y112.2927 I0.0000 J-0.7500
G02 X10.5304 Y112.1302 I-0.2870 J-0.6929
G02 X10.6930 Y111.8869 I-0.5303 J-0.5303
G02 X10.7501 Y111.5999 I-0.6929 J-0.2870
G02 X9.6251 Y110.9504 I-0.7500 J0.0000
G02 Y112.2494 I0.3750 J0.6495
G02 X10.7501 Y111.5999 I0.3750 J-0.6495
G02 X9.5001 I-0.6250 J0.0000
G02 X10.5001 I0.5000 J0.0000
G02 X9.7501 Y111.1669 Z0.1714 I-0.5000 J0.0000
G02 Y112.0329 Z0.0893 I0.2500 J0.4330
G02 X10.5001 Y111.5999 Z0.0071 I0.2500 J-0.4330
G02 X9.7501 Y111.1669 I-0.5000 J0.0000
G02 Y112.0329 I0.2500 J0.4330
G02 X10.5001 Y111.5999 I0.2500 J-0.4330
G02 X10.5053 Y111.3906 I-0.4981 J-0.1172
G02 X10.4199 Y111.1800 I-0.5502 J0.1005
G02 X10.2453 Y111.0080 I-0.5043 J0.3375
G02 X10.0001 Y110.9124 I-0.3555 J0.5493
G02 X9.7191 Y110.9214 I-0.1184 J0.6916
G02 X9.4698 Y111.0696 I0.2467 J0.6988
G02 X9.3072 Y111.3129 I0.5303 J0.5303
G02 X9.2501 Y111.5999 I0.6929 J0.2870
G02 X9.3072 Y111.8869 I0.7500 J0.0000
G02 X9.4698 Y112.1302 I0.6929 J-0.2870
G02 X9.7131 Y112.2927 I0.5303 J-0.5303
G02 X10.0001 Y112.3498 I0.2870 J-0.6929
G02 X10.2871 Y112.2927 I0.0000 J-0.7500
G02 X10.5304 Y112.1302 I-0.2870 J-0.6929
G02 X10.6930 Y111.8869 I-0.5303 J-0.5303
G02 X10.7501 Y111.5999 I-0.6929 J-0.2870
G02 X9.6251 Y110.9504 I-0.7500 J0.0000
G02 Y112.2494 I0.3750 J0.6495
G02 X10.7501 Y111.5999 I0.3750 J-0.6495
G02 X9.5001 I-0.6250 J0.0000
G02 X10.5001 I0.5000 J0.0000
G02 X9.7501 Y111.1669 Z-0.0750 I-0.5000 J0.0000
G02 Y112.0329 Z-0.1571 I0.2500 J0.4330
G02 X10.5001 Y111.5999 Z-0.2393 I0.2500 J-0.4330
G02 X9.7501 Y111.1669 I-0.5000 J0.0000
G02 Y112.0329 I0.2500 J0.4330
G02 X10.5001 Y111.5999 I0.2500 J-0.4330
G02 X10.5053 Y111.3906 I-0.4981 J-0.1172
G02 X10.4199 Y111.1800 I-0.5502 J0.1005
G02 X10.2453 Y111.0080 I-0.5043 J0.3375
G02 X10.0001 Y110.9124 I-0.3555 J0.5493
G02 X9.7191 Y110.9214 I-0.1184 J0.6916
G02 X9.4698 Y111.0696 I0.2467 J0.6988
G02 X9.3072 Y111.3129 I0.5303 J0.5303
G02 X9.2501 Y111.5999 I0.6929 J0.2870
G02 X9.3072 Y111.8869 I0.7500 J0.0000
G02 X9.4698 Y112.1302 I0.6929 J-0.2870
G02 X9.7131 Y112.2927 I0.5303 J-0.5303
G02 X10.0001 Y112.3498 I0.2870 J-0.6929
G02 X10.2871 Y112.2927 I0.0000 J-0.7500
G02 X10.5304 Y112.1302 I-0.2870 J-0.6929
G02 X10.6930 Y111.8869 I-0.5303 J-0.5303
G02 X10.7501 Y111.5999 I-0.6929 J-0.2870
G02 X9.6251 Y110.9504 I-0.7500 J0.0000
G02 Y112.2494 I0.3750 J0.6495
G02 X10.7501 Y111.5999 I0.3750 J-0.6495
G02 X9.5001 I-0.6250 J0.0000
G02 X10.5001 I0.5000 J0.0000
G02 X9.7501 Y111.1669 Z-0.3214 I-0.5000 J0.0000
G02 Y112.0329 Z-0.4036 I0.2500 J0.4330
G02 X10.5001 Y111.5999 Z-0.4857 I0.2500 J-0.4330
G02 X9.7501 Y111.1669 I-0.5000 J0.0000
G02 Y112.0329 I0.2500 J0.4330
G02 X10.5001 Y111.5999 I0.2500 J-0.4330
G02 X10.5053 Y111.3906 I-0.4981 J-0.1172
G02 X10.4199 Y111.1800 I-0.5502 J0.1005
G02 X10.2453 Y111.0080 I-0.5043 J0.3375
G02 X10.0001 Y110.9124 I-0.3555 J0.5493
G02 X9.7191 Y110.9214 I-0.1184 J0.6916
G02 X9.4698 Y111.0696 I0.2467 J0.6988
G02 X9.3072 Y111.3129 I0.5303 J0.5303
G02 X9.2501 Y111.5999 I0.6929 J0.2870
G02 X9.3072 Y111.8869 I0.7500 J0.0000
G02 X9.4698 Y112.1302 I0.6929 J-0.2870
G02 X9.7131 Y112.2927 I0.5303 J-0.5303
G02 X10.0001 Y112.3498 I0.2870 J-0.6929
G02 X10.2871 Y112.2927 I0.0000 J-0.7500
G02 X10.5304 Y112.1302 I-0.2870 J-0.6929
G02 X10.6930 Y111.8869 I-0.5303 J-0.5303
G02 X10.7501 Y111.5999 I-0.6929 J-0.2870
G02 X9.6251 Y110.9504 I-0.7500 J0.0000
G02 Y112.2494 I0.3750 J0.6495
G02 X10.7501 Y111.5999 I0.3750 J-0.6495
G02 X9.5001 I-0.6250 J0.0000
G02 X10.5001 I0.5000 J0.0000
G02 X9.7501 Y111.1669 Z-0.5679 I-0.5000 J0.0000
G02 Y112.0329 Z-0.6500 I0.2500 J0.4330
G02 X10.5001 Y111.5999 Z-0.7321 I0.2500 J-0.4330
G02 X9.7501 Y111.1669 I-0.5000 J0.0000
G02 Y112.0329 I0.2500 J0.4330
G02 X10.5001 Y111.5999 I0.2500 J-0.4330
G02 X10.5053 Y111.3906 I-0.4981 J-0.1172
G02 X10.4199 Y111.1800 I-0.5502 J0.1005
G02 X10.2453 Y111.0080 I-0.5043 J0.3375
G02 X10.0001 Y110.9124 I-0.3555 J0.5493
G02 X9.7191 Y110.9214 I-0.1184 J0.6916
G02 X9.4698 Y111.0696 I0.2467 J0.6988
G02 X9.3072 Y111.3129 I0.5303 J0.5303
G02 X9.2501 Y111.5999 I0.6929 J0.2870
G02 X9.3072 Y111.8869 I0.7500 J0.0000
G02 X9.4698 Y112.1302 I0.6929 J-0.2870
G02 X9.7131 Y112.2927 I0.5303 J-0.5303
G02 X10.0001 Y112.3498 I0.2870 J-0.6929
G02 X10.2871 Y112.2927 I0.0000 J-0.7500
G02 X10.5304 Y112.1302 I-0.2870 J-0.6929
G02 X10.6930 Y111.8869 I-0.5303 J-0.5303
G02 X10.7501 Y111.5999 I-0.6929 J-0.2870
G02 X9.6251 Y110.9504 I-0.7500 J0.0000
G02 Y112.2494 I0.3750 J0.6495
G02 X10.7501 Y111.5999 I0.3750 J-0.6495
G02 X9.5001 I-0.6250 J0.0000
G02 X10.5001 I0.5000 J0.0000
G02 X9.7501 Y111.1669 Z-0.8143 I-0.5000 J0.0000
G02 Y112.0329 Z-0.8964 I0.2500 J0.4330
G02 X10.5001 Y111.5999 Z-0.9786 I0.2500 J-0.4330
G02 X9.7501 Y111.1669 I-0.5000 J0.0000
G02 Y112.0329 I0.2500 J0.4330
G02 X10.5001 Y111.5999 I0.2500 J-0.4330
G02 X10.5053 Y111.3906 I-0.4981 J-0.1172
G02 X10.4199 Y111.1800 I-0.5502 J0.1005
G02 X10.2453 Y111.0080 I-0.5043 J0.3375
G02 X10.0001 Y110.9124 I-0.3555 J0.5493
G02 X9.7191 Y110.9214 I-0.1184 J0.6916
G02 X9.4698 Y111.0696 I0.2467 J0.6988
G02 X9.3072 Y111.3129 I0.5303 J0.5303
G02 X9.2501 Y111.5999 I0.6929 J0.2870
G02 X9.3072 Y111.8869 I0.7500 J0.0000
G02 X9.4698 Y112.1302 I0.6929 J-0.2870
G02 X9.7131 Y112.2927 I0.5303 J-0.5303
G02 X10.0001 Y112.3498 I0.2870 J-0.6929
G02 X10.2871 Y112.2927 I0.0000 J-0.7500
G02 X10.5304 Y112.1302 I-0.2870 J-0.6929
G02 X10.6930 Y111.8869 I-0.5303 J-0.5303
G02 X10.7501 Y111.5999 I-0.6929 J-0.2870
G02 X9.6251 Y110.9504 I-0.7500 J0.0000
G02 Y112.2494 I0.3750 J0.6495
G02 X10.7501 Y111.5999 I0.3750 J-0.6495
G02 X9.5001 I-0.6250 J0.0000
G02 X10.5001 I0.5000 J0.0000
G02 X9.7501 Y111.1669 Z-1.0607 I-0.5000 J0.0000
G02 Y112.0329 Z-1.1429 I0.2500 J0.4330
G02 X10.5001 Y111.5999 Z-1.2250 I0.2500 J-0.4330
G02 X9.7501 Y111.1669 I-0.5000 J0.0000
G02 Y112.0329 I0.2500 J0.4330
G02 X10.5001 Y111.5999 I0.2500 J-0.4330
G02 X10.5053 Y111.3906 I-0.4981 J-0.1172
G02 X10.4199 Y111.1800 I-0.5502 J0.1005
G02 X10.2453 Y111.0080 I-0.5043 J0.3375
G02 X10.0001 Y110.9124 I-0.3555 J0.5493
G02 X9.7191 Y110.9214 I-0.1184 J0.6916
G02 X9.4698 Y111.0696 I0.2467 J0.6988
G02 X9.3072 Y111.3129 I0.5303 J0.5303
G02 X9.2501 Y111.5999 I0.6929 J0.2870
G02 X9.3072 Y111.8869 I0.7500 J0.0000
G02 X9.4698 Y112.1302 I0.6929 J-0.2870
G02 X9.7131 Y112.2927 I0.5303 J-0.5303
G02 X10.0001 Y112.3498 I0.2870 J-0.6929
G02 X10.2871 Y112.2927 I0.0000 J-0.7500
G02 X10.5304 Y112.1302 I-0.2870 J-0.6929
G02 X10.6930 Y111.8869 I-0.5303 J-0.5303
G02 X10.7501 Y111.5999 I-0.6929 J-0.2870
G02 X9.6251 Y110.9504 I-0.7500 J0.0000
G02 Y112.2494 I0.3750 J0.6495
G02 X10.7501 Y111.5999 I0.3750 J-0.6495
G02 X9.5001 I-0.6250 J0.0000
G02 X10.5001 I0.5000 J0.0000
G02 X9.7501 Y111.1669 Z-1.3071 I-0.5000 J0.0000
G02 Y112.0329 Z-1.3893 I0.2500 J0.4330
G02 X10.5001 Y111.5999 Z-1.4714 I0.2500 J-0.4330
G02 X9.7501 Y111.1669 I-0.5000 J0.0000
G02 Y112.0329 I0.2500 J0.4330
G02 X10.5001 Y111.5999 I0.2500 J-0.4330
G02 X10.5053 Y111.3906 I-0.4981 J-0.1172
G02 X10.4199 Y111.1800 I-0.5502 J0.1005
G02 X10.2453 Y111.0080 I-0.5043 J0.3375
G02 X10.0001 Y110.9124 I-0.3555 J0.5493
G02 X9.7191 Y110.9214 I-0.1184 J0.6916
G02 X9.4698 Y111.0696 I0.2467 J0.6988
G02 X9.3072 Y111.3129 I0.5303 J0.5303
G02 X9.2501 Y111.5999 I0.6929 J0.2870
G02 X9.3072 Y111.8869 I0.7500 J0.0000
G02 X9.4698 Y112.1302 I0.6929 J-0.2870
G02 X9.7131 Y112.2927 I0.5303 J-0.5303
G02 X10.0001 Y112.3498 I0.2870 J-0.6929
G02 X10.2871 Y112.2927 I0.0000 J-0.7500
G02 X10.5304 Y112.1302 I-0.2870 J-0.6929
G02 X10.6930 Y111.8869 I-0.5303 J-0.5303
G02 X10.7501 Y111.5999 I-0.6929 J-0.2870
G02 X9.6251 Y110.9504 I-0.7500 J0.0000
G02 Y112.2494 I0.3750 J0.6495
G02 X10.7501 Y111.5999 I0.3750 J-0.6495
G02 X9.5001 I-0.6250 J0.0000
G02 X10.5001 I0.5000 J0.0000
G02 X9.7501 Y111.1669 Z-1.5536 I-0.5000 J0.0000
G02 Y112.0329 Z-1.6357 I0.2500 J0.4330
G02 X10.5001 Y111.5999 Z-1.7179 I0.2500 J-0.4330
G02 X9.7501 Y111.1669 I-0.5000 J0.0000
G02 Y112.0329 I0.2500 J0.4330
G02 X10.5001 Y111.5999 I0.2500 J-0.4330
G02 X10.5053 Y111.3906 I-0.4981 J-0.1172
G02 X10.4199 Y111.1800 I-0.5502 J0.1005
G02 X10.2453 Y111.0080 I-0.5043 J0.3375
G02 X10.0001 Y110.9124 I-0.3555 J0.5493
G02 X9.7191 Y110.9214 I-0.1184 J0.6916
G02 X9.4698 Y111.0696 I0.2467 J0.6988
G02 X9.3072 Y111.3129 I0.5303 J0.5303
G02 X9.2501 Y111.5999 I0.6929 J0.2870
G02 X9.3072 Y111.8869 I0.7500 J0.0000
G02 X9.4698 Y112.1302 I0.6929 J-0.2870
G02 X9.7131 Y112.2927 I0.5303 J-0.5303
G02 X10.0001 Y112.3498 I0.2870 J-0.6929
G02 X10.2871 Y112.2927 I0.0000 J-0.7500
G02 X10.5304 Y112.1302 I-0.2870 J-0.6929
G02 X10.6930 Y111.8869 I-0.5303 J-0.5303
G02 X10.7501 Y111.5999 I-0.6929 J-0.2870
G02 X9.6251 Y110.9504 I-0.7500 J0.0000
G02 Y112.2494 I0.3750 J0.6495
G02 X10.7501 Y111.5999 I0.3750 J-0.6495
G02 X9.5001 I-0.6250 J0.0000
G02 X10.5001 I0.5000 J0.0000
G02 X9.7501 Y111.1669 Z-1.8000 I-0.5000 J0.0000
G02 Y112.0329 Z-1.8821 I0.2500 J0.4330
G02 X10.5001 Y111.5999 Z-1.9643 I0.2500 J-0.4330
G02 X9.7501 Y111.1669 I-0.5000 J0.0000
G02 Y112.0329 I0.2500 J0.4330
G02 X10.5001 Y111.5999 I0.2500 J-0.4330
G02 X10.5053 Y111.3906 I-0.4981 J-0.1172
G02 X10.4199 Y111.1800 I-0.5502 J0.1005
G02 X10.2453 Y111.0080 I-0.5043 J0.3375
G02 X10.0001 Y110.9124 I-0.3555 J0.5493
G02 X9.7191 Y110.9214 I-0.1184 J0.6916
G02 X9.4698 Y111.0696 I0.2467 J0.6988
G02 X9.3072 Y111.3129 I0.5303 J0.5303
G02 X9.2501 Y111.5999 I0.6929 J0.2870
G02 X9.3072 Y111.8869 I0.7500 J0.0000
G02 X9.4698 Y112.1302 I0.6929 J-0.2870
G02 X9.7131 Y112.2927 I0.5303 J-0.5303
G02 X10.0001 Y112.3498 I0.2870 J-0.6929
G02 X10.2871 Y112.2927 I0.0000 J-0.7500
G02 X10.5304 Y112.1302 I-0.2870 J-0.6929
G02 X10.6930 Y111.8869 I-0.5303 J-0.5303
G02 X10.7501 Y111.5999 I-0.6929 J-0.2870
G02 X9.6251 Y110.9504 I-0.7500 J0.0000
G02 Y112.2494 I0.3750 J0.6495
G02 X10.7501 Y111.5999 I0.3750 J-0.6495
G02 X9.5001 I-0.6250 J0.0000
G02 X10.5001 I0.5000 J0.0000
G02 X9.7501 Y111.1669 Z-2.0464 I-0.5000 J0.0000
G02 Y112.0329 Z-2.1286 I0.2500 J0.4330
G02 X10.5001 Y111.5999 Z-2.2107 I0.2500 J-0.4330
G02 X9.7501 Y111.1669 I-0.5000 J0.0000
G02 Y112.0329 I0.2500 J0.4330
G02 X10.5001 Y111.5999 I0.2500 J-0.4330
G02 X10.5053 Y111.3906 I-0.4981 J-0.1172
G02 X10.4199 Y111.1800 I-0.5502 J0.1005
G02 X10.2453 Y111.0080 I-0.5043 J0.3375
G02 X10.0001 Y110.9124 I-0.3555 J0.5493
G02 X9.7191 Y110.9214 I-0.1184 J0.6916
G02 X9.4698 Y111.0696 I0.2467 J0.6988
G02 X9.3072 Y111.3129 I0.5303 J0.5303
G02 X9.2501 Y111.5999 I0.6929 J0.2870
G02 X9.3072 Y111.8869 I0.7500 J0.0000
G02 X9.4698 Y112.1302 I0.6929 J-0.2870
G02 X9.7131 Y112.2927 I0.5303 J-0.5303
G02 X10.0001 Y112.3498 I0.2870 J-0.6929
G02 X10.2871 Y112.2927 I0.0000 J-0.7500
G02 X10.5304 Y112.1302 I-0.2870 J-0.6929
G02 X10.6930 Y111.8869 I-0.5303 J-0.5303
G02 X10.7501 Y111.5999 I-0.6929 J-0.2870
G02 X9.6251 Y110.9504 I-0.7500 J0.0000
G02 Y112.2494 I0.3750 J0.6495
G02 X10.7501 Y111.5999 I0.3750 J-0.6495
G02 X9.5001 I-0.6250 J0.0000
G02 X10.5001 I0.5000 J0.0000
G02 X9.7501 Y111.1669 Z-2.2929 I-0.5000 J0.0000
G02 Y112.0329 Z-2.3750 I0.2500 J0.4330
G02 X10.5001 Y111.5999 Z-2.4571 I0.2500 J-0.4330
G02 X9.7501 Y111.1669 I-0.5000 J0.0000
G02 Y112.0329 I0.2500 J0.4330
G02 X10.5001 Y111.5999 I0.2500 J-0.4330
G02 X10.5053 Y111.3906 I-0.4981 J-0.1172
G02 X10.4199 Y111.1800 I-0.5502 J0.1005
G02 X10.2453 Y111.0080 I-0.5043 J0.3375
G02 X10.0001 Y110.9124 I-0.3555 J0.5493
G02 X9.7191 Y110.9214 I-0.1184 J0.6916
G02 X9.4698 Y111.0696 I0.2467 J0.6988
G02 X9.3072 Y111.3129 I0.5303 J0.5303
G02 X9.2501 Y111.5999 I0.6929 J0.2870
G02 X9.3072 Y111.8869 I0.7500 J0.0000
G02 X9.4698 Y112.1302 I0.6929 J-0.2870
G02 X9.7131 Y112.2927 I0.5303 J-0.5303
G02 X10.0001 Y112.3498 I0.2870 J-0.6929
G02 X10.2871 Y112.2927 I0.0000 J-0.7500
G02 X10.5304 Y112.1302 I-0.2870 J-0.6929
G02 X10.6930 Y111.8869 I-0.5303 J-0.5303
G02 X10.7501 Y111.5999 I-0.6929 J-0.2870
G02 X9.6251 Y110.9504 I-0.7500 J0.0000
G02 Y112.2494 I0.3750 J0.6495
G02 X10.7501 Y111.5999 I0.3750 J-0.6495
G02 X9.5001 I-0.6250 J0.0000
G02 X10.5001 I0.5000 J0.0000
G02 X9.7501 Y111.1669 Z-2.5393 I-0.5000 J0.0000
G02 Y112.0329 Z-2.6214 I0.2500 J0.4330
G02 X10.5001 Y111.5999 Z-2.7036 I0.2500 J-0.4330
G02 X9.7501 Y111.1669 I-0.5000 J0.0000
G02 Y112.0329 I0.2500 J0.4330
G02 X10.5001 Y111.5999 I0.2500 J-0.4330
G02 X10.5053 Y111.3906 I-0.4981 J-0.1172
G02 X10.4199 Y111.1800 I-0.5502 J0.1005
G02 X10.2453 Y111.0080 I-0.5043 J0.3375
G02 X10.0001 Y110.9124 I-0.3555 J0.5493
G02 X9.7191 Y110.9214 I-0.1184 J0.6916
G02 X9.4698 Y111.0696 I0.2467 J0.6988
G02 X9.3072 Y111.3129 I0.5303 J0.5303
G02 X9.2501 Y111.5999 I0.6929 J0.2870
G02 X9.3072 Y111.8869 I0.7500 J0.0000
G02 X9.4698 Y112.1302 I0.6929 J-0.2870
G02 X9.7131 Y112.2927 I0.5303 J-0.5303
G02 X10.0001 Y112.3498 I0.2870 J-0.6929
G02 X10.2871 Y112.2927 I0.0000 J-0.7500
G02 X10.5304 Y112.1302 I-0.2870 J-0.6929
G02 X10.6930 Y111.8869 I-0.5303 J-0.5303
G02 X10.7501 Y111.5999 I-0.6929 J-0.2870
G02 X9.6251 Y110.9504 I-0.7500 J0.0000
G02 Y112.2494 I0.3750 J0.6495
G02 X10.7501 Y111.5999 I0.3750 J-0.6495
G02 X9.5001 I-0.6250 J0.0000
G02 X10.5001 I0.5000 J0.0000
G02 X9.7501 Y111.1669 Z-2.7857 I-0.5000 J0.0000
G02 Y112.0329 Z-2.8679 I0.2500 J0.4330
G02 X10.5001 Y111.5999 Z-2.9500 I0.2500 J-0.4330
G02 X9.7501 Y111.1669 I-0.5000 J0.0000
G02 Y112.0329 I0.2500 J0.4330
G02 X10.5001 Y111.5999 I0.2500 J-0.4330
